( Made using CamBam - http://www.cambam.co.uk )
( Frontplate 9/5/2013 11:41:50 AM )
( T2 : 2.0 )
( T10 : 0.0 )
G21 G90 G64 G40
G0 Z3.0
( T2 : 2.0 )
T2 M6
( Löcher )
G17
M3 S1000
G0 X-17.25 Y100.0
G0 Z0.2
G1 F300.0 Z-0.4
G2 F800.0 X-21.375 Y97.6184 I-2.75 J0.0
G2 Y102.3816 I1.375 J2.3816
G2 X-17.25 Y100.0 I1.375 J-2.3816
G1 F300.0 Z-0.8
G2 F800.0 X-21.375 Y97.6184 I-2.75 J0.0
G2 Y102.3816 I1.375 J2.3816
G2 X-17.25 Y100.0 I1.375 J-2.3816
G1 F300.0 Z-1.2
G2 F800.0 X-21.375 Y97.6184 I-2.75 J0.0
G2 Y102.3816 I1.375 J2.3816
G2 X-17.25 Y100.0 I1.375 J-2.3816
G1 F300.0 Z-1.6
G2 F800.0 X-21.375 Y97.6184 I-2.75 J0.0
G2 Y102.3816 I1.375 J2.3816
G2 X-17.25 Y100.0 I1.375 J-2.3816
G1 F300.0 Z-2.0
G2 F800.0 X-21.375 Y97.6184 I-2.75 J0.0
G2 Y102.3816 I1.375 J2.3816
G2 X-17.25 Y100.0 I1.375 J-2.3816
G1 F300.0 Z-2.4
G2 F800.0 X-21.375 Y97.6184 I-2.75 J0.0
G2 Y102.3816 I1.375 J2.3816
G2 X-17.25 Y100.0 I1.375 J-2.3816
G1 F300.0 Z-2.8
G2 F800.0 X-21.375 Y97.6184 I-2.75 J0.0
G2 Y102.3816 I1.375 J2.3816
G2 X-17.25 Y100.0 I1.375 J-2.3816
G1 F300.0 Z-3.0
G2 F800.0 X-21.375 Y97.6184 I-2.75 J0.0
G2 Y102.3816 I1.375 J2.3816
G2 X-17.25 Y100.0 I1.375 J-2.3816
G0 Z3.0
G0 X-6.2088 Y108.1119
G0 Z0.2
G1 F300.0 Z-0.4
G2 F800.0 X-5.75 Y110.299 I1.2088 J0.8881
G2 X-3.5 Y109.0 I0.75 J-1.299
G2 X-5.75 Y107.701 I-1.5 J0.0
G2 X-6.2088 Y108.1119 I0.75 J1.299
G1 F300.0 Z-0.8
G2 F800.0 X-5.75 Y110.299 I1.2088 J0.8881
G2 X-3.5 Y109.0 I0.75 J-1.299
G2 X-5.75 Y107.701 I-1.5 J0.0
G2 X-6.2088 Y108.1119 I0.75 J1.299
G1 F300.0 Z-1.2
G2 F800.0 X-5.75 Y110.299 I1.2088 J0.8881
G2 X-3.5 Y109.0 I0.75 J-1.299
G2 X-5.75 Y107.701 I-1.5 J0.0
G2 X-6.2088 Y108.1119 I0.75 J1.299
G1 F300.0 Z-1.6
G2 F800.0 X-5.75 Y110.299 I1.2088 J0.8881
G2 X-3.5 Y109.0 I0.75 J-1.299
G2 X-5.75 Y107.701 I-1.5 J0.0
G2 X-6.2088 Y108.1119 I0.75 J1.299
G1 F300.0 Z-2.0
G2 F800.0 X-5.75 Y110.299 I1.2088 J0.8881
G2 X-3.5 Y109.0 I0.75 J-1.299
G2 X-5.75 Y107.701 I-1.5 J0.0
G2 X-6.2088 Y108.1119 I0.75 J1.299
G1 F300.0 Z-2.4
G2 F800.0 X-5.75 Y110.299 I1.2088 J0.8881
G2 X-3.5 Y109.0 I0.75 J-1.299
G2 X-5.75 Y107.701 I-1.5 J0.0
G2 X-6.2088 Y108.1119 I0.75 J1.299
G1 F300.0 Z-2.8
G2 F800.0 X-5.75 Y110.299 I1.2088 J0.8881
G2 X-3.5 Y109.0 I0.75 J-1.299
G2 X-5.75 Y107.701 I-1.5 J0.0
G2 X-6.2088 Y108.1119 I0.75 J1.299
G1 F300.0 Z-3.0
G2 F800.0 X-5.75 Y110.299 I1.2088 J0.8881
G2 X-3.5 Y109.0 I0.75 J-1.299
G2 X-5.75 Y107.701 I-1.5 J0.0
G2 X-6.2088 Y108.1119 I0.75 J1.299
G0 Z3.0
G0 X-18.7888 Y82.4689
G0 Z0.2
G1 F300.0 Z-0.4
G2 F800.0 X-17.25 Y80.0 I-1.2112 J-2.4689
G2 X-21.375 Y77.6184 I-2.75 J0.0
G2 Y82.3816 I1.375 J2.3816
G2 X-18.7888 Y82.4689 I1.375 J-2.3816
G1 F300.0 Z-0.8
G2 F800.0 X-17.25 Y80.0 I-1.2112 J-2.4689
G2 X-21.375 Y77.6184 I-2.75 J0.0
G2 Y82.3816 I1.375 J2.3816
G2 X-18.7888 Y82.4689 I1.375 J-2.3816
G1 F300.0 Z-1.2
G2 F800.0 X-17.25 Y80.0 I-1.2112 J-2.4689
G2 X-21.375 Y77.6184 I-2.75 J0.0
G2 Y82.3816 I1.375 J2.3816
G2 X-18.7888 Y82.4689 I1.375 J-2.3816
G1 F300.0 Z-1.6
G2 F800.0 X-17.25 Y80.0 I-1.2112 J-2.4689
G2 X-21.375 Y77.6184 I-2.75 J0.0
G2 Y82.3816 I1.375 J2.3816
G2 X-18.7888 Y82.4689 I1.375 J-2.3816
G1 F300.0 Z-2.0
G2 F800.0 X-17.25 Y80.0 I-1.2112 J-2.4689
G2 X-21.375 Y77.6184 I-2.75 J0.0
G2 Y82.3816 I1.375 J2.3816
G2 X-18.7888 Y82.4689 I1.375 J-2.3816
G1 F300.0 Z-2.4
G2 F800.0 X-17.25 Y80.0 I-1.2112 J-2.4689
G2 X-21.375 Y77.6184 I-2.75 J0.0
G2 Y82.3816 I1.375 J2.3816
G2 X-18.7888 Y82.4689 I1.375 J-2.3816
G1 F300.0 Z-2.8
G2 F800.0 X-17.25 Y80.0 I-1.2112 J-2.4689
G2 X-21.375 Y77.6184 I-2.75 J0.0
G2 Y82.3816 I1.375 J2.3816
G2 X-18.7888 Y82.4689 I1.375 J-2.3816
G1 F300.0 Z-3.0
G2 F800.0 X-17.25 Y80.0 I-1.2112 J-2.4689
G2 X-21.375 Y77.6184 I-2.75 J0.0
G2 Y82.3816 I1.375 J2.3816
G2 X-18.7888 Y82.4689 I1.375 J-2.3816
G0 Z3.0
G0 X-37.2684 Y80.3179
G0 Z0.2
G1 F300.0 Z-0.4
G2 F800.0 X-37.25 Y80.0 I-2.7316 J-0.3179
G2 X-41.375 Y77.6184 I-2.75 J0.0
G2 Y82.3816 I1.375 J2.3816
G2 X-37.2684 Y80.3179 I1.375 J-2.3816
G1 F300.0 Z-0.8
G2 F800.0 X-37.25 Y80.0 I-2.7316 J-0.3179
G2 X-41.375 Y77.6184 I-2.75 J0.0
G2 Y82.3816 I1.375 J2.3816
G2 X-37.2684 Y80.3179 I1.375 J-2.3816
G1 F300.0 Z-1.2
G2 F800.0 X-37.25 Y80.0 I-2.7316 J-0.3179
G2 X-41.375 Y77.6184 I-2.75 J0.0
G2 Y82.3816 I1.375 J2.3816
G2 X-37.2684 Y80.3179 I1.375 J-2.3816
G1 F300.0 Z-1.6
G2 F800.0 X-37.25 Y80.0 I-2.7316 J-0.3179
G2 X-41.375 Y77.6184 I-2.75 J0.0
G2 Y82.3816 I1.375 J2.3816
G2 X-37.2684 Y80.3179 I1.375 J-2.3816
G1 F300.0 Z-2.0
G2 F800.0 X-37.25 Y80.0 I-2.7316 J-0.3179
G2 X-41.375 Y77.6184 I-2.75 J0.0
G2 Y82.3816 I1.375 J2.3816
G2 X-37.2684 Y80.3179 I1.375 J-2.3816
G1 F300.0 Z-2.4
G2 F800.0 X-37.25 Y80.0 I-2.7316 J-0.3179
G2 X-41.375 Y77.6184 I-2.75 J0.0
G2 Y82.3816 I1.375 J2.3816
G2 X-37.2684 Y80.3179 I1.375 J-2.3816
G1 F300.0 Z-2.8
G2 F800.0 X-37.25 Y80.0 I-2.7316 J-0.3179
G2 X-41.375 Y77.6184 I-2.75 J0.0
G2 Y82.3816 I1.375 J2.3816
G2 X-37.2684 Y80.3179 I1.375 J-2.3816
G1 F300.0 Z-3.0
G2 F800.0 X-37.25 Y80.0 I-2.7316 J-0.3179
G2 X-41.375 Y77.6184 I-2.75 J0.0
G2 Y82.3816 I1.375 J2.3816
G2 X-37.2684 Y80.3179 I1.375 J-2.3816
G0 Z3.0
G0 X-39.622 Y97.2761
G0 Z0.2
G1 F300.0 Z-0.4
G2 F800.0 X-41.375 Y97.6184 I-0.378 J2.7239
G2 Y102.3816 I1.375 J2.3816
G2 X-37.25 Y100.0 I1.375 J-2.3816
G2 X-39.622 Y97.2761 I-2.75 J0.0
G1 F300.0 Z-0.8
G2 F800.0 X-41.375 Y97.6184 I-0.378 J2.7239
G2 Y102.3816 I1.375 J2.3816
G2 X-37.25 Y100.0 I1.375 J-2.3816
G2 X-39.622 Y97.2761 I-2.75 J0.0
G1 F300.0 Z-1.2
G2 F800.0 X-41.375 Y97.6184 I-0.378 J2.7239
G2 Y102.3816 I1.375 J2.3816
G2 X-37.25 Y100.0 I1.375 J-2.3816
G2 X-39.622 Y97.2761 I-2.75 J0.0
G1 F300.0 Z-1.6
G2 F800.0 X-41.375 Y97.6184 I-0.378 J2.7239
G2 Y102.3816 I1.375 J2.3816
G2 X-37.25 Y100.0 I1.375 J-2.3816
G2 X-39.622 Y97.2761 I-2.75 J0.0
G1 F300.0 Z-2.0
G2 F800.0 X-41.375 Y97.6184 I-0.378 J2.7239
G2 Y102.3816 I1.375 J2.3816
G2 X-37.25 Y100.0 I1.375 J-2.3816
G2 X-39.622 Y97.2761 I-2.75 J0.0
G1 F300.0 Z-2.4
G2 F800.0 X-41.375 Y97.6184 I-0.378 J2.7239
G2 Y102.3816 I1.375 J2.3816
G2 X-37.25 Y100.0 I1.375 J-2.3816
G2 X-39.622 Y97.2761 I-2.75 J0.0
G1 F300.0 Z-2.8
G2 F800.0 X-41.375 Y97.6184 I-0.378 J2.7239
G2 Y102.3816 I1.375 J2.3816
G2 X-37.25 Y100.0 I1.375 J-2.3816
G2 X-39.622 Y97.2761 I-2.75 J0.0
G1 F300.0 Z-3.0
G2 F800.0 X-41.375 Y97.6184 I-0.378 J2.7239
G2 Y102.3816 I1.375 J2.3816
G2 X-37.25 Y100.0 I1.375 J-2.3816
G2 X-39.622 Y97.2761 I-2.75 J0.0
G0 Z3.0
G0 X-39.9721 Y62.7499
G0 Z0.2
G1 F300.0 Z-0.4
G2 F800.0 X-37.25 Y60.0 I-0.0279 J-2.7499
G2 X-41.375 Y57.6184 I-2.75 J0.0
G2 Y62.3816 I1.375 J2.3816
G2 X-39.9721 Y62.7499 I1.375 J-2.3816
G1 F300.0 Z-0.8
G2 F800.0 X-37.25 Y60.0 I-0.0279 J-2.7499
G2 X-41.375 Y57.6184 I-2.75 J0.0
G2 Y62.3816 I1.375 J2.3816
G2 X-39.9721 Y62.7499 I1.375 J-2.3816
G1 F300.0 Z-1.2
G2 F800.0 X-37.25 Y60.0 I-0.0279 J-2.7499
G2 X-41.375 Y57.6184 I-2.75 J0.0
G2 Y62.3816 I1.375 J2.3816
G2 X-39.9721 Y62.7499 I1.375 J-2.3816
G1 F300.0 Z-1.6
G2 F800.0 X-37.25 Y60.0 I-0.0279 J-2.7499
G2 X-41.375 Y57.6184 I-2.75 J0.0
G2 Y62.3816 I1.375 J2.3816
G2 X-39.9721 Y62.7499 I1.375 J-2.3816
G1 F300.0 Z-2.0
G2 F800.0 X-37.25 Y60.0 I-0.0279 J-2.7499
G2 X-41.375 Y57.6184 I-2.75 J0.0
G2 Y62.3816 I1.375 J2.3816
G2 X-39.9721 Y62.7499 I1.375 J-2.3816
G1 F300.0 Z-2.4
G2 F800.0 X-37.25 Y60.0 I-0.0279 J-2.7499
G2 X-41.375 Y57.6184 I-2.75 J0.0
G2 Y62.3816 I1.375 J2.3816
G2 X-39.9721 Y62.7499 I1.375 J-2.3816
G1 F300.0 Z-2.8
G2 F800.0 X-37.25 Y60.0 I-0.0279 J-2.7499
G2 X-41.375 Y57.6184 I-2.75 J0.0
G2 Y62.3816 I1.375 J2.3816
G2 X-39.9721 Y62.7499 I1.375 J-2.3816
G1 F300.0 Z-3.0
G2 F800.0 X-37.25 Y60.0 I-0.0279 J-2.7499
G2 X-41.375 Y57.6184 I-2.75 J0.0
G2 Y62.3816 I1.375 J2.3816
G2 X-39.9721 Y62.7499 I1.375 J-2.3816
G0 Z3.0
G0 X-22.7243 Y60.3751
G0 Z0.2
G1 F300.0 Z-0.4
G2 F800.0 X-21.375 Y62.3816 I2.7243 J-0.3751
G2 X-17.25 Y60.0 I1.375 J-2.3816
G2 X-21.375 Y57.6184 I-2.75 J0.0
G2 X-22.7243 Y60.3751 I1.375 J2.3816
G1 F300.0 Z-0.8
G2 F800.0 X-21.375 Y62.3816 I2.7243 J-0.3751
G2 X-17.25 Y60.0 I1.375 J-2.3816
G2 X-21.375 Y57.6184 I-2.75 J0.0
G2 X-22.7243 Y60.3751 I1.375 J2.3816
G1 F300.0 Z-1.2
G2 F800.0 X-21.375 Y62.3816 I2.7243 J-0.3751
G2 X-17.25 Y60.0 I1.375 J-2.3816
G2 X-21.375 Y57.6184 I-2.75 J0.0
G2 X-22.7243 Y60.3751 I1.375 J2.3816
G1 F300.0 Z-1.6
G2 F800.0 X-21.375 Y62.3816 I2.7243 J-0.3751
G2 X-17.25 Y60.0 I1.375 J-2.3816
G2 X-21.375 Y57.6184 I-2.75 J0.0
G2 X-22.7243 Y60.3751 I1.375 J2.3816
G1 F300.0 Z-2.0
G2 F800.0 X-21.375 Y62.3816 I2.7243 J-0.3751
G2 X-17.25 Y60.0 I1.375 J-2.3816
G2 X-21.375 Y57.6184 I-2.75 J0.0
G2 X-22.7243 Y60.3751 I1.375 J2.3816
G1 F300.0 Z-2.4
G2 F800.0 X-21.375 Y62.3816 I2.7243 J-0.3751
G2 X-17.25 Y60.0 I1.375 J-2.3816
G2 X-21.375 Y57.6184 I-2.75 J0.0
G2 X-22.7243 Y60.3751 I1.375 J2.3816
G1 F300.0 Z-2.8
G2 F800.0 X-21.375 Y62.3816 I2.7243 J-0.3751
G2 X-17.25 Y60.0 I1.375 J-2.3816
G2 X-21.375 Y57.6184 I-2.75 J0.0
G2 X-22.7243 Y60.3751 I1.375 J2.3816
G1 F300.0 Z-3.0
G2 F800.0 X-21.375 Y62.3816 I2.7243 J-0.3751
G2 X-17.25 Y60.0 I1.375 J-2.3816
G2 X-21.375 Y57.6184 I-2.75 J0.0
G2 X-22.7243 Y60.3751 I1.375 J2.3816
G0 Z3.0
G0 X-20.3645 Y42.7257
G0 Z0.2
G1 F300.0 Z-0.4
G2 F800.0 X-17.25 Y40.0 I0.3645 J-2.7257
G2 X-21.375 Y37.6184 I-2.75 J0.0
G2 Y42.3816 I1.375 J2.3816
G2 X-20.3645 Y42.7257 I1.375 J-2.3816
G1 F300.0 Z-0.8
G2 F800.0 X-17.25 Y40.0 I0.3645 J-2.7257
G2 X-21.375 Y37.6184 I-2.75 J0.0
G2 Y42.3816 I1.375 J2.3816
G2 X-20.3645 Y42.7257 I1.375 J-2.3816
G1 F300.0 Z-1.2
G2 F800.0 X-17.25 Y40.0 I0.3645 J-2.7257
G2 X-21.375 Y37.6184 I-2.75 J0.0
G2 Y42.3816 I1.375 J2.3816
G2 X-20.3645 Y42.7257 I1.375 J-2.3816
G1 F300.0 Z-1.6
G2 F800.0 X-17.25 Y40.0 I0.3645 J-2.7257
G2 X-21.375 Y37.6184 I-2.75 J0.0
G2 Y42.3816 I1.375 J2.3816
G2 X-20.3645 Y42.7257 I1.375 J-2.3816
G1 F300.0 Z-2.0
G2 F800.0 X-17.25 Y40.0 I0.3645 J-2.7257
G2 X-21.375 Y37.6184 I-2.75 J0.0
G2 Y42.3816 I1.375 J2.3816
G2 X-20.3645 Y42.7257 I1.375 J-2.3816
G1 F300.0 Z-2.4
G2 F800.0 X-17.25 Y40.0 I0.3645 J-2.7257
G2 X-21.375 Y37.6184 I-2.75 J0.0
G2 Y42.3816 I1.375 J2.3816
G2 X-20.3645 Y42.7257 I1.375 J-2.3816
G1 F300.0 Z-2.8
G2 F800.0 X-17.25 Y40.0 I0.3645 J-2.7257
G2 X-21.375 Y37.6184 I-2.75 J0.0
G2 Y42.3816 I1.375 J2.3816
G2 X-20.3645 Y42.7257 I1.375 J-2.3816
G1 F300.0 Z-3.0
G2 F800.0 X-17.25 Y40.0 I0.3645 J-2.7257
G2 X-21.375 Y37.6184 I-2.75 J0.0
G2 Y42.3816 I1.375 J2.3816
G2 X-20.3645 Y42.7257 I1.375 J-2.3816
G0 Z3.0
G0 X-37.2761 Y40.3781
G0 Z0.2
G1 F300.0 Z-0.4
G2 F800.0 X-37.25 Y40.0 I-2.7239 J-0.3781
G2 X-41.375 Y37.6184 I-2.75 J0.0
G2 Y42.3816 I1.375 J2.3816
G2 X-37.2761 Y40.3781 I1.375 J-2.3816
G1 F300.0 Z-0.8
G2 F800.0 X-37.25 Y40.0 I-2.7239 J-0.3781
G2 X-41.375 Y37.6184 I-2.75 J0.0
G2 Y42.3816 I1.375 J2.3816
G2 X-37.2761 Y40.3781 I1.375 J-2.3816
G1 F300.0 Z-1.2
G2 F800.0 X-37.25 Y40.0 I-2.7239 J-0.3781
G2 X-41.375 Y37.6184 I-2.75 J0.0
G2 Y42.3816 I1.375 J2.3816
G2 X-37.2761 Y40.3781 I1.375 J-2.3816
G1 F300.0 Z-1.6
G2 F800.0 X-37.25 Y40.0 I-2.7239 J-0.3781
G2 X-41.375 Y37.6184 I-2.75 J0.0
G2 Y42.3816 I1.375 J2.3816
G2 X-37.2761 Y40.3781 I1.375 J-2.3816
G1 F300.0 Z-2.0
G2 F800.0 X-37.25 Y40.0 I-2.7239 J-0.3781
G2 X-41.375 Y37.6184 I-2.75 J0.0
G2 Y42.3816 I1.375 J2.3816
G2 X-37.2761 Y40.3781 I1.375 J-2.3816
G1 F300.0 Z-2.4
G2 F800.0 X-37.25 Y40.0 I-2.7239 J-0.3781
G2 X-41.375 Y37.6184 I-2.75 J0.0
G2 Y42.3816 I1.375 J2.3816
G2 X-37.2761 Y40.3781 I1.375 J-2.3816
G1 F300.0 Z-2.8
G2 F800.0 X-37.25 Y40.0 I-2.7239 J-0.3781
G2 X-41.375 Y37.6184 I-2.75 J0.0
G2 Y42.3816 I1.375 J2.3816
G2 X-37.2761 Y40.3781 I1.375 J-2.3816
G1 F300.0 Z-3.0
G2 F800.0 X-37.25 Y40.0 I-2.7239 J-0.3781
G2 X-41.375 Y37.6184 I-2.75 J0.0
G2 Y42.3816 I1.375 J2.3816
G2 X-37.2761 Y40.3781 I1.375 J-2.3816
G0 Z3.0
G0 X-39.6357 Y22.7258
G0 Z0.2
G1 F300.0 Z-0.4
G2 F800.0 X-37.25 Y20.0 I-0.3643 J-2.7258
G2 X-41.375 Y17.6184 I-2.75 J0.0
G2 Y22.3816 I1.375 J2.3816
G2 X-39.6357 Y22.7258 I1.375 J-2.3816
G1 F300.0 Z-0.8
G2 F800.0 X-37.25 Y20.0 I-0.3643 J-2.7258
G2 X-41.375 Y17.6184 I-2.75 J0.0
G2 Y22.3816 I1.375 J2.3816
G2 X-39.6357 Y22.7258 I1.375 J-2.3816
G1 F300.0 Z-1.2
G2 F800.0 X-37.25 Y20.0 I-0.3643 J-2.7258
G2 X-41.375 Y17.6184 I-2.75 J0.0
G2 Y22.3816 I1.375 J2.3816
G2 X-39.6357 Y22.7258 I1.375 J-2.3816
G1 F300.0 Z-1.6
G2 F800.0 X-37.25 Y20.0 I-0.3643 J-2.7258
G2 X-41.375 Y17.6184 I-2.75 J0.0
G2 Y22.3816 I1.375 J2.3816
G2 X-39.6357 Y22.7258 I1.375 J-2.3816
G1 F300.0 Z-2.0
G2 F800.0 X-37.25 Y20.0 I-0.3643 J-2.7258
G2 X-41.375 Y17.6184 I-2.75 J0.0
G2 Y22.3816 I1.375 J2.3816
G2 X-39.6357 Y22.7258 I1.375 J-2.3816
G1 F300.0 Z-2.4
G2 F800.0 X-37.25 Y20.0 I-0.3643 J-2.7258
G2 X-41.375 Y17.6184 I-2.75 J0.0
G2 Y22.3816 I1.375 J2.3816
G2 X-39.6357 Y22.7258 I1.375 J-2.3816
G1 F300.0 Z-2.8
G2 F800.0 X-37.25 Y20.0 I-0.3643 J-2.7258
G2 X-41.375 Y17.6184 I-2.75 J0.0
G2 Y22.3816 I1.375 J2.3816
G2 X-39.6357 Y22.7258 I1.375 J-2.3816
G1 F300.0 Z-3.0
G2 F800.0 X-37.25 Y20.0 I-0.3643 J-2.7258
G2 X-41.375 Y17.6184 I-2.75 J0.0
G2 Y22.3816 I1.375 J2.3816
G2 X-39.6357 Y22.7258 I1.375 J-2.3816
G0 Z3.0
G0 X-22.7239 Y20.3781
G0 Z0.2
G1 F300.0 Z-0.4
G2 F800.0 X-21.375 Y22.3816 I2.7239 J-0.3781
G2 X-17.25 Y20.0 I1.375 J-2.3816
G2 X-21.375 Y17.6184 I-2.75 J0.0
G2 X-22.7239 Y20.3781 I1.375 J2.3816
G1 F300.0 Z-0.8
G2 F800.0 X-21.375 Y22.3816 I2.7239 J-0.3781
G2 X-17.25 Y20.0 I1.375 J-2.3816
G2 X-21.375 Y17.6184 I-2.75 J0.0
G2 X-22.7239 Y20.3781 I1.375 J2.3816
G1 F300.0 Z-1.2
G2 F800.0 X-21.375 Y22.3816 I2.7239 J-0.3781
G2 X-17.25 Y20.0 I1.375 J-2.3816
G2 X-21.375 Y17.6184 I-2.75 J0.0
G2 X-22.7239 Y20.3781 I1.375 J2.3816
G1 F300.0 Z-1.6
G2 F800.0 X-21.375 Y22.3816 I2.7239 J-0.3781
G2 X-17.25 Y20.0 I1.375 J-2.3816
G2 X-21.375 Y17.6184 I-2.75 J0.0
G2 X-22.7239 Y20.3781 I1.375 J2.3816
G1 F300.0 Z-2.0
G2 F800.0 X-21.375 Y22.3816 I2.7239 J-0.3781
G2 X-17.25 Y20.0 I1.375 J-2.3816
G2 X-21.375 Y17.6184 I-2.75 J0.0
G2 X-22.7239 Y20.3781 I1.375 J2.3816
G1 F300.0 Z-2.4
G2 F800.0 X-21.375 Y22.3816 I2.7239 J-0.3781
G2 X-17.25 Y20.0 I1.375 J-2.3816
G2 X-21.375 Y17.6184 I-2.75 J0.0
G2 X-22.7239 Y20.3781 I1.375 J2.3816
G1 F300.0 Z-2.8
G2 F800.0 X-21.375 Y22.3816 I2.7239 J-0.3781
G2 X-17.25 Y20.0 I1.375 J-2.3816
G2 X-21.375 Y17.6184 I-2.75 J0.0
G2 X-22.7239 Y20.3781 I1.375 J2.3816
G1 F300.0 Z-3.0
G2 F800.0 X-21.375 Y22.3816 I2.7239 J-0.3781
G2 X-17.25 Y20.0 I1.375 J-2.3816
G2 X-21.375 Y17.6184 I-2.75 J0.0
G2 X-22.7239 Y20.3781 I1.375 J2.3816
G0 Z3.0
G0 X-7.1042 Y6.0153
G0 Z0.2
G1 F300.0 Z-0.4
G2 F800.0 X-6.75 Y6.299 I1.1042 J-1.0153
G2 X-4.5 Y5.0 I0.75 J-1.299
G2 X-6.75 Y3.701 I-1.5 J0.0
G2 X-7.1042 Y6.0153 I0.75 J1.299
G1 F300.0 Z-0.8
G2 F800.0 X-6.75 Y6.299 I1.1042 J-1.0153
G2 X-4.5 Y5.0 I0.75 J-1.299
G2 X-6.75 Y3.701 I-1.5 J0.0
G2 X-7.1042 Y6.0153 I0.75 J1.299
G1 F300.0 Z-1.2
G2 F800.0 X-6.75 Y6.299 I1.1042 J-1.0153
G2 X-4.5 Y5.0 I0.75 J-1.299
G2 X-6.75 Y3.701 I-1.5 J0.0
G2 X-7.1042 Y6.0153 I0.75 J1.299
G1 F300.0 Z-1.6
G2 F800.0 X-6.75 Y6.299 I1.1042 J-1.0153
G2 X-4.5 Y5.0 I0.75 J-1.299
G2 X-6.75 Y3.701 I-1.5 J0.0
G2 X-7.1042 Y6.0153 I0.75 J1.299
G1 F300.0 Z-2.0
G2 F800.0 X-6.75 Y6.299 I1.1042 J-1.0153
G2 X-4.5 Y5.0 I0.75 J-1.299
G2 X-6.75 Y3.701 I-1.5 J0.0
G2 X-7.1042 Y6.0153 I0.75 J1.299
G1 F300.0 Z-2.4
G2 F800.0 X-6.75 Y6.299 I1.1042 J-1.0153
G2 X-4.5 Y5.0 I0.75 J-1.299
G2 X-6.75 Y3.701 I-1.5 J0.0
G2 X-7.1042 Y6.0153 I0.75 J1.299
G1 F300.0 Z-2.8
G2 F800.0 X-6.75 Y6.299 I1.1042 J-1.0153
G2 X-4.5 Y5.0 I0.75 J-1.299
G2 X-6.75 Y3.701 I-1.5 J0.0
G2 X-7.1042 Y6.0153 I0.75 J1.299
G1 F300.0 Z-3.0
G2 F800.0 X-6.75 Y6.299 I1.1042 J-1.0153
G2 X-4.5 Y5.0 I0.75 J-1.299
G2 X-6.75 Y3.701 I-1.5 J0.0
G2 X-7.1042 Y6.0153 I0.75 J1.299
G0 Z3.0
G0 X-80.2559 Y10.8198
G0 Z0.2
G1 F300.0 Z-0.4
G2 F800.0 X-84.375 Y8.6184 I-2.7441 J0.1802
G2 Y13.3816 I1.375 J2.3816
G2 X-80.25 Y11.0 I1.375 J-2.3816
G2 X-80.2559 Y10.8198 I-2.75 J0.0
G1 F300.0 Z-0.8
G2 F800.0 X-84.375 Y8.6184 I-2.7441 J0.1802
G2 Y13.3816 I1.375 J2.3816
G2 X-80.25 Y11.0 I1.375 J-2.3816
G2 X-80.2559 Y10.8198 I-2.75 J0.0
G1 F300.0 Z-1.2
G2 F800.0 X-84.375 Y8.6184 I-2.7441 J0.1802
G2 Y13.3816 I1.375 J2.3816
G2 X-80.25 Y11.0 I1.375 J-2.3816
G2 X-80.2559 Y10.8198 I-2.75 J0.0
G1 F300.0 Z-1.6
G2 F800.0 X-84.375 Y8.6184 I-2.7441 J0.1802
G2 Y13.3816 I1.375 J2.3816
G2 X-80.25 Y11.0 I1.375 J-2.3816
G2 X-80.2559 Y10.8198 I-2.75 J0.0
G1 F300.0 Z-2.0
G2 F800.0 X-84.375 Y8.6184 I-2.7441 J0.1802
G2 Y13.3816 I1.375 J2.3816
G2 X-80.25 Y11.0 I1.375 J-2.3816
G2 X-80.2559 Y10.8198 I-2.75 J0.0
G1 F300.0 Z-2.4
G2 F800.0 X-84.375 Y8.6184 I-2.7441 J0.1802
G2 Y13.3816 I1.375 J2.3816
G2 X-80.25 Y11.0 I1.375 J-2.3816
G2 X-80.2559 Y10.8198 I-2.75 J0.0
G1 F300.0 Z-2.8
G2 F800.0 X-84.375 Y8.6184 I-2.7441 J0.1802
G2 Y13.3816 I1.375 J2.3816
G2 X-80.25 Y11.0 I1.375 J-2.3816
G2 X-80.2559 Y10.8198 I-2.75 J0.0
G1 F300.0 Z-3.0
G2 F800.0 X-84.375 Y8.6184 I-2.7441 J0.1802
G2 Y13.3816 I1.375 J2.3816
G2 X-80.25 Y11.0 I1.375 J-2.3816
G2 X-80.2559 Y10.8198 I-2.75 J0.0
G0 Z3.0
G0 X-100.7359 Y24.9391
G0 Z0.2
G1 F300.0 Z-0.4
G2 F800.0 X-104.375 Y24.1184 I-2.2641 J1.5609
G2 Y28.8816 I1.375 J2.3816
G2 X-100.25 Y26.5 I1.375 J-2.3816
G2 X-100.7359 Y24.9391 I-2.75 J0.0
G1 F300.0 Z-0.8
G2 F800.0 X-104.375 Y24.1184 I-2.2641 J1.5609
G2 Y28.8816 I1.375 J2.3816
G2 X-100.25 Y26.5 I1.375 J-2.3816
G2 X-100.7359 Y24.9391 I-2.75 J0.0
G1 F300.0 Z-1.2
G2 F800.0 X-104.375 Y24.1184 I-2.2641 J1.5609
G2 Y28.8816 I1.375 J2.3816
G2 X-100.25 Y26.5 I1.375 J-2.3816
G2 X-100.7359 Y24.9391 I-2.75 J0.0
G1 F300.0 Z-1.6
G2 F800.0 X-104.375 Y24.1184 I-2.2641 J1.5609
G2 Y28.8816 I1.375 J2.3816
G2 X-100.25 Y26.5 I1.375 J-2.3816
G2 X-100.7359 Y24.9391 I-2.75 J0.0
G1 F300.0 Z-2.0
G2 F800.0 X-104.375 Y24.1184 I-2.2641 J1.5609
G2 Y28.8816 I1.375 J2.3816
G2 X-100.25 Y26.5 I1.375 J-2.3816
G2 X-100.7359 Y24.9391 I-2.75 J0.0
G1 F300.0 Z-2.4
G2 F800.0 X-104.375 Y24.1184 I-2.2641 J1.5609
G2 Y28.8816 I1.375 J2.3816
G2 X-100.25 Y26.5 I1.375 J-2.3816
G2 X-100.7359 Y24.9391 I-2.75 J0.0
G1 F300.0 Z-2.8
G2 F800.0 X-104.375 Y24.1184 I-2.2641 J1.5609
G2 Y28.8816 I1.375 J2.3816
G2 X-100.25 Y26.5 I1.375 J-2.3816
G2 X-100.7359 Y24.9391 I-2.75 J0.0
G1 F300.0 Z-3.0
G2 F800.0 X-104.375 Y24.1184 I-2.2641 J1.5609
G2 Y28.8816 I1.375 J2.3816
G2 X-100.25 Y26.5 I1.375 J-2.3816
G2 X-100.7359 Y24.9391 I-2.75 J0.0
G0 Z3.0
G0 X-117.2925 Y12.6399
G0 Z0.2
G1 F300.0 Z-0.4
G2 F800.0 X-116.75 Y11.0 I-2.2075 J-1.6399
G2 X-120.875 Y8.6184 I-2.75 J0.0
G2 Y13.3816 I1.375 J2.3816
G2 X-117.2925 Y12.6399 I1.375 J-2.3816
G1 F300.0 Z-0.8
G2 F800.0 X-116.75 Y11.0 I-2.2075 J-1.6399
G2 X-120.875 Y8.6184 I-2.75 J0.0
G2 Y13.3816 I1.375 J2.3816
G2 X-117.2925 Y12.6399 I1.375 J-2.3816
G1 F300.0 Z-1.2
G2 F800.0 X-116.75 Y11.0 I-2.2075 J-1.6399
G2 X-120.875 Y8.6184 I-2.75 J0.0
G2 Y13.3816 I1.375 J2.3816
G2 X-117.2925 Y12.6399 I1.375 J-2.3816
G1 F300.0 Z-1.6
G2 F800.0 X-116.75 Y11.0 I-2.2075 J-1.6399
G2 X-120.875 Y8.6184 I-2.75 J0.0
G2 Y13.3816 I1.375 J2.3816
G2 X-117.2925 Y12.6399 I1.375 J-2.3816
G1 F300.0 Z-2.0
G2 F800.0 X-116.75 Y11.0 I-2.2075 J-1.6399
G2 X-120.875 Y8.6184 I-2.75 J0.0
G2 Y13.3816 I1.375 J2.3816
G2 X-117.2925 Y12.6399 I1.375 J-2.3816
G1 F300.0 Z-2.4
G2 F800.0 X-116.75 Y11.0 I-2.2075 J-1.6399
G2 X-120.875 Y8.6184 I-2.75 J0.0
G2 Y13.3816 I1.375 J2.3816
G2 X-117.2925 Y12.6399 I1.375 J-2.3816
G1 F300.0 Z-2.8
G2 F800.0 X-116.75 Y11.0 I-2.2075 J-1.6399
G2 X-120.875 Y8.6184 I-2.75 J0.0
G2 Y13.3816 I1.375 J2.3816
G2 X-117.2925 Y12.6399 I1.375 J-2.3816
G1 F300.0 Z-3.0
G2 F800.0 X-116.75 Y11.0 I-2.2075 J-1.6399
G2 X-120.875 Y8.6184 I-2.75 J0.0
G2 Y13.3816 I1.375 J2.3816
G2 X-117.2925 Y12.6399 I1.375 J-2.3816
G0 Z3.0
G0 X-133.7904 Y24.8629
G0 Z0.2
G1 F300.0 Z-0.4
G2 F800.0 X-137.375 Y24.1184 I-2.2096 J1.6371
G2 Y28.8816 I1.375 J2.3816
G2 X-133.25 Y26.5 I1.375 J-2.3816
G2 X-133.7904 Y24.8629 I-2.75 J0.0
G1 F300.0 Z-0.8
G2 F800.0 X-137.375 Y24.1184 I-2.2096 J1.6371
G2 Y28.8816 I1.375 J2.3816
G2 X-133.25 Y26.5 I1.375 J-2.3816
G2 X-133.7904 Y24.8629 I-2.75 J0.0
G1 F300.0 Z-1.2
G2 F800.0 X-137.375 Y24.1184 I-2.2096 J1.6371
G2 Y28.8816 I1.375 J2.3816
G2 X-133.25 Y26.5 I1.375 J-2.3816
G2 X-133.7904 Y24.8629 I-2.75 J0.0
G1 F300.0 Z-1.6
G2 F800.0 X-137.375 Y24.1184 I-2.2096 J1.6371
G2 Y28.8816 I1.375 J2.3816
G2 X-133.25 Y26.5 I1.375 J-2.3816
G2 X-133.7904 Y24.8629 I-2.75 J0.0
G1 F300.0 Z-2.0
G2 F800.0 X-137.375 Y24.1184 I-2.2096 J1.6371
G2 Y28.8816 I1.375 J2.3816
G2 X-133.25 Y26.5 I1.375 J-2.3816
G2 X-133.7904 Y24.8629 I-2.75 J0.0
G1 F300.0 Z-2.4
G2 F800.0 X-137.375 Y24.1184 I-2.2096 J1.6371
G2 Y28.8816 I1.375 J2.3816
G2 X-133.25 Y26.5 I1.375 J-2.3816
G2 X-133.7904 Y24.8629 I-2.75 J0.0
G1 F300.0 Z-2.8
G2 F800.0 X-137.375 Y24.1184 I-2.2096 J1.6371
G2 Y28.8816 I1.375 J2.3816
G2 X-133.25 Y26.5 I1.375 J-2.3816
G2 X-133.7904 Y24.8629 I-2.75 J0.0
G1 F300.0 Z-3.0
G2 F800.0 X-137.375 Y24.1184 I-2.2096 J1.6371
G2 Y28.8816 I1.375 J2.3816
G2 X-133.25 Y26.5 I1.375 J-2.3816
G2 X-133.7904 Y24.8629 I-2.75 J0.0
G0 Z3.0
G0 X-121.0915 Y42.7573
G0 Z0.2
G1 F300.0 Z-0.4
G2 F800.0 X-120.875 Y47.3816 I1.5915 J2.2427
G2 X-116.75 Y45.0 I1.375 J-2.3816
G2 X-120.875 Y42.6184 I-2.75 J0.0
G2 X-121.0915 Y42.7573 I1.375 J2.3816
G1 F300.0 Z-0.8
G2 F800.0 X-120.875 Y47.3816 I1.5915 J2.2427
G2 X-116.75 Y45.0 I1.375 J-2.3816
G2 X-120.875 Y42.6184 I-2.75 J0.0
G2 X-121.0915 Y42.7573 I1.375 J2.3816
G1 F300.0 Z-1.2
G2 F800.0 X-120.875 Y47.3816 I1.5915 J2.2427
G2 X-116.75 Y45.0 I1.375 J-2.3816
G2 X-120.875 Y42.6184 I-2.75 J0.0
G2 X-121.0915 Y42.7573 I1.375 J2.3816
G1 F300.0 Z-1.6
G2 F800.0 X-120.875 Y47.3816 I1.5915 J2.2427
G2 X-116.75 Y45.0 I1.375 J-2.3816
G2 X-120.875 Y42.6184 I-2.75 J0.0
G2 X-121.0915 Y42.7573 I1.375 J2.3816
G1 F300.0 Z-2.0
G2 F800.0 X-120.875 Y47.3816 I1.5915 J2.2427
G2 X-116.75 Y45.0 I1.375 J-2.3816
G2 X-120.875 Y42.6184 I-2.75 J0.0
G2 X-121.0915 Y42.7573 I1.375 J2.3816
G1 F300.0 Z-2.4
G2 F800.0 X-120.875 Y47.3816 I1.5915 J2.2427
G2 X-116.75 Y45.0 I1.375 J-2.3816
G2 X-120.875 Y42.6184 I-2.75 J0.0
G2 X-121.0915 Y42.7573 I1.375 J2.3816
G1 F300.0 Z-2.8
G2 F800.0 X-120.875 Y47.3816 I1.5915 J2.2427
G2 X-116.75 Y45.0 I1.375 J-2.3816
G2 X-120.875 Y42.6184 I-2.75 J0.0
G2 X-121.0915 Y42.7573 I1.375 J2.3816
G1 F300.0 Z-3.0
G2 F800.0 X-120.875 Y47.3816 I1.5915 J2.2427
G2 X-116.75 Y45.0 I1.375 J-2.3816
G2 X-120.875 Y42.6184 I-2.75 J0.0
G2 X-121.0915 Y42.7573 I1.375 J2.3816
G0 Z3.0
G0 X-85.7452 Y44.8384
G0 Z0.2
G1 F300.0 Z-0.4
G2 F800.0 X-84.375 Y47.3816 I2.7452 J0.1616
G2 X-80.25 Y45.0 I1.375 J-2.3816
G2 X-84.375 Y42.6184 I-2.75 J0.0
G2 X-85.7452 Y44.8384 I1.375 J2.3816
G1 F300.0 Z-0.8
G2 F800.0 X-84.375 Y47.3816 I2.7452 J0.1616
G2 X-80.25 Y45.0 I1.375 J-2.3816
G2 X-84.375 Y42.6184 I-2.75 J0.0
G2 X-85.7452 Y44.8384 I1.375 J2.3816
G1 F300.0 Z-1.2
G2 F800.0 X-84.375 Y47.3816 I2.7452 J0.1616
G2 X-80.25 Y45.0 I1.375 J-2.3816
G2 X-84.375 Y42.6184 I-2.75 J0.0
G2 X-85.7452 Y44.8384 I1.375 J2.3816
G1 F300.0 Z-1.6
G2 F800.0 X-84.375 Y47.3816 I2.7452 J0.1616
G2 X-80.25 Y45.0 I1.375 J-2.3816
G2 X-84.375 Y42.6184 I-2.75 J0.0
G2 X-85.7452 Y44.8384 I1.375 J2.3816
G1 F300.0 Z-2.0
G2 F800.0 X-84.375 Y47.3816 I2.7452 J0.1616
G2 X-80.25 Y45.0 I1.375 J-2.3816
G2 X-84.375 Y42.6184 I-2.75 J0.0
G2 X-85.7452 Y44.8384 I1.375 J2.3816
G1 F300.0 Z-2.4
G2 F800.0 X-84.375 Y47.3816 I2.7452 J0.1616
G2 X-80.25 Y45.0 I1.375 J-2.3816
G2 X-84.375 Y42.6184 I-2.75 J0.0
G2 X-85.7452 Y44.8384 I1.375 J2.3816
G1 F300.0 Z-2.8
G2 F800.0 X-84.375 Y47.3816 I2.7452 J0.1616
G2 X-80.25 Y45.0 I1.375 J-2.3816
G2 X-84.375 Y42.6184 I-2.75 J0.0
G2 X-85.7452 Y44.8384 I1.375 J2.3816
G1 F300.0 Z-3.0
G2 F800.0 X-84.375 Y47.3816 I2.7452 J0.1616
G2 X-80.25 Y45.0 I1.375 J-2.3816
G2 X-84.375 Y42.6184 I-2.75 J0.0
G2 X-85.7452 Y44.8384 I1.375 J2.3816
G0 Z3.0
G0 X-135.935 Y79.0908
G0 Z0.2
G1 F300.0 Z-0.4
G2 F800.0 X-139.25 Y78.3349 I-2.065 J1.4092
G2 Y82.6651 I1.25 J2.1651
G2 X-135.5 Y80.5 I1.25 J-2.1651
G2 X-135.935 Y79.0908 I-2.5 J0.0
G1 F300.0 Z-0.8
G2 F800.0 X-139.25 Y78.3349 I-2.065 J1.4092
G2 Y82.6651 I1.25 J2.1651
G2 X-135.5 Y80.5 I1.25 J-2.1651
G2 X-135.935 Y79.0908 I-2.5 J0.0
G1 F300.0 Z-1.2
G2 F800.0 X-139.25 Y78.3349 I-2.065 J1.4092
G2 Y82.6651 I1.25 J2.1651
G2 X-135.5 Y80.5 I1.25 J-2.1651
G2 X-135.935 Y79.0908 I-2.5 J0.0
G1 F300.0 Z-1.6
G2 F800.0 X-139.25 Y78.3349 I-2.065 J1.4092
G2 Y82.6651 I1.25 J2.1651
G2 X-135.5 Y80.5 I1.25 J-2.1651
G2 X-135.935 Y79.0908 I-2.5 J0.0
G1 F300.0 Z-2.0
G2 F800.0 X-139.25 Y78.3349 I-2.065 J1.4092
G2 Y82.6651 I1.25 J2.1651
G2 X-135.5 Y80.5 I1.25 J-2.1651
G2 X-135.935 Y79.0908 I-2.5 J0.0
G1 F300.0 Z-2.4
G2 F800.0 X-139.25 Y78.3349 I-2.065 J1.4092
G2 Y82.6651 I1.25 J2.1651
G2 X-135.5 Y80.5 I1.25 J-2.1651
G2 X-135.935 Y79.0908 I-2.5 J0.0
G1 F300.0 Z-2.8
G2 F800.0 X-139.25 Y78.3349 I-2.065 J1.4092
G2 Y82.6651 I1.25 J2.1651
G2 X-135.5 Y80.5 I1.25 J-2.1651
G2 X-135.935 Y79.0908 I-2.5 J0.0
G1 F300.0 Z-3.0
G2 F800.0 X-139.25 Y78.3349 I-2.065 J1.4092
G2 Y82.6651 I1.25 J2.1651
G2 X-135.5 Y80.5 I1.25 J-2.1651
G2 X-135.935 Y79.0908 I-2.5 J0.0
G0 Z3.0
G0 X-153.2245 Y107.716
G0 Z0.2
G1 F300.0 Z-0.4
G2 F800.0 X-154.75 Y107.701 I-0.7755 J1.284
G2 Y110.299 I0.75 J1.299
G2 X-152.5 Y109.0 I0.75 J-1.299
G2 X-153.2245 Y107.716 I-1.5 J0.0
G1 F300.0 Z-0.8
G2 F800.0 X-154.75 Y107.701 I-0.7755 J1.284
G2 Y110.299 I0.75 J1.299
G2 X-152.5 Y109.0 I0.75 J-1.299
G2 X-153.2245 Y107.716 I-1.5 J0.0
G1 F300.0 Z-1.2
G2 F800.0 X-154.75 Y107.701 I-0.7755 J1.284
G2 Y110.299 I0.75 J1.299
G2 X-152.5 Y109.0 I0.75 J-1.299
G2 X-153.2245 Y107.716 I-1.5 J0.0
G1 F300.0 Z-1.6
G2 F800.0 X-154.75 Y107.701 I-0.7755 J1.284
G2 Y110.299 I0.75 J1.299
G2 X-152.5 Y109.0 I0.75 J-1.299
G2 X-153.2245 Y107.716 I-1.5 J0.0
G1 F300.0 Z-2.0
G2 F800.0 X-154.75 Y107.701 I-0.7755 J1.284
G2 Y110.299 I0.75 J1.299
G2 X-152.5 Y109.0 I0.75 J-1.299
G2 X-153.2245 Y107.716 I-1.5 J0.0
G1 F300.0 Z-2.4
G2 F800.0 X-154.75 Y107.701 I-0.7755 J1.284
G2 Y110.299 I0.75 J1.299
G2 X-152.5 Y109.0 I0.75 J-1.299
G2 X-153.2245 Y107.716 I-1.5 J0.0
G1 F300.0 Z-2.8
G2 F800.0 X-154.75 Y107.701 I-0.7755 J1.284
G2 Y110.299 I0.75 J1.299
G2 X-152.5 Y109.0 I0.75 J-1.299
G2 X-153.2245 Y107.716 I-1.5 J0.0
G1 F300.0 Z-3.0
G2 F800.0 X-154.75 Y107.701 I-0.7755 J1.284
G2 Y110.299 I0.75 J1.299
G2 X-152.5 Y109.0 I0.75 J-1.299
G2 X-153.2245 Y107.716 I-1.5 J0.0
G0 Z3.0
G0 X-154.9741 Y6.4998
G0 Z0.2
G1 F300.0 Z-0.4
G2 F800.0 X-153.5 Y5.0 I-0.0259 J-1.4998
G2 X-155.75 Y3.701 I-1.5 J0.0
G2 Y6.299 I0.75 J1.299
G2 X-154.9741 Y6.4998 I0.75 J-1.299
G1 F300.0 Z-0.8
G2 F800.0 X-153.5 Y5.0 I-0.0259 J-1.4998
G2 X-155.75 Y3.701 I-1.5 J0.0
G2 Y6.299 I0.75 J1.299
G2 X-154.9741 Y6.4998 I0.75 J-1.299
G1 F300.0 Z-1.2
G2 F800.0 X-153.5 Y5.0 I-0.0259 J-1.4998
G2 X-155.75 Y3.701 I-1.5 J0.0
G2 Y6.299 I0.75 J1.299
G2 X-154.9741 Y6.4998 I0.75 J-1.299
G1 F300.0 Z-1.6
G2 F800.0 X-153.5 Y5.0 I-0.0259 J-1.4998
G2 X-155.75 Y3.701 I-1.5 J0.0
G2 Y6.299 I0.75 J1.299
G2 X-154.9741 Y6.4998 I0.75 J-1.299
G1 F300.0 Z-2.0
G2 F800.0 X-153.5 Y5.0 I-0.0259 J-1.4998
G2 X-155.75 Y3.701 I-1.5 J0.0
G2 Y6.299 I0.75 J1.299
G2 X-154.9741 Y6.4998 I0.75 J-1.299
G1 F300.0 Z-2.4
G2 F800.0 X-153.5 Y5.0 I-0.0259 J-1.4998
G2 X-155.75 Y3.701 I-1.5 J0.0
G2 Y6.299 I0.75 J1.299
G2 X-154.9741 Y6.4998 I0.75 J-1.299
G1 F300.0 Z-2.8
G2 F800.0 X-153.5 Y5.0 I-0.0259 J-1.4998
G2 X-155.75 Y3.701 I-1.5 J0.0
G2 Y6.299 I0.75 J1.299
G2 X-154.9741 Y6.4998 I0.75 J-1.299
G1 F300.0 Z-3.0
G2 F800.0 X-153.5 Y5.0 I-0.0259 J-1.4998
G2 X-155.75 Y3.701 I-1.5 J0.0
G2 Y6.299 I0.75 J1.299
G2 X-154.9741 Y6.4998 I0.75 J-1.299
( Profil2 )
S1000
G0 Z3.0
G0 X-119.0 Y68.0
G0 Z0.2
G1 F300.0 Z-0.4
G2 F800.0 X-120.0 Y69.0 I0.0 J1.0
G1 Y77.5
G1 Y80.0 Z0.0
G1 Y82.5 Z-0.4
G1 Y90.0
G2 X-119.0 Y91.0 I1.0 J0.0
G1 X-80.2168
G1 X-77.7168 Z0.0
G1 X-75.2168 Z-0.4
G1 X-62.0
G2 X-61.0 Y90.0 I0.0 J-1.0
G1 Y83.5
G1 Y81.0 Z0.0
G1 Y78.5 Z-0.4
G1 Y69.0
G2 X-62.0 Y68.0 I-1.0 J0.0
G1 X-96.5
G1 X-99.0 Z0.0
G1 X-101.5 Z-0.4
G1 X-119.0
G1 F300.0 Z-0.8
G2 F800.0 X-120.0 Y69.0 I0.0 J1.0
G1 Y77.5
G1 Y80.0 Z0.0
G1 Y82.5 Z-0.8
G1 Y90.0
G2 X-119.0 Y91.0 I1.0 J0.0
G1 X-80.2168
G1 X-77.7168 Z0.0
G1 X-75.2168 Z-0.8
G1 X-62.0
G2 X-61.0 Y90.0 I0.0 J-1.0
G1 Y83.5
G1 Y81.0 Z0.0
G1 Y78.5 Z-0.8
G1 Y69.0
G2 X-62.0 Y68.0 I-1.0 J0.0
G1 X-96.5
G1 X-99.0 Z0.0
G1 X-101.5 Z-0.8
G1 X-119.0
G1 F300.0 Z-1.2
G2 F800.0 X-120.0 Y69.0 I0.0 J1.0
G1 Y77.5
G1 Y80.0 Z0.0
G1 Y82.5 Z-1.2
G1 Y90.0
G2 X-119.0 Y91.0 I1.0 J0.0
G1 X-80.2168
G1 X-77.7168 Z0.0
G1 X-75.2168 Z-1.2
G1 X-62.0
G2 X-61.0 Y90.0 I0.0 J-1.0
G1 Y83.5
G1 Y81.0 Z0.0
G1 Y78.5 Z-1.2
G1 Y69.0
G2 X-62.0 Y68.0 I-1.0 J0.0
G1 X-96.5
G1 X-99.0 Z0.0
G1 X-101.5 Z-1.2
G1 X-119.0
G1 F300.0 Z-1.6
G2 F800.0 X-120.0 Y69.0 I0.0 J1.0
G1 Y77.5
G1 Y80.0 Z0.0
G1 Y82.5 Z-1.6
G1 Y90.0
G2 X-119.0 Y91.0 I1.0 J0.0
G1 X-80.2168
G1 X-77.7168 Z0.0
G1 X-75.2168 Z-1.6
G1 X-62.0
G2 X-61.0 Y90.0 I0.0 J-1.0
G1 Y83.5
G1 Y81.0 Z0.0
G1 Y78.5 Z-1.6
G1 Y69.0
G2 X-62.0 Y68.0 I-1.0 J0.0
G1 X-96.5
G1 X-99.0 Z0.0
G1 X-101.5 Z-1.6
G1 X-119.0
G1 F300.0 Z-2.0
G2 F800.0 X-120.0 Y69.0 I0.0 J1.0
G1 Y77.5
G1 Y80.0 Z0.0
G1 Y82.5 Z-2.0
G1 Y90.0
G2 X-119.0 Y91.0 I1.0 J0.0
G1 X-80.2168
G1 X-77.7168 Z0.0
G1 X-75.2168 Z-2.0
G1 X-62.0
G2 X-61.0 Y90.0 I0.0 J-1.0
G1 Y83.5
G1 Y81.0 Z0.0
G1 Y78.5 Z-2.0
G1 Y69.0
G2 X-62.0 Y68.0 I-1.0 J0.0
G1 X-96.5
G1 X-99.0 Z0.0
G1 X-101.5 Z-2.0
G1 X-119.0
G1 F300.0 Z-2.4
G2 F800.0 X-120.0 Y69.0 I0.0 J1.0
G1 Y77.5
G1 Y80.0 Z0.0
G1 Y82.5 Z-2.4
G1 Y90.0
G2 X-119.0 Y91.0 I1.0 J0.0
G1 X-80.2168
G1 X-77.7168 Z0.0
G1 X-75.2168 Z-2.4
G1 X-62.0
G2 X-61.0 Y90.0 I0.0 J-1.0
G1 Y83.5
G1 Y81.0 Z0.0
G1 Y78.5 Z-2.4
G1 Y69.0
G2 X-62.0 Y68.0 I-1.0 J0.0
G1 X-96.5
G1 X-99.0 Z0.0
G1 X-101.5 Z-2.4
G1 X-119.0
G1 F300.0 Z-2.8
G2 F800.0 X-120.0 Y69.0 I0.0 J1.0
G1 Y77.5
G1 Y80.0 Z0.0
G1 Y82.5 Z-2.8
G1 Y90.0
G2 X-119.0 Y91.0 I1.0 J0.0
G1 X-80.2168
G1 X-77.7168 Z0.0
G1 X-75.2168 Z-2.8
G1 X-62.0
G2 X-61.0 Y90.0 I0.0 J-1.0
G1 Y83.5
G1 Y81.0 Z0.0
G1 Y78.5 Z-2.8
G1 Y69.0
G2 X-62.0 Y68.0 I-1.0 J0.0
G1 X-96.5
G1 X-99.0 Z0.0
G1 X-101.5 Z-2.8
G1 X-119.0
G1 F300.0 Z-3.0
G2 F800.0 X-120.0 Y69.0 I0.0 J1.0
G1 Y77.5
G1 Y80.0 Z0.0
G1 Y82.5 Z-3.0
G1 Y90.0
G2 X-119.0 Y91.0 I1.0 J0.0
G1 X-80.2168
G1 X-77.7168 Z0.0
G1 X-75.2168 Z-3.0
G1 X-62.0
G2 X-61.0 Y90.0 I0.0 J-1.0
G1 Y83.5
G1 Y81.0 Z0.0
G1 Y78.5 Z-3.0
G1 Y69.0
G2 X-62.0 Y68.0 I-1.0 J0.0
G1 X-96.5
G1 X-99.0 Z0.0
G1 X-101.5 Z-3.0
G1 X-119.0
( Ausfräsen )
S1000
G0 Z3.0
G0 X-155.0 Y-1.0
G0 Z0.2
G1 F300.0 Z-0.4
G1 F800.0 X-112.382
G1 X-109.882 Z0.0
G1 X-107.382 Z-0.4
G1 X-22.146
G1 X-19.646 Z0.0
G1 X-17.146 Z-0.4
G1 X-5.0
G3 X1.0 Y5.0 I0.0 J6.0
G1 Y70.236
G1 Y72.736 Z0.0
G1 Y75.236 Z-0.4
G1 Y110.0
G3 X-5.0 Y116.0 I-6.0 J0.0
G1 X-47.618
G1 X-50.118 Z0.0
G1 X-52.618 Z-0.4
G1 X-137.854
G1 X-140.354 Z0.0
G1 X-142.854 Z-0.4
G1 X-155.0
G3 X-161.0 Y110.0 I0.0 J-6.0
G1 Y44.764
G1 Y42.264 Z0.0
G1 Y39.764 Z-0.4
G1 Y5.0
G3 X-155.0 Y-1.0 I6.0 J0.0
G1 F300.0 Z-0.8
G1 F800.0 X-112.382
G1 X-109.882 Z0.0
G1 X-107.382 Z-0.8
G1 X-22.146
G1 X-19.646 Z0.0
G1 X-17.146 Z-0.8
G1 X-5.0
G3 X1.0 Y5.0 I0.0 J6.0
G1 Y70.236
G1 Y72.736 Z0.0
G1 Y75.236 Z-0.8
G1 Y110.0
G3 X-5.0 Y116.0 I-6.0 J0.0
G1 X-47.618
G1 X-50.118 Z0.0
G1 X-52.618 Z-0.8
G1 X-137.854
G1 X-140.354 Z0.0
G1 X-142.854 Z-0.8
G1 X-155.0
G3 X-161.0 Y110.0 I0.0 J-6.0
G1 Y44.764
G1 Y42.264 Z0.0
G1 Y39.764 Z-0.8
G1 Y5.0
G3 X-155.0 Y-1.0 I6.0 J0.0
G1 F300.0 Z-1.2
G1 F800.0 X-112.382
G1 X-109.882 Z0.0
G1 X-107.382 Z-1.2
G1 X-22.146
G1 X-19.646 Z0.0
G1 X-17.146 Z-1.2
G1 X-5.0
G3 X1.0 Y5.0 I0.0 J6.0
G1 Y70.236
G1 Y72.736 Z0.0
G1 Y75.236 Z-1.2
G1 Y110.0
G3 X-5.0 Y116.0 I-6.0 J0.0
G1 X-47.618
G1 X-50.118 Z0.0
G1 X-52.618 Z-1.2
G1 X-137.854
G1 X-140.354 Z0.0
G1 X-142.854 Z-1.2
G1 X-155.0
G3 X-161.0 Y110.0 I0.0 J-6.0
G1 Y44.764
G1 Y42.264 Z0.0
G1 Y39.764 Z-1.2
G1 Y5.0
G3 X-155.0 Y-1.0 I6.0 J0.0
G1 F300.0 Z-1.6
G1 F800.0 X-112.382
G1 X-109.882 Z0.0
G1 X-107.382 Z-1.6
G1 X-22.146
G1 X-19.646 Z0.0
G1 X-17.146 Z-1.6
G1 X-5.0
G3 X1.0 Y5.0 I0.0 J6.0
G1 Y70.236
G1 Y72.736 Z0.0
G1 Y75.236 Z-1.6
G1 Y110.0
G3 X-5.0 Y116.0 I-6.0 J0.0
G1 X-47.618
G1 X-50.118 Z0.0
G1 X-52.618 Z-1.6
G1 X-137.854
G1 X-140.354 Z0.0
G1 X-142.854 Z-1.6
G1 X-155.0
G3 X-161.0 Y110.0 I0.0 J-6.0
G1 Y44.764
G1 Y42.264 Z0.0
G1 Y39.764 Z-1.6
G1 Y5.0
G3 X-155.0 Y-1.0 I6.0 J0.0
G1 F300.0 Z-2.0
G1 F800.0 X-112.382
G1 X-109.882 Z0.0
G1 X-107.382 Z-2.0
G1 X-22.146
G1 X-19.646 Z0.0
G1 X-17.146 Z-2.0
G1 X-5.0
G3 X1.0 Y5.0 I0.0 J6.0
G1 Y70.236
G1 Y72.736 Z0.0
G1 Y75.236 Z-2.0
G1 Y110.0
G3 X-5.0 Y116.0 I-6.0 J0.0
G1 X-47.618
G1 X-50.118 Z0.0
G1 X-52.618 Z-2.0
G1 X-137.854
G1 X-140.354 Z0.0
G1 X-142.854 Z-2.0
G1 X-155.0
G3 X-161.0 Y110.0 I0.0 J-6.0
G1 Y44.764
G1 Y42.264 Z0.0
G1 Y39.764 Z-2.0
G1 Y5.0
G3 X-155.0 Y-1.0 I6.0 J0.0
G1 F300.0 Z-2.4
G1 F800.0 X-112.382
G1 X-109.882 Z0.0
G1 X-107.382 Z-2.4
G1 X-22.146
G1 X-19.646 Z0.0
G1 X-17.146 Z-2.4
G1 X-5.0
G3 X1.0 Y5.0 I0.0 J6.0
G1 Y70.236
G1 Y72.736 Z0.0
G1 Y75.236 Z-2.4
G1 Y110.0
G3 X-5.0 Y116.0 I-6.0 J0.0
G1 X-47.618
G1 X-50.118 Z0.0
G1 X-52.618 Z-2.4
G1 X-137.854
G1 X-140.354 Z0.0
G1 X-142.854 Z-2.4
G1 X-155.0
G3 X-161.0 Y110.0 I0.0 J-6.0
G1 Y44.764
G1 Y42.264 Z0.0
G1 Y39.764 Z-2.4
G1 Y5.0
G3 X-155.0 Y-1.0 I6.0 J0.0
G1 F300.0 Z-2.8
G1 F800.0 X-112.382
G1 X-109.882 Z0.0
G1 X-107.382 Z-2.8
G1 X-22.146
G1 X-19.646 Z0.0
G1 X-17.146 Z-2.8
G1 X-5.0
G3 X1.0 Y5.0 I0.0 J6.0
G1 Y70.236
G1 Y72.736 Z0.0
G1 Y75.236 Z-2.8
G1 Y110.0
G3 X-5.0 Y116.0 I-6.0 J0.0
G1 X-47.618
G1 X-50.118 Z0.0
G1 X-52.618 Z-2.8
G1 X-137.854
G1 X-140.354 Z0.0
G1 X-142.854 Z-2.8
G1 X-155.0
G3 X-161.0 Y110.0 I0.0 J-6.0
G1 Y44.764
G1 Y42.264 Z0.0
G1 Y39.764 Z-2.8
G1 Y5.0
G3 X-155.0 Y-1.0 I6.0 J0.0
G1 F300.0 Z-3.0
G1 F800.0 X-112.382
G1 X-109.882 Z0.0
G1 X-107.382 Z-3.0
G1 X-22.146
G1 X-19.646 Z0.0
G1 X-17.146 Z-3.0
G1 X-5.0
G3 X1.0 Y5.0 I0.0 J6.0
G1 Y70.236
G1 Y72.736 Z0.0
G1 Y75.236 Z-3.0
G1 Y110.0
G3 X-5.0 Y116.0 I-6.0 J0.0
G1 X-47.618
G1 X-50.118 Z0.0
G1 X-52.618 Z-3.0
G1 X-137.854
G1 X-140.354 Z0.0
G1 X-142.854 Z-3.0
G1 X-155.0
G3 X-161.0 Y110.0 I0.0 J-6.0
G1 Y44.764
G1 Y42.264 Z0.0
G1 Y39.764 Z-3.0
G1 Y5.0
G3 X-155.0 Y-1.0 I6.0 J0.0
( Textgravur )
G0 Z3.0
( T10 : 0.0 )
T10 M6
M3 S1000
G0 X-27.6465 Y96.3281
G0 Z0.2
G1 F300.0 Z-0.4
G1 F800.0 X-28.1855
G1 X-28.4004 Y97.6875
G1 X-29.6152
G1 X-29.8301 Y96.3281
G1 X-30.3535
G1 Y96.3438
G1 X-29.2637 Y102.457
G1 X-28.7285
G1 X-27.6465 Y96.3281
G0 Z3.0
G0 X-28.4707 Y98.168
G0 Z0.2
G1 F300.0 Z-0.4
G1 F800.0 X-29.0059 Y101.4805
G1 X-29.5449 Y98.168
G1 X-28.4707
G0 Z3.0
G0 Y112.0
G0 Z0.2
G1 F300.0 Z-0.4
G1 F800.0 X-55.0
G3 X-57.0 Y110.0 I0.0 J-2.0
G1 Y6.0
G3 X-55.0 Y4.0 I2.0 J0.0
G1 X-12.0
G3 X-10.0 Y6.0 I0.0 J2.0
G1 Y110.0
G3 X-12.0 Y112.0 I-2.0 J0.0
G1 X-28.4707
G0 Z3.0
G0 X-47.7148 Y102.4414
G0 Z0.2
G1 F300.0 Z-0.4
G1 F800.0 Y96.3281
G1 X-48.2617
G1 Y100.5664
G1 X-48.5
G1 Y100.5859
G1 X-48.1563 Y102.4414
G1 X-47.7148
G0 Z3.0
G0 X-60.0
G0 Z0.2
G1 F300.0 Z-0.4
G1 F800.0 Y110.0
G3 X-62.0 Y112.0 I-2.0 J0.0
G1 X-119.0
G3 X-121.0 Y110.0 I0.0 J-2.0
G1 Y96.0
G3 X-119.0 Y94.0 I2.0 J0.0
G1 X-62.0
G3 X-60.0 Y96.0 I0.0 J2.0
G1 Y102.4414
G0 Z3.0
G0 X-74.8271
G0 Z0.2
G1 F300.0 Z-0.4
G1 F800.0 Y96.0
G1 X-75.9892
G1 Y105.0063
G1 X-76.4955
G1 Y105.0479
G1 X-75.7651 Y108.9907
G1 X-74.8271
G1 Y102.4414
G0 Z3.0
G0 X-77.9399 Y97.4609
G0 Z0.2
G1 F300.0 Z-0.4
G1 F800.0 Y96.0
G1 X-79.2016
G1 Y97.4609
G1 X-77.9399
G0 Z3.0
G0 X-81.0195
G0 Z0.2
G1 F300.0 Z-0.4
G1 F800.0 Y96.9214
G2 X-81.2851 Y96.2573 I-0.8844 J-0.0314
G2 X-81.9575 Y96.0 I-0.642 J0.6704
G1 X-85.4023
G2 X-86.0663 Y96.2573 I-0.0332 J0.8998
G2 X-86.3237 Y96.9214 I0.6425 J0.6309
G1 Y108.0693
G2 X-86.0663 Y108.7334 I0.8998 J0.0332
G2 X-85.4023 Y108.9907 I0.6309 J-0.6425
G1 X-81.9575
G2 X-81.2851 Y108.7334 I0.0304 J-0.9278
G2 X-81.0195 Y108.0693 I-0.6188 J-0.6327
G1 Y97.4609
G0 Z3.0
G0 X-82.1733
G0 Z0.2
G1 F300.0 Z-0.4
G1 F800.0 Y107.9697
G1 X-85.1699
G1 Y97.021
G1 X-82.1733
G1 Y97.4609
G0 Z3.0
G0 X-93.1397 Y98.1596
G0 Z0.2
G1 F300.0 Z-0.4
G2 F800.0 X-93.2971 Y97.4309 I-2.5032 J0.1595
G2 X-93.8154 Y96.6558 I-2.0339 J0.7992
G2 X-95.5171 Y96.0 I-1.6259 J1.6834
G1 X-98.4888
G1 Y108.9907
G1 X-95.5171
G2 X-94.5942 Y108.8336 I0.0304 J-2.6113
G2 X-93.8071 Y108.3267 I-0.7828 J-2.0797
G2 X-93.1348 Y106.6416 I-1.5803 J-1.6072
G1 Y98.3491
G2 X-93.1397 Y98.1596 I-2.5081 J-0.0301
G0 Z3.0
G0 X-94.2931 Y98.2687
G0 Z0.2
G1 F300.0 Z-0.4
G3 F800.0 X-94.2886 Y98.4653 I-1.3728 J0.1298
G1 Y106.542
G3 X-94.3829 Y107.0997 I-1.5743 J0.0207
G3 X-94.6953 Y107.5713 I-1.1836 J-0.445
G3 X-95.7329 Y107.9697 I-0.9821 J-1.0074
G1 X-97.335
G1 Y97.021
G1 X-95.7993
G3 X-95.2188 Y97.1071 I0.0219 J1.8528
G3 X-94.7119 Y97.4028 I-0.4234 J1.308
G3 X-94.2931 Y98.2687 I-0.954 J0.9957
G0 Z3.0
G0 X-100.5059
G0 Z0.2
G1 F300.0 Z-0.4
G1 F800.0 Y96.9214
G2 X-100.7715 Y96.2573 I-0.8844 J-0.0314
G2 X-101.4438 Y96.0 I-0.642 J0.6704
G1 X-104.7891
G2 X-105.4531 Y96.2573 I-0.0332 J0.8998
G2 X-105.7104 Y96.9214 I0.6425 J0.6309
G1 Y108.0693
G2 X-105.4531 Y108.7334 I0.8998 J0.0332
G2 X-104.7891 Y108.9907 I0.6309 J-0.6425
G1 X-101.4438
G2 X-100.7715 Y108.7334 I0.0304 J-0.9278
G2 X-100.5059 Y108.0693 I-0.6188 J-0.6327
G1 Y105.0479
G1 X-101.668
G1 Y107.9697
G1 X-104.5566
G1 Y97.021
G1 X-101.668
G1 Y100.2168
G1 X-100.5059
G1 Y98.2687
G0 Z3.0
G0 X-107.2876 Y97.021
G0 Z0.2
G1 F300.0 Z-0.4
G1 F800.0 Y96.0
G1 X-111.438
G1 Y108.9907
G1 X-110.2842
G1 Y97.021
G1 X-107.2876
G0 Z3.0
G0 X-112.8325 Y96.0
G0 Z0.2
G1 F300.0 Z-0.4
G1 F800.0 X-114.0195
G1 X-115.7544 Y101.3374
G1 X-117.4893 Y96.0
G1 X-118.6431
G1 Y96.0664
G1 X-116.3271 Y102.6489
G2 X-117.426 Y105.8173 I2047.3293 J711.8433
G2 X-118.5103 Y108.9907 I247.6335 J86.3781
G1 X-117.2983
G1 X-115.7378 Y104.0601
G1 X-114.1191 Y108.9907
G1 X-112.9653
G1 Y108.916
G1 X-115.1235 Y102.7153
G2 X-113.9676 Y99.3612 I-1214.2018 J-420.3126
G2 X-113.3928 Y97.6831 I-529.0574 J-182.1792
G2 X-112.8325 Y96.0 I-68.4588 J-23.7223
G0 Z3.0
G0 X-123.0
G0 Z0.2
G1 F300.0 Z-0.4
G1 F800.0 Y110.0
G3 X-125.0 Y112.0 I-2.0 J0.0
G1 X-148.0
G3 X-150.0 Y110.0 I0.0 J-2.0
G1 Y69.0
G3 X-148.0 Y67.0 I2.0 J0.0
G1 X-125.0
G3 X-123.0 Y69.0 I0.0 J2.0
G1 Y96.0
G0 Z3.0
G0 X-129.0859 Y97.0
G0 Z0.2
G1 F300.0 Z-0.4
G1 F800.0 X-129.8535
G1 Y97.1582
G2 X-130.7852 Y97.0352 I-12.1355 J88.2946
G2 X-131.7168 Y96.9648 I-1.0634 J7.8831
G2 X-131.9698 Y96.9969 I-0.0127 J0.9126
G2 X-132.2697 Y97.2278 I0.1182 J0.4639
G2 X-132.3496 Y97.5977 I0.6899 J0.3427
G1 Y102.7012
G1 X-131.582
G1 Y97.6973
G1 X-129.8535 Y97.7441
G1 Y102.7012
G1 X-129.0859
G1 Y97.0
G0 Z3.0
G0 X-133.6094
G0 Z0.2
G1 F300.0 Z-0.4
G1 F800.0 X-134.3887
G1 Y102.0039
G1 X-136.1055 Y101.957
G1 Y97.0
G1 X-136.8848
G1 Y102.7012
G1 X-136.1055
G1 Y102.543
G3 X-135.1855 Y102.666 I-10.2101 J79.833
G2 X-134.2598 Y102.7363 I1.0626 J-7.861
G2 X-134.0023 Y102.7046 I0.0128 J-0.9577
G2 X-133.6933 Y102.474 I-0.1164 J-0.4782
G2 X-133.6094 Y102.0977 I-0.6778 J-0.3486
G1 Y97.0
G0 Z3.0
G0 X-138.1803 Y97.5365
G0 Z0.2
G1 F300.0 Z-0.4
G2 F800.0 X-138.2068 Y97.3987 I-0.9579 J0.1124
G2 X-138.445 Y97.0845 I-0.486 J0.1211
G2 X-138.8301 Y97.0 I-0.3567 J0.7061
G1 X-140.7051
G2 X-140.9687 Y97.034 I-0.0133 J0.937
G2 X-141.2793 Y97.2766 I0.1253 J0.4805
G2 X-141.3613 Y97.6621 I0.7312 J0.3572
G1 Y102.0391
G2 X-141.3284 Y102.3025 I0.9644 J0.0132
G2 X-141.0902 Y102.6167 I0.486 J-0.1211
G2 X-140.7051 Y102.7012 I0.3567 J-0.7061
G1 X-138.8301
G2 X-138.5665 Y102.6672 I0.0133 J-0.937
G2 X-138.2559 Y102.4246 I-0.1253 J-0.4805
G2 X-138.1738 Y102.0391 I-0.7312 J-0.3572
G1 Y99.9883
G1 X-138.4375 Y99.7129
G1 X-140.6055
G1 Y97.6504
G1 X-138.9297
G1 Y98.6934
G1 X-138.1738
G1 Y97.6621
G2 X-138.1803 Y97.5365 I-0.9644 J-0.0132
G0 Z3.0
G0 X-138.9297 Y100.334
G0 Z0.2
G1 F300.0 Z-0.4
G1 F800.0 Y102.0508
G1 X-140.6055
G1 Y100.334
G1 X-138.9297
G0 Z3.0
G0 X-142.7324
G0 Z0.2
G1 F300.0 Z-0.4
G1 F800.0 Y97.0
G1 X-143.5
G1 Y102.8066
G2 X-143.418 Y103.5273 I10.377 J-0.8161
G1 X-144.918 Y97.8613
G1 X-145.082
G1 X-146.582 Y103.5273
G2 X-146.5 Y102.8066 I-10.8709 J-1.6024
G1 Y97.0
G1 X-147.2676
G1 Y106.1699
G1 X-146.5117
G1 X-145.0234 Y100.2051
G2 X-145.0 Y99.9414 I-2.5182 J-0.3567
G2 X-144.9766 Y100.2051 I2.3158 J-0.073
G1 X-143.4883 Y106.1699
G1 X-142.7324
G1 Y100.334
G0 Z3.0
G0 X-131.9043 Y103.2051
G0 Z0.2
G1 F300.0 Z-0.4
G1 F800.0 Y104.0898
G1 X-131.043
G1 Y103.2051
G1 X-131.9043
G0 Z3.0
G0 X-130.3926
G0 Z0.2
G1 F300.0 Z-0.4
G1 F800.0 Y104.0898
G1 X-129.5313
G1 Y103.2051
G1 X-130.3926
G0 Z3.0
G0 Y65.0
G0 Z0.2
G1 F300.0 Z-0.4
G1 F800.0 X-148.0
G3 X-150.0 Y63.0 I0.0 J-2.0
G1 Y6.0
G3 X-148.0 Y4.0 I2.0 J0.0
G1 X-62.0
G3 X-60.0 Y6.0 I0.0 J2.0
G1 Y63.0
G3 X-62.0 Y65.0 I-2.0 J0.0
G1 X-130.3926
G0 Z3.0
G0 Y47.7012
G0 Z0.2
G1 F300.0 Z-0.4
G1 F800.0 X-129.1172
G2 X-128.8536 Y47.6672 I0.0133 J-0.937
G2 X-128.543 Y47.4246 I-0.1253 J-0.4805
G2 X-128.4609 Y47.0391 I-0.7312 J-0.3572
G1 Y44.9883
G1 X-128.7246 Y44.7129
G1 X-130.8926
G1 Y42.6504
G1 X-129.2168
G1 Y43.6934
G1 X-128.4609
G1 Y42.6621
G2 X-128.4939 Y42.3987 I-0.9644 J-0.0132
G2 X-128.7321 Y42.0845 I-0.486 J0.1211
G2 X-129.1172 Y42.0 I-0.3567 J0.7061
G1 X-130.9922
G2 X-131.2558 Y42.034 I-0.0133 J0.937
G2 X-131.5664 Y42.2766 I0.1253 J0.4805
G2 X-131.6484 Y42.6621 I0.7312 J0.3572
G1 Y47.0391
G2 X-131.6155 Y47.3025 I0.9644 J0.0132
G2 X-131.3773 Y47.6167 I0.486 J-0.1211
G2 X-130.9922 Y47.7012 I0.3567 J-0.7061
G1 X-130.3926
G0 Z3.0
G0 Y47.0508
G0 Z0.2
G1 F300.0 Z-0.4
G1 F800.0 X-130.8926
G1 Y45.334
G1 X-129.2168
G1 Y47.0508
G1 X-130.3926
G0 Z3.0
G0 X-132.6277 Y47.6033
G0 Z0.2
G1 F300.0 Z-0.4
G1 F800.0 X-134.0156 Y41.9883
G1 X-134.7246
G1 X-136.1426 Y47.7012
G1 X-135.3398
G1 X-134.3672 Y43.2129
G1 X-133.3828 Y47.7012
G1 X-132.6035
G1 X-132.6277 Y47.6033
G0 Z3.0
G0 X-137.0896 Y47.1491
G0 Z0.2
G1 F300.0 Z-0.4
G2 F800.0 X-137.0859 Y47.0391 I-0.8018 J-0.0816
G1 Y42.6621
G2 X-137.1195 Y42.3974 I-0.9549 J-0.0133
G2 X-137.361 Y42.0836 I-0.4854 J0.1237
G2 X-137.748 Y42.0 I-0.3585 J0.7218
G1 X-139.7051
G2 X-139.9687 Y42.034 I-0.0133 J0.937
G2 X-140.2793 Y42.2766 I0.1253 J0.4805
G2 X-140.3613 Y42.6621 I0.7312 J0.3572
G1 Y47.0391
G2 X-140.3284 Y47.3025 I0.9644 J0.0132
G2 X-140.0902 Y47.6167 I0.486 J-0.1211
G2 X-139.7051 Y47.7012 I0.3567 J-0.7061
G1 X-137.748
G2 X-137.4834 Y47.6676 I0.0133 J-0.9549
G2 X-137.1696 Y47.4261 I-0.1237 J-0.4854
G2 X-137.0896 Y47.1491 I-0.7218 J-0.3585
G0 Z3.0
G0 X-137.8652 Y47.0156
G0 Z0.2
G1 F300.0 Z-0.4
G1 F800.0 X-139.582
G1 Y42.6855
G1 X-137.8652
G1 Y47.0156
G0 Z3.0
G0 X-141.7324
G0 Z0.2
G1 F300.0 Z-0.4
G1 F800.0 Y42.0
G1 X-142.5
G1 Y47.8066
G2 X-142.418 Y48.5273 I10.377 J-0.8161
G1 X-143.918 Y42.8613
G1 X-144.082
G1 X-145.582 Y48.5273
G2 X-145.5 Y47.8066 I-10.8709 J-1.6024
G1 Y42.0
G1 X-146.2676
G1 Y51.1699
G1 X-145.5117
G1 X-144.0234 Y45.2051
G2 X-144.0 Y44.9414 I-2.5182 J-0.3567
G2 X-143.9766 Y45.2051 I2.3158 J-0.073
G1 X-142.4883 Y51.1699
G1 X-141.7324
G1 Y47.0156
G0 Z3.0
G0 X-143.1602 Y30.1133
G0 Z0.2
G1 F300.0 Z-0.4
G1 F800.0 Y30.0781
G1 X-144.1758 Y27.1602
G2 X-143.6318 Y25.5817 I-571.3891 J-197.7941
G2 X-143.3613 Y24.792 I-248.9682 J-85.7314
G2 X-143.0977 Y24.0 I-32.2159 J-11.1634
G1 X-143.6563
G1 X-144.4727 Y26.5117
G1 X-145.2891 Y24.0
G1 X-145.832
G1 Y24.0313
G1 X-144.7422 Y27.1289
G2 X-145.2593 Y28.6199 I963.4491 J334.9851
G2 X-145.7695 Y30.1133 I116.5334 J40.6485
G1 X-145.1992
G1 X-144.4648 Y27.793
G1 X-143.7031 Y30.1133
G1 X-143.1602
G0 Z3.0
G0 X-142.5547 Y26.5742
G0 Z0.2
G1 F300.0 Z-0.4
G1 F800.0 X-140.9453
G1 Y26.0898
G1 X-142.5547
G1 Y26.5742
G0 Z3.0
G0 X-128.3438 Y26.6445
G0 Z0.2
G1 F300.0 Z-0.4
G1 F800.0 X-124.0078 Y30.9805
G1 Y27.5117
G1 X-115.3359
G1 Y30.9805
G1 X-111.0 Y26.6445
G1 X-115.3359 Y22.3086
G1 Y25.7773
G1 X-124.0078
G1 Y22.3086
G1 X-128.3438 Y26.6445
G0 Z3.0
G0 X-114.8242 Y14.1133
G0 Z0.2
G1 F300.0 Z-0.4
G1 F800.0 X-114.2734
G1 X-113.4336 Y11.0547
G1 X-112.6016 Y14.1133
G1 X-112.0547
G1 Y14.0781
G1 X-112.7969 Y11.6055
G3 X-112.9954 Y10.9902 I8.4896 J-3.0797
G3 X-113.168 Y10.3672 I26.3588 J-7.6343
G1 Y8.0
G1 X-113.7109
G1 Y10.3672
G3 X-113.8789 Y10.9922 I-4.2561 J-0.8087
G2 X-114.082 Y11.6055 I139.2835 J46.4724
G1 X-114.8242 Y14.0781
G1 Y14.1133
G0 Z3.0
G0 X-111.5039 Y10.5742
G0 Z0.2
G1 F300.0 Z-0.4
G1 F800.0 X-109.8945
G1 Y10.0898
G1 X-111.5039
G1 Y10.5742
G0 Z3.0
G0 X-97.832 Y24.0
G0 Z0.2
G1 F300.0 Z-0.4
G1 F800.0 Y24.0313
G1 X-96.7422 Y27.1289
G2 X-97.2593 Y28.6199 I963.4491 J334.9851
G2 X-97.7695 Y30.1133 I116.5334 J40.6485
G1 X-97.1992
G1 X-96.4648 Y27.793
G1 X-95.7031 Y30.1133
G1 X-95.1602
G1 Y30.0781
G1 X-96.1758 Y27.1602
G2 X-95.6318 Y25.5817 I-571.3891 J-197.7941
G2 X-95.3613 Y24.792 I-248.9682 J-85.7314
G2 X-95.0977 Y24.0 I-32.2159 J-11.1634
G1 X-95.6563
G1 X-96.4727 Y26.5117
G1 X-97.2891 Y24.0
G1 X-97.832
G0 Z3.0
G0 X-94.6563 Y26.457
G0 Z0.2
G1 F300.0 Z-0.4
G1 F800.0 Y26.9102
G1 X-93.5313
G1 Y28.0156
G1 X-93.0508
G1 Y26.9102
G1 X-91.9258
G1 Y26.457
G1 X-93.0508
G1 Y25.3516
G1 X-93.5313
G1 Y26.457
G1 X-94.6563
G0 Z3.0
G0 X-87.6914 Y23.3359
G0 Z0.2
G1 F300.0 Z-0.4
G1 F800.0 X-84.2227
G1 Y32.0078
G1 X-87.6914
G1 X-83.3555 Y36.3438
G1 X-79.0195 Y32.0078
G1 X-82.4883
G1 Y23.3359
G1 X-79.0195
G1 X-83.3555 Y19.0
G1 X-87.6914 Y23.3359
G0 Z3.0
G0 X-77.6406 Y14.1133
G0 Z0.2
G1 F300.0 Z-0.4
G1 F800.0 X-75.4648
G1 Y13.832
G1 X-77.1836 Y8.4805
G1 X-75.4648
G1 Y8.0
G1 X-77.8086
G1 Y8.2891
G1 X-76.0898 Y13.6328
G1 X-77.6406
G1 Y14.1133
G0 Z3.0
G0 X-74.8711 Y10.5742
G0 Z0.2
G1 F300.0 Z-0.4
G1 F800.0 X-73.2617
G1 Y10.0898
G1 X-74.8711
G1 Y10.5742
G0 Z3.0
G0 X-49.1618 Y16.3229
G0 Z0.2
G1 F300.0 Z-0.4
G2 F800.0 X-49.1719 Y16.4336 I0.4213 J0.0942
G1 Y17.9844
G1 X-48.6289
G1 Y16.4805
G1 X-47.3477
G1 Y19.3594
G1 X-49.1563
G1 X-49.0859 Y22.1133
G1 X-46.8516
G1 Y21.6328
G1 X-48.5547
G1 X-48.6211 Y19.8398
G1 X-47.2383
G2 X-46.9258 Y19.7188 I0.0156 J-0.4234
G2 X-46.8047 Y19.4063 I-0.3023 J-0.2969
G1 Y16.4336
G2 X-46.9258 Y16.1211 I-0.4234 J-0.0156
G2 X-47.2383 Y16.0 I-0.2969 J0.3023
G1 X-48.7422
G2 X-49.0547 Y16.1211 I-0.0156 J0.4234
G2 X-49.1618 Y16.3229 I0.3142 J0.296
G0 Z3.0
G0 X-29.9395
G0 Z0.2
G1 F300.0 Z-0.4
G1 F800.0 Y22.1133
G1 X-27.9551
G1 Y21.6328
G1 X-29.3965
G1 Y19.3516
G1 X-28.084
G1 Y18.8633
G1 X-29.3965
G1 Y16.4805
G1 X-27.9316
G1 Y16.0
G1 X-29.9395
G1 Y16.3229
G0 Z3.0
G0 Y36.082
G0 Z0.2
G1 F300.0 Z-0.4
G1 F800.0 X-30.248
G1 Y42.1953
G1 X-28.8496
G2 X-28.4153 Y42.1214 I0.0143 J-1.2288
G2 X-28.0449 Y41.8828 I-0.3684 J-0.9787
G2 X-27.7285 Y41.0898 I-0.7437 J-0.7563
G1 Y37.1875
G2 X-27.8049 Y36.7554 I-1.1803 J-0.0141
G2 X-28.0488 Y36.3906 I-0.9571 J0.3761
G2 X-28.8496 Y36.082 I-0.7651 J0.7922
G1 X-29.9395
G0 Z3.0
G0 X-29.7051 Y36.5625
G0 Z0.2
G1 F300.0 Z-0.4
G1 F800.0 X-28.9824
G3 X-28.7092 Y36.603 I0.0103 J0.8719
G3 X-28.4707 Y36.7422 I-0.1993 J0.6155
G3 X-28.2715 Y37.2422 I-0.4489 J0.4686
G1 Y41.043
G3 X-28.3159 Y41.3054 I-0.7409 J0.0097
G3 X-28.4629 Y41.5273 I-0.557 J-0.2094
G3 X-28.9512 Y41.7148 I-0.4622 J-0.4741
G1 X-29.7051
G1 Y36.5625
G0 Z3.0
G0 X-46.6602 Y37.6758
G0 Z0.2
G1 F300.0 Z-0.4
G1 F800.0 X-47.125
G1 Y36.082
G1 X-47.6367
G1 Y37.6758
G1 X-49.3633
G1 Y37.9531
G1 X-47.8828 Y42.1953
G1 X-47.3711
G1 Y42.1719
G1 X-48.7773 Y38.1367
G1 X-47.6367
G1 Y40.3555
G1 X-47.125
G1 Y38.1367
G1 X-46.6602
G1 Y37.6758
G0 Z3.0
G0 X-47.1642 Y56.1639
G0 Z0.2
G1 F300.0 Z-0.4
G2 F800.0 X-47.1914 Y56.1641 I-0.0115 J0.4236
G1 X-48.7656
G2 X-49.0781 Y56.2852 I-0.0156 J0.4234
G2 X-49.1992 Y56.5977 I0.3023 J0.2969
G1 Y58.1484
G1 X-48.6563
G1 Y56.6445
G1 X-47.3047
G1 Y58.5156
G1 X-48.3828 Y59.3242
G1 Y59.4453
G1 X-47.3125 Y60.2422
G1 Y61.7969
G1 X-48.6484
G1 Y60.4219
G1 X-49.1914
G1 Y61.8438
G2 X-49.0703 Y62.1563 I0.4234 J0.0156
G2 X-48.7578 Y62.2773 I0.2969 J-0.3023
G1 X-47.1992
G2 X-46.8867 Y62.1563 I0.0156 J-0.4234
G2 X-46.7656 Y61.8438 I-0.3023 J-0.2969
G1 Y60.3555
G2 X-47.0 Y59.8984 I-0.5265 J-0.0186
G1 X-47.7266 Y59.3867
G1 X-46.9922 Y58.875
G2 X-46.7578 Y58.4102 I-0.2935 J-0.4395
G1 Y56.5977
G2 X-46.8789 Y56.2852 I-0.4234 J-0.0156
G2 X-47.1642 Y56.1639 I-0.2969 J0.3023
G0 Z3.0
G0 X-30.2111 Y56.5718
G0 Z0.2
G1 F300.0 Z-0.4
G2 F800.0 X-30.2109 Y56.5977 I0.4236 J0.0102
G1 Y61.8438
G2 X-30.0898 Y62.1563 I0.4234 J0.0156
G2 X-29.7773 Y62.2773 I0.2969 J-0.3023
G1 X-28.2031
G2 X-27.8867 Y62.1563 I0.0143 J-0.4366
G2 X-27.7617 Y61.8438 I-0.2912 J-0.2977
G1 Y60.4219
G1 X-28.3086
G1 Y61.7969
G1 X-29.668
G1 Y56.6445
G1 X-28.3086
G1 Y58.1484
G1 X-27.7617
G1 Y56.5977
G2 X-27.8867 Y56.2852 I-0.4162 J-0.0148
G2 X-28.2031 Y56.1641 I-0.3021 J0.3155
G1 X-29.7773
G2 X-30.0898 Y56.2852 I-0.0156 J0.4234
G2 X-30.2111 Y56.5718 I0.3023 J0.2969
G0 Z3.0
G0 X-30.2109 Y76.2461
G0 Z0.2
G1 F300.0 Z-0.4
G1 F800.0 Y82.3594
G1 X-28.2109
G2 X-27.8984 Y82.2383 I0.0156 J-0.4234
G2 X-27.7773 Y81.9258 I-0.3023 J-0.2969
G1 Y80.1094
G2 X-27.9961 Y79.7031 I-0.4928 J0.0034
G1 X-28.4258 Y79.4453
G1 X-27.9648 Y79.1484
G2 X-27.7617 Y78.7578 I-0.2226 J-0.3639
G1 Y76.6797
G2 X-27.8828 Y76.3672 I-0.4234 J-0.0156
G2 X-28.1953 Y76.2461 I-0.2969 J0.3023
G1 X-30.2109
G0 Z3.0
G0 X-29.668 Y76.7266
G0 Z0.2
G1 F300.0 Z-0.4
G1 F800.0 X-28.3086
G1 Y78.8398
G1 X-28.8594 Y79.1992
G1 X-29.668
G1 Y76.7266
G0 Z3.0
G0 Y79.6719
G0 Z0.2
G1 F300.0 Z-0.4
G1 F800.0 X-28.8672
G1 X-28.3242 Y80.0391
G1 Y81.8789
G1 X-29.668
G1 Y79.6719
G0 Z3.0
G0 X-46.808 Y80.5897
G0 Z0.2
G1 F300.0 Z-0.4
G2 F800.0 X-46.8497 Y80.3534 I-0.991 J0.0531
G2 X-46.9512 Y80.0938 I-1.6383 J0.4908
G1 X-48.5684 Y76.7266
G1 X-46.7988
G1 Y76.2461
G1 X-49.2246
G1 Y76.5352
G1 X-47.3535 Y80.4219
G1 Y81.8789
G1 X-48.5996
G1 Y80.5039
G1 X-49.1465
G1 Y81.9258
G2 X-49.0254 Y82.2383 I0.4234 J0.0156
G2 X-48.7129 Y82.3594 I0.2969 J-0.3023
G1 X-47.2402
G2 X-46.9277 Y82.2383 I0.0156 J-0.4234
G2 X-46.8066 Y81.9258 I-0.3023 J-0.2969
G1 Y80.6289
G2 X-46.808 Y80.5897 I-0.9923 J0.0138
G0 Z3.0
G0 X-75.4648 Y48.1133
G0 Z0.2
G1 F300.0 Z-0.4
G1 F800.0 Y47.832
G1 X-77.1836 Y42.4805
G1 X-75.4648
G1 Y42.0
G1 X-77.8086
G1 Y42.2891
G1 X-76.0898 Y47.6328
G1 X-77.6406
G1 Y48.1133
G1 X-75.4648
G0 Z3.0
G0 X-73.8477 Y46.0156
G0 Z0.2
G1 F300.0 Z-0.4
G1 F800.0 X-73.3672
G1 Y44.9102
G1 X-72.2422
G1 Y44.457
G1 X-73.3672
G1 Y43.3516
G1 X-73.8477
G1 Y44.457
G1 X-74.9727
G1 Y44.9102
G1 X-73.8477
G1 Y46.0156
G0 Z3.0
G0 X-108.875 Y44.9102
G0 Z0.2
G1 F300.0 Z-0.4
G1 F800.0 Y44.457
G1 X-110.0
G1 Y43.3516
G1 X-110.4805
G1 Y44.457
G1 X-111.6055
G1 Y44.9102
G1 X-110.4805
G1 Y46.0156
G1 X-110.0
G1 Y44.9102
G1 X-108.875
G0 Z3.0
G0 X-112.6642 Y46.0475
G0 Z0.2
G1 F300.0 Z-0.4
G1 F800.0 X-112.7969 Y45.6055
G3 X-112.9954 Y44.9902 I8.4896 J-3.0797
G3 X-113.168 Y44.3672 I26.3588 J-7.6343
G1 Y42.0
G1 X-113.7109
G1 Y44.3672
G3 X-113.8789 Y44.9922 I-4.2561 J-0.8087
G2 X-114.082 Y45.6055 I139.2835 J46.4724
G1 X-114.8242 Y48.0781
G1 Y48.1133
G1 X-114.2734
G1 X-113.4336 Y45.0547
G1 X-112.6016 Y48.1133
G1 X-112.0547
G1 Y48.0781
G1 X-112.6642 Y46.0475
G0 Z3.0
M5
M30
