( Made using CamBam - http://www.cambam.co.uk )
( Frontplate 8/8/2013 3:59:24 PM )
( T2 : 2.0 )
( T10 : 0.0 )
G21 G90 G64 G40
G0 Z3.0
( T2 : 2.0 )
T2 M6
( Löcher )
G17
M3 S1000
G0 X-38.25 Y101.0
G0 Z0.2
G1 F300.0 Z-0.4
G2 F800.0 X-42.375 Y98.6184 I-2.75 J0.0
G2 Y103.3816 I1.375 J2.3816
G2 X-38.25 Y101.0 I1.375 J-2.3816
G1 F300.0 Z-0.8
G2 F800.0 X-42.375 Y98.6184 I-2.75 J0.0
G2 Y103.3816 I1.375 J2.3816
G2 X-38.25 Y101.0 I1.375 J-2.3816
G1 F300.0 Z-1.2
G2 F800.0 X-42.375 Y98.6184 I-2.75 J0.0
G2 Y103.3816 I1.375 J2.3816
G2 X-38.25 Y101.0 I1.375 J-2.3816
G1 F300.0 Z-1.6
G2 F800.0 X-42.375 Y98.6184 I-2.75 J0.0
G2 Y103.3816 I1.375 J2.3816
G2 X-38.25 Y101.0 I1.375 J-2.3816
G1 F300.0 Z-2.0
G2 F800.0 X-42.375 Y98.6184 I-2.75 J0.0
G2 Y103.3816 I1.375 J2.3816
G2 X-38.25 Y101.0 I1.375 J-2.3816
G1 F300.0 Z-2.4
G2 F800.0 X-42.375 Y98.6184 I-2.75 J0.0
G2 Y103.3816 I1.375 J2.3816
G2 X-38.25 Y101.0 I1.375 J-2.3816
G1 F300.0 Z-2.8
G2 F800.0 X-42.375 Y98.6184 I-2.75 J0.0
G2 Y103.3816 I1.375 J2.3816
G2 X-38.25 Y101.0 I1.375 J-2.3816
G1 F300.0 Z-3.2
G2 F800.0 X-42.375 Y98.6184 I-2.75 J0.0
G2 Y103.3816 I1.375 J2.3816
G2 X-38.25 Y101.0 I1.375 J-2.3816
G1 F300.0 Z-3.6
G2 F800.0 X-42.375 Y98.6184 I-2.75 J0.0
G2 Y103.3816 I1.375 J2.3816
G2 X-38.25 Y101.0 I1.375 J-2.3816
G1 F300.0 Z-4.0
G2 F800.0 X-42.375 Y98.6184 I-2.75 J0.0
G2 Y103.3816 I1.375 J2.3816
G2 X-38.25 Y101.0 I1.375 J-2.3816
G0 Z3.0
G0 X-40.5609 Y86.7147
G0 Z0.2
G1 F300.0 Z-0.4
G2 F800.0 X-38.25 Y84.0 I-0.4391 J-2.7147
G2 X-42.375 Y81.6184 I-2.75 J0.0
G2 Y86.3816 I1.375 J2.3816
G2 X-40.5609 Y86.7147 I1.375 J-2.3816
G1 F300.0 Z-0.8
G2 F800.0 X-38.25 Y84.0 I-0.4391 J-2.7147
G2 X-42.375 Y81.6184 I-2.75 J0.0
G2 Y86.3816 I1.375 J2.3816
G2 X-40.5609 Y86.7147 I1.375 J-2.3816
G1 F300.0 Z-1.2
G2 F800.0 X-38.25 Y84.0 I-0.4391 J-2.7147
G2 X-42.375 Y81.6184 I-2.75 J0.0
G2 Y86.3816 I1.375 J2.3816
G2 X-40.5609 Y86.7147 I1.375 J-2.3816
G1 F300.0 Z-1.6
G2 F800.0 X-38.25 Y84.0 I-0.4391 J-2.7147
G2 X-42.375 Y81.6184 I-2.75 J0.0
G2 Y86.3816 I1.375 J2.3816
G2 X-40.5609 Y86.7147 I1.375 J-2.3816
G1 F300.0 Z-2.0
G2 F800.0 X-38.25 Y84.0 I-0.4391 J-2.7147
G2 X-42.375 Y81.6184 I-2.75 J0.0
G2 Y86.3816 I1.375 J2.3816
G2 X-40.5609 Y86.7147 I1.375 J-2.3816
G1 F300.0 Z-2.4
G2 F800.0 X-38.25 Y84.0 I-0.4391 J-2.7147
G2 X-42.375 Y81.6184 I-2.75 J0.0
G2 Y86.3816 I1.375 J2.3816
G2 X-40.5609 Y86.7147 I1.375 J-2.3816
G1 F300.0 Z-2.8
G2 F800.0 X-38.25 Y84.0 I-0.4391 J-2.7147
G2 X-42.375 Y81.6184 I-2.75 J0.0
G2 Y86.3816 I1.375 J2.3816
G2 X-40.5609 Y86.7147 I1.375 J-2.3816
G1 F300.0 Z-3.2
G2 F800.0 X-38.25 Y84.0 I-0.4391 J-2.7147
G2 X-42.375 Y81.6184 I-2.75 J0.0
G2 Y86.3816 I1.375 J2.3816
G2 X-40.5609 Y86.7147 I1.375 J-2.3816
G1 F300.0 Z-3.6
G2 F800.0 X-38.25 Y84.0 I-0.4391 J-2.7147
G2 X-42.375 Y81.6184 I-2.75 J0.0
G2 Y86.3816 I1.375 J2.3816
G2 X-40.5609 Y86.7147 I1.375 J-2.3816
G1 F300.0 Z-4.0
G2 F800.0 X-38.25 Y84.0 I-0.4391 J-2.7147
G2 X-42.375 Y81.6184 I-2.75 J0.0
G2 Y86.3816 I1.375 J2.3816
G2 X-40.5609 Y86.7147 I1.375 J-2.3816
G0 Z3.0
G0 X-40.9388 Y69.7493
G0 Z0.2
G1 F300.0 Z-0.4
G2 F800.0 X-38.25 Y67.0 I-0.0612 J-2.7493
G2 X-42.375 Y64.6184 I-2.75 J0.0
G2 Y69.3816 I1.375 J2.3816
G2 X-40.9388 Y69.7493 I1.375 J-2.3816
G1 F300.0 Z-0.8
G2 F800.0 X-38.25 Y67.0 I-0.0612 J-2.7493
G2 X-42.375 Y64.6184 I-2.75 J0.0
G2 Y69.3816 I1.375 J2.3816
G2 X-40.9388 Y69.7493 I1.375 J-2.3816
G1 F300.0 Z-1.2
G2 F800.0 X-38.25 Y67.0 I-0.0612 J-2.7493
G2 X-42.375 Y64.6184 I-2.75 J0.0
G2 Y69.3816 I1.375 J2.3816
G2 X-40.9388 Y69.7493 I1.375 J-2.3816
G1 F300.0 Z-1.6
G2 F800.0 X-38.25 Y67.0 I-0.0612 J-2.7493
G2 X-42.375 Y64.6184 I-2.75 J0.0
G2 Y69.3816 I1.375 J2.3816
G2 X-40.9388 Y69.7493 I1.375 J-2.3816
G1 F300.0 Z-2.0
G2 F800.0 X-38.25 Y67.0 I-0.0612 J-2.7493
G2 X-42.375 Y64.6184 I-2.75 J0.0
G2 Y69.3816 I1.375 J2.3816
G2 X-40.9388 Y69.7493 I1.375 J-2.3816
G1 F300.0 Z-2.4
G2 F800.0 X-38.25 Y67.0 I-0.0612 J-2.7493
G2 X-42.375 Y64.6184 I-2.75 J0.0
G2 Y69.3816 I1.375 J2.3816
G2 X-40.9388 Y69.7493 I1.375 J-2.3816
G1 F300.0 Z-2.8
G2 F800.0 X-38.25 Y67.0 I-0.0612 J-2.7493
G2 X-42.375 Y64.6184 I-2.75 J0.0
G2 Y69.3816 I1.375 J2.3816
G2 X-40.9388 Y69.7493 I1.375 J-2.3816
G1 F300.0 Z-3.2
G2 F800.0 X-38.25 Y67.0 I-0.0612 J-2.7493
G2 X-42.375 Y64.6184 I-2.75 J0.0
G2 Y69.3816 I1.375 J2.3816
G2 X-40.9388 Y69.7493 I1.375 J-2.3816
G1 F300.0 Z-3.6
G2 F800.0 X-38.25 Y67.0 I-0.0612 J-2.7493
G2 X-42.375 Y64.6184 I-2.75 J0.0
G2 Y69.3816 I1.375 J2.3816
G2 X-40.9388 Y69.7493 I1.375 J-2.3816
G1 F300.0 Z-4.0
G2 F800.0 X-38.25 Y67.0 I-0.0612 J-2.7493
G2 X-42.375 Y64.6184 I-2.75 J0.0
G2 Y69.3816 I1.375 J2.3816
G2 X-40.9388 Y69.7493 I1.375 J-2.3816
G0 Z3.0
G0 X-40.9915 Y52.75
G0 Z0.2
G1 F300.0 Z-0.4
G2 F800.0 X-38.25 Y50.0 I-0.0085 J-2.75
G2 X-42.375 Y47.6184 I-2.75 J0.0
G2 Y52.3816 I1.375 J2.3816
G2 X-40.9915 Y52.75 I1.375 J-2.3816
G1 F300.0 Z-0.8
G2 F800.0 X-38.25 Y50.0 I-0.0085 J-2.75
G2 X-42.375 Y47.6184 I-2.75 J0.0
G2 Y52.3816 I1.375 J2.3816
G2 X-40.9915 Y52.75 I1.375 J-2.3816
G1 F300.0 Z-1.2
G2 F800.0 X-38.25 Y50.0 I-0.0085 J-2.75
G2 X-42.375 Y47.6184 I-2.75 J0.0
G2 Y52.3816 I1.375 J2.3816
G2 X-40.9915 Y52.75 I1.375 J-2.3816
G1 F300.0 Z-1.6
G2 F800.0 X-38.25 Y50.0 I-0.0085 J-2.75
G2 X-42.375 Y47.6184 I-2.75 J0.0
G2 Y52.3816 I1.375 J2.3816
G2 X-40.9915 Y52.75 I1.375 J-2.3816
G1 F300.0 Z-2.0
G2 F800.0 X-38.25 Y50.0 I-0.0085 J-2.75
G2 X-42.375 Y47.6184 I-2.75 J0.0
G2 Y52.3816 I1.375 J2.3816
G2 X-40.9915 Y52.75 I1.375 J-2.3816
G1 F300.0 Z-2.4
G2 F800.0 X-38.25 Y50.0 I-0.0085 J-2.75
G2 X-42.375 Y47.6184 I-2.75 J0.0
G2 Y52.3816 I1.375 J2.3816
G2 X-40.9915 Y52.75 I1.375 J-2.3816
G1 F300.0 Z-2.8
G2 F800.0 X-38.25 Y50.0 I-0.0085 J-2.75
G2 X-42.375 Y47.6184 I-2.75 J0.0
G2 Y52.3816 I1.375 J2.3816
G2 X-40.9915 Y52.75 I1.375 J-2.3816
G1 F300.0 Z-3.2
G2 F800.0 X-38.25 Y50.0 I-0.0085 J-2.75
G2 X-42.375 Y47.6184 I-2.75 J0.0
G2 Y52.3816 I1.375 J2.3816
G2 X-40.9915 Y52.75 I1.375 J-2.3816
G1 F300.0 Z-3.6
G2 F800.0 X-38.25 Y50.0 I-0.0085 J-2.75
G2 X-42.375 Y47.6184 I-2.75 J0.0
G2 Y52.3816 I1.375 J2.3816
G2 X-40.9915 Y52.75 I1.375 J-2.3816
G1 F300.0 Z-4.0
G2 F800.0 X-38.25 Y50.0 I-0.0085 J-2.75
G2 X-42.375 Y47.6184 I-2.75 J0.0
G2 Y52.3816 I1.375 J2.3816
G2 X-40.9915 Y52.75 I1.375 J-2.3816
G0 Z3.0
G0 X-40.9988 Y35.75
G0 Z0.2
G1 F300.0 Z-0.4
G2 F800.0 X-38.25 Y33.0 I-0.0012 J-2.75
G2 X-42.375 Y30.6184 I-2.75 J0.0
G2 Y35.3816 I1.375 J2.3816
G2 X-40.9988 Y35.75 I1.375 J-2.3816
G1 F300.0 Z-0.8
G2 F800.0 X-38.25 Y33.0 I-0.0012 J-2.75
G2 X-42.375 Y30.6184 I-2.75 J0.0
G2 Y35.3816 I1.375 J2.3816
G2 X-40.9988 Y35.75 I1.375 J-2.3816
G1 F300.0 Z-1.2
G2 F800.0 X-38.25 Y33.0 I-0.0012 J-2.75
G2 X-42.375 Y30.6184 I-2.75 J0.0
G2 Y35.3816 I1.375 J2.3816
G2 X-40.9988 Y35.75 I1.375 J-2.3816
G1 F300.0 Z-1.6
G2 F800.0 X-38.25 Y33.0 I-0.0012 J-2.75
G2 X-42.375 Y30.6184 I-2.75 J0.0
G2 Y35.3816 I1.375 J2.3816
G2 X-40.9988 Y35.75 I1.375 J-2.3816
G1 F300.0 Z-2.0
G2 F800.0 X-38.25 Y33.0 I-0.0012 J-2.75
G2 X-42.375 Y30.6184 I-2.75 J0.0
G2 Y35.3816 I1.375 J2.3816
G2 X-40.9988 Y35.75 I1.375 J-2.3816
G1 F300.0 Z-2.4
G2 F800.0 X-38.25 Y33.0 I-0.0012 J-2.75
G2 X-42.375 Y30.6184 I-2.75 J0.0
G2 Y35.3816 I1.375 J2.3816
G2 X-40.9988 Y35.75 I1.375 J-2.3816
G1 F300.0 Z-2.8
G2 F800.0 X-38.25 Y33.0 I-0.0012 J-2.75
G2 X-42.375 Y30.6184 I-2.75 J0.0
G2 Y35.3816 I1.375 J2.3816
G2 X-40.9988 Y35.75 I1.375 J-2.3816
G1 F300.0 Z-3.2
G2 F800.0 X-38.25 Y33.0 I-0.0012 J-2.75
G2 X-42.375 Y30.6184 I-2.75 J0.0
G2 Y35.3816 I1.375 J2.3816
G2 X-40.9988 Y35.75 I1.375 J-2.3816
G1 F300.0 Z-3.6
G2 F800.0 X-38.25 Y33.0 I-0.0012 J-2.75
G2 X-42.375 Y30.6184 I-2.75 J0.0
G2 Y35.3816 I1.375 J2.3816
G2 X-40.9988 Y35.75 I1.375 J-2.3816
G1 F300.0 Z-4.0
G2 F800.0 X-38.25 Y33.0 I-0.0012 J-2.75
G2 X-42.375 Y30.6184 I-2.75 J0.0
G2 Y35.3816 I1.375 J2.3816
G2 X-40.9988 Y35.75 I1.375 J-2.3816
G0 Z3.0
G0 X-40.9998 Y18.75
G0 Z0.2
G1 F300.0 Z-0.4
G2 F800.0 X-38.25 Y16.0 I-0.0002 J-2.75
G2 X-42.375 Y13.6184 I-2.75 J0.0
G2 Y18.3816 I1.375 J2.3816
G2 X-40.9998 Y18.75 I1.375 J-2.3816
G1 F300.0 Z-0.8
G2 F800.0 X-38.25 Y16.0 I-0.0002 J-2.75
G2 X-42.375 Y13.6184 I-2.75 J0.0
G2 Y18.3816 I1.375 J2.3816
G2 X-40.9998 Y18.75 I1.375 J-2.3816
G1 F300.0 Z-1.2
G2 F800.0 X-38.25 Y16.0 I-0.0002 J-2.75
G2 X-42.375 Y13.6184 I-2.75 J0.0
G2 Y18.3816 I1.375 J2.3816
G2 X-40.9998 Y18.75 I1.375 J-2.3816
G1 F300.0 Z-1.6
G2 F800.0 X-38.25 Y16.0 I-0.0002 J-2.75
G2 X-42.375 Y13.6184 I-2.75 J0.0
G2 Y18.3816 I1.375 J2.3816
G2 X-40.9998 Y18.75 I1.375 J-2.3816
G1 F300.0 Z-2.0
G2 F800.0 X-38.25 Y16.0 I-0.0002 J-2.75
G2 X-42.375 Y13.6184 I-2.75 J0.0
G2 Y18.3816 I1.375 J2.3816
G2 X-40.9998 Y18.75 I1.375 J-2.3816
G1 F300.0 Z-2.4
G2 F800.0 X-38.25 Y16.0 I-0.0002 J-2.75
G2 X-42.375 Y13.6184 I-2.75 J0.0
G2 Y18.3816 I1.375 J2.3816
G2 X-40.9998 Y18.75 I1.375 J-2.3816
G1 F300.0 Z-2.8
G2 F800.0 X-38.25 Y16.0 I-0.0002 J-2.75
G2 X-42.375 Y13.6184 I-2.75 J0.0
G2 Y18.3816 I1.375 J2.3816
G2 X-40.9998 Y18.75 I1.375 J-2.3816
G1 F300.0 Z-3.2
G2 F800.0 X-38.25 Y16.0 I-0.0002 J-2.75
G2 X-42.375 Y13.6184 I-2.75 J0.0
G2 Y18.3816 I1.375 J2.3816
G2 X-40.9998 Y18.75 I1.375 J-2.3816
G1 F300.0 Z-3.6
G2 F800.0 X-38.25 Y16.0 I-0.0002 J-2.75
G2 X-42.375 Y13.6184 I-2.75 J0.0
G2 Y18.3816 I1.375 J2.3816
G2 X-40.9998 Y18.75 I1.375 J-2.3816
G1 F300.0 Z-4.0
G2 F800.0 X-38.25 Y16.0 I-0.0002 J-2.75
G2 X-42.375 Y13.6184 I-2.75 J0.0
G2 Y18.3816 I1.375 J2.3816
G2 X-40.9998 Y18.75 I1.375 J-2.3816
G0 Z3.0
G0 X-23.7244 Y16.3746
G0 Z0.2
G1 F300.0 Z-0.4
G2 F800.0 X-22.375 Y18.3816 I2.7244 J-0.3746
G2 X-18.25 Y16.0 I1.375 J-2.3816
G2 X-22.375 Y13.6184 I-2.75 J0.0
G2 X-23.7244 Y16.3746 I1.375 J2.3816
G1 F300.0 Z-0.8
G2 F800.0 X-22.375 Y18.3816 I2.7244 J-0.3746
G2 X-18.25 Y16.0 I1.375 J-2.3816
G2 X-22.375 Y13.6184 I-2.75 J0.0
G2 X-23.7244 Y16.3746 I1.375 J2.3816
G1 F300.0 Z-1.2
G2 F800.0 X-22.375 Y18.3816 I2.7244 J-0.3746
G2 X-18.25 Y16.0 I1.375 J-2.3816
G2 X-22.375 Y13.6184 I-2.75 J0.0
G2 X-23.7244 Y16.3746 I1.375 J2.3816
G1 F300.0 Z-1.6
G2 F800.0 X-22.375 Y18.3816 I2.7244 J-0.3746
G2 X-18.25 Y16.0 I1.375 J-2.3816
G2 X-22.375 Y13.6184 I-2.75 J0.0
G2 X-23.7244 Y16.3746 I1.375 J2.3816
G1 F300.0 Z-2.0
G2 F800.0 X-22.375 Y18.3816 I2.7244 J-0.3746
G2 X-18.25 Y16.0 I1.375 J-2.3816
G2 X-22.375 Y13.6184 I-2.75 J0.0
G2 X-23.7244 Y16.3746 I1.375 J2.3816
G1 F300.0 Z-2.4
G2 F800.0 X-22.375 Y18.3816 I2.7244 J-0.3746
G2 X-18.25 Y16.0 I1.375 J-2.3816
G2 X-22.375 Y13.6184 I-2.75 J0.0
G2 X-23.7244 Y16.3746 I1.375 J2.3816
G1 F300.0 Z-2.8
G2 F800.0 X-22.375 Y18.3816 I2.7244 J-0.3746
G2 X-18.25 Y16.0 I1.375 J-2.3816
G2 X-22.375 Y13.6184 I-2.75 J0.0
G2 X-23.7244 Y16.3746 I1.375 J2.3816
G1 F300.0 Z-3.2
G2 F800.0 X-22.375 Y18.3816 I2.7244 J-0.3746
G2 X-18.25 Y16.0 I1.375 J-2.3816
G2 X-22.375 Y13.6184 I-2.75 J0.0
G2 X-23.7244 Y16.3746 I1.375 J2.3816
G1 F300.0 Z-3.6
G2 F800.0 X-22.375 Y18.3816 I2.7244 J-0.3746
G2 X-18.25 Y16.0 I1.375 J-2.3816
G2 X-22.375 Y13.6184 I-2.75 J0.0
G2 X-23.7244 Y16.3746 I1.375 J2.3816
G1 F300.0 Z-4.0
G2 F800.0 X-22.375 Y18.3816 I2.7244 J-0.3746
G2 X-18.25 Y16.0 I1.375 J-2.3816
G2 X-22.375 Y13.6184 I-2.75 J0.0
G2 X-23.7244 Y16.3746 I1.375 J2.3816
G0 Z3.0
G0 X-21.4447 Y30.2862
G0 Z0.2
G1 F300.0 Z-0.4
G2 F800.0 X-22.375 Y30.6184 I0.4447 J2.7138
G2 Y35.3816 I1.375 J2.3816
G2 X-18.25 Y33.0 I1.375 J-2.3816
G2 X-21.4447 Y30.2862 I-2.75 J0.0
G1 F300.0 Z-0.8
G2 F800.0 X-22.375 Y30.6184 I0.4447 J2.7138
G2 Y35.3816 I1.375 J2.3816
G2 X-18.25 Y33.0 I1.375 J-2.3816
G2 X-21.4447 Y30.2862 I-2.75 J0.0
G1 F300.0 Z-1.2
G2 F800.0 X-22.375 Y30.6184 I0.4447 J2.7138
G2 Y35.3816 I1.375 J2.3816
G2 X-18.25 Y33.0 I1.375 J-2.3816
G2 X-21.4447 Y30.2862 I-2.75 J0.0
G1 F300.0 Z-1.6
G2 F800.0 X-22.375 Y30.6184 I0.4447 J2.7138
G2 Y35.3816 I1.375 J2.3816
G2 X-18.25 Y33.0 I1.375 J-2.3816
G2 X-21.4447 Y30.2862 I-2.75 J0.0
G1 F300.0 Z-2.0
G2 F800.0 X-22.375 Y30.6184 I0.4447 J2.7138
G2 Y35.3816 I1.375 J2.3816
G2 X-18.25 Y33.0 I1.375 J-2.3816
G2 X-21.4447 Y30.2862 I-2.75 J0.0
G1 F300.0 Z-2.4
G2 F800.0 X-22.375 Y30.6184 I0.4447 J2.7138
G2 Y35.3816 I1.375 J2.3816
G2 X-18.25 Y33.0 I1.375 J-2.3816
G2 X-21.4447 Y30.2862 I-2.75 J0.0
G1 F300.0 Z-2.8
G2 F800.0 X-22.375 Y30.6184 I0.4447 J2.7138
G2 Y35.3816 I1.375 J2.3816
G2 X-18.25 Y33.0 I1.375 J-2.3816
G2 X-21.4447 Y30.2862 I-2.75 J0.0
G1 F300.0 Z-3.2
G2 F800.0 X-22.375 Y30.6184 I0.4447 J2.7138
G2 Y35.3816 I1.375 J2.3816
G2 X-18.25 Y33.0 I1.375 J-2.3816
G2 X-21.4447 Y30.2862 I-2.75 J0.0
G1 F300.0 Z-3.6
G2 F800.0 X-22.375 Y30.6184 I0.4447 J2.7138
G2 Y35.3816 I1.375 J2.3816
G2 X-18.25 Y33.0 I1.375 J-2.3816
G2 X-21.4447 Y30.2862 I-2.75 J0.0
G1 F300.0 Z-4.0
G2 F800.0 X-22.375 Y30.6184 I0.4447 J2.7138
G2 Y35.3816 I1.375 J2.3816
G2 X-18.25 Y33.0 I1.375 J-2.3816
G2 X-21.4447 Y30.2862 I-2.75 J0.0
G0 Z3.0
G0 X-21.062 Y47.2507
G0 Z0.2
G1 F300.0 Z-0.4
G2 F800.0 X-22.375 Y47.6184 I0.062 J2.7493
G2 Y52.3816 I1.375 J2.3816
G2 X-18.25 Y50.0 I1.375 J-2.3816
G2 X-21.062 Y47.2507 I-2.75 J0.0
G1 F300.0 Z-0.8
G2 F800.0 X-22.375 Y47.6184 I0.062 J2.7493
G2 Y52.3816 I1.375 J2.3816
G2 X-18.25 Y50.0 I1.375 J-2.3816
G2 X-21.062 Y47.2507 I-2.75 J0.0
G1 F300.0 Z-1.2
G2 F800.0 X-22.375 Y47.6184 I0.062 J2.7493
G2 Y52.3816 I1.375 J2.3816
G2 X-18.25 Y50.0 I1.375 J-2.3816
G2 X-21.062 Y47.2507 I-2.75 J0.0
G1 F300.0 Z-1.6
G2 F800.0 X-22.375 Y47.6184 I0.062 J2.7493
G2 Y52.3816 I1.375 J2.3816
G2 X-18.25 Y50.0 I1.375 J-2.3816
G2 X-21.062 Y47.2507 I-2.75 J0.0
G1 F300.0 Z-2.0
G2 F800.0 X-22.375 Y47.6184 I0.062 J2.7493
G2 Y52.3816 I1.375 J2.3816
G2 X-18.25 Y50.0 I1.375 J-2.3816
G2 X-21.062 Y47.2507 I-2.75 J0.0
G1 F300.0 Z-2.4
G2 F800.0 X-22.375 Y47.6184 I0.062 J2.7493
G2 Y52.3816 I1.375 J2.3816
G2 X-18.25 Y50.0 I1.375 J-2.3816
G2 X-21.062 Y47.2507 I-2.75 J0.0
G1 F300.0 Z-2.8
G2 F800.0 X-22.375 Y47.6184 I0.062 J2.7493
G2 Y52.3816 I1.375 J2.3816
G2 X-18.25 Y50.0 I1.375 J-2.3816
G2 X-21.062 Y47.2507 I-2.75 J0.0
G1 F300.0 Z-3.2
G2 F800.0 X-22.375 Y47.6184 I0.062 J2.7493
G2 Y52.3816 I1.375 J2.3816
G2 X-18.25 Y50.0 I1.375 J-2.3816
G2 X-21.062 Y47.2507 I-2.75 J0.0
G1 F300.0 Z-3.6
G2 F800.0 X-22.375 Y47.6184 I0.062 J2.7493
G2 Y52.3816 I1.375 J2.3816
G2 X-18.25 Y50.0 I1.375 J-2.3816
G2 X-21.062 Y47.2507 I-2.75 J0.0
G1 F300.0 Z-4.0
G2 F800.0 X-22.375 Y47.6184 I0.062 J2.7493
G2 Y52.3816 I1.375 J2.3816
G2 X-18.25 Y50.0 I1.375 J-2.3816
G2 X-21.062 Y47.2507 I-2.75 J0.0
G0 Z3.0
G0 X-21.0086 Y64.25
G0 Z0.2
G1 F300.0 Z-0.4
G2 F800.0 X-22.375 Y64.6184 I0.0086 J2.75
G2 Y69.3816 I1.375 J2.3816
G2 X-18.25 Y67.0 I1.375 J-2.3816
G2 X-21.0086 Y64.25 I-2.75 J0.0
G1 F300.0 Z-0.8
G2 F800.0 X-22.375 Y64.6184 I0.0086 J2.75
G2 Y69.3816 I1.375 J2.3816
G2 X-18.25 Y67.0 I1.375 J-2.3816
G2 X-21.0086 Y64.25 I-2.75 J0.0
G1 F300.0 Z-1.2
G2 F800.0 X-22.375 Y64.6184 I0.0086 J2.75
G2 Y69.3816 I1.375 J2.3816
G2 X-18.25 Y67.0 I1.375 J-2.3816
G2 X-21.0086 Y64.25 I-2.75 J0.0
G1 F300.0 Z-1.6
G2 F800.0 X-22.375 Y64.6184 I0.0086 J2.75
G2 Y69.3816 I1.375 J2.3816
G2 X-18.25 Y67.0 I1.375 J-2.3816
G2 X-21.0086 Y64.25 I-2.75 J0.0
G1 F300.0 Z-2.0
G2 F800.0 X-22.375 Y64.6184 I0.0086 J2.75
G2 Y69.3816 I1.375 J2.3816
G2 X-18.25 Y67.0 I1.375 J-2.3816
G2 X-21.0086 Y64.25 I-2.75 J0.0
G1 F300.0 Z-2.4
G2 F800.0 X-22.375 Y64.6184 I0.0086 J2.75
G2 Y69.3816 I1.375 J2.3816
G2 X-18.25 Y67.0 I1.375 J-2.3816
G2 X-21.0086 Y64.25 I-2.75 J0.0
G1 F300.0 Z-2.8
G2 F800.0 X-22.375 Y64.6184 I0.0086 J2.75
G2 Y69.3816 I1.375 J2.3816
G2 X-18.25 Y67.0 I1.375 J-2.3816
G2 X-21.0086 Y64.25 I-2.75 J0.0
G1 F300.0 Z-3.2
G2 F800.0 X-22.375 Y64.6184 I0.0086 J2.75
G2 Y69.3816 I1.375 J2.3816
G2 X-18.25 Y67.0 I1.375 J-2.3816
G2 X-21.0086 Y64.25 I-2.75 J0.0
G1 F300.0 Z-3.6
G2 F800.0 X-22.375 Y64.6184 I0.0086 J2.75
G2 Y69.3816 I1.375 J2.3816
G2 X-18.25 Y67.0 I1.375 J-2.3816
G2 X-21.0086 Y64.25 I-2.75 J0.0
G1 F300.0 Z-4.0
G2 F800.0 X-22.375 Y64.6184 I0.0086 J2.75
G2 Y69.3816 I1.375 J2.3816
G2 X-18.25 Y67.0 I1.375 J-2.3816
G2 X-21.0086 Y64.25 I-2.75 J0.0
G0 Z3.0
G0 X-21.0012 Y81.25
G0 Z0.2
G1 F300.0 Z-0.4
G2 F800.0 X-22.375 Y81.6184 I0.0012 J2.75
G2 Y86.3816 I1.375 J2.3816
G2 X-18.25 Y84.0 I1.375 J-2.3816
G2 X-21.0012 Y81.25 I-2.75 J0.0
G1 F300.0 Z-0.8
G2 F800.0 X-22.375 Y81.6184 I0.0012 J2.75
G2 Y86.3816 I1.375 J2.3816
G2 X-18.25 Y84.0 I1.375 J-2.3816
G2 X-21.0012 Y81.25 I-2.75 J0.0
G1 F300.0 Z-1.2
G2 F800.0 X-22.375 Y81.6184 I0.0012 J2.75
G2 Y86.3816 I1.375 J2.3816
G2 X-18.25 Y84.0 I1.375 J-2.3816
G2 X-21.0012 Y81.25 I-2.75 J0.0
G1 F300.0 Z-1.6
G2 F800.0 X-22.375 Y81.6184 I0.0012 J2.75
G2 Y86.3816 I1.375 J2.3816
G2 X-18.25 Y84.0 I1.375 J-2.3816
G2 X-21.0012 Y81.25 I-2.75 J0.0
G1 F300.0 Z-2.0
G2 F800.0 X-22.375 Y81.6184 I0.0012 J2.75
G2 Y86.3816 I1.375 J2.3816
G2 X-18.25 Y84.0 I1.375 J-2.3816
G2 X-21.0012 Y81.25 I-2.75 J0.0
G1 F300.0 Z-2.4
G2 F800.0 X-22.375 Y81.6184 I0.0012 J2.75
G2 Y86.3816 I1.375 J2.3816
G2 X-18.25 Y84.0 I1.375 J-2.3816
G2 X-21.0012 Y81.25 I-2.75 J0.0
G1 F300.0 Z-2.8
G2 F800.0 X-22.375 Y81.6184 I0.0012 J2.75
G2 Y86.3816 I1.375 J2.3816
G2 X-18.25 Y84.0 I1.375 J-2.3816
G2 X-21.0012 Y81.25 I-2.75 J0.0
G1 F300.0 Z-3.2
G2 F800.0 X-22.375 Y81.6184 I0.0012 J2.75
G2 Y86.3816 I1.375 J2.3816
G2 X-18.25 Y84.0 I1.375 J-2.3816
G2 X-21.0012 Y81.25 I-2.75 J0.0
G1 F300.0 Z-3.6
G2 F800.0 X-22.375 Y81.6184 I0.0012 J2.75
G2 Y86.3816 I1.375 J2.3816
G2 X-18.25 Y84.0 I1.375 J-2.3816
G2 X-21.0012 Y81.25 I-2.75 J0.0
G1 F300.0 Z-4.0
G2 F800.0 X-22.375 Y81.6184 I0.0012 J2.75
G2 Y86.3816 I1.375 J2.3816
G2 X-18.25 Y84.0 I1.375 J-2.3816
G2 X-21.0012 Y81.25 I-2.75 J0.0
G0 Z3.0
G0 X-21.0002 Y98.25
G0 Z0.2
G1 F300.0 Z-0.4
G2 F800.0 X-22.375 Y98.6184 I0.0002 J2.75
G2 Y103.3816 I1.375 J2.3816
G2 X-18.25 Y101.0 I1.375 J-2.3816
G2 X-21.0002 Y98.25 I-2.75 J0.0
G1 F300.0 Z-0.8
G2 F800.0 X-22.375 Y98.6184 I0.0002 J2.75
G2 Y103.3816 I1.375 J2.3816
G2 X-18.25 Y101.0 I1.375 J-2.3816
G2 X-21.0002 Y98.25 I-2.75 J0.0
G1 F300.0 Z-1.2
G2 F800.0 X-22.375 Y98.6184 I0.0002 J2.75
G2 Y103.3816 I1.375 J2.3816
G2 X-18.25 Y101.0 I1.375 J-2.3816
G2 X-21.0002 Y98.25 I-2.75 J0.0
G1 F300.0 Z-1.6
G2 F800.0 X-22.375 Y98.6184 I0.0002 J2.75
G2 Y103.3816 I1.375 J2.3816
G2 X-18.25 Y101.0 I1.375 J-2.3816
G2 X-21.0002 Y98.25 I-2.75 J0.0
G1 F300.0 Z-2.0
G2 F800.0 X-22.375 Y98.6184 I0.0002 J2.75
G2 Y103.3816 I1.375 J2.3816
G2 X-18.25 Y101.0 I1.375 J-2.3816
G2 X-21.0002 Y98.25 I-2.75 J0.0
G1 F300.0 Z-2.4
G2 F800.0 X-22.375 Y98.6184 I0.0002 J2.75
G2 Y103.3816 I1.375 J2.3816
G2 X-18.25 Y101.0 I1.375 J-2.3816
G2 X-21.0002 Y98.25 I-2.75 J0.0
G1 F300.0 Z-2.8
G2 F800.0 X-22.375 Y98.6184 I0.0002 J2.75
G2 Y103.3816 I1.375 J2.3816
G2 X-18.25 Y101.0 I1.375 J-2.3816
G2 X-21.0002 Y98.25 I-2.75 J0.0
G1 F300.0 Z-3.2
G2 F800.0 X-22.375 Y98.6184 I0.0002 J2.75
G2 Y103.3816 I1.375 J2.3816
G2 X-18.25 Y101.0 I1.375 J-2.3816
G2 X-21.0002 Y98.25 I-2.75 J0.0
G1 F300.0 Z-3.6
G2 F800.0 X-22.375 Y98.6184 I0.0002 J2.75
G2 Y103.3816 I1.375 J2.3816
G2 X-18.25 Y101.0 I1.375 J-2.3816
G2 X-21.0002 Y98.25 I-2.75 J0.0
G1 F300.0 Z-4.0
G2 F800.0 X-22.375 Y98.6184 I0.0002 J2.75
G2 Y103.3816 I1.375 J2.3816
G2 X-18.25 Y101.0 I1.375 J-2.3816
G2 X-21.0002 Y98.25 I-2.75 J0.0
G0 Z3.0
G0 X-6.2451 Y108.1635
G0 Z0.2
G1 F300.0 Z-0.4
G2 F800.0 X-5.75 Y110.299 I1.2451 J0.8365
G2 X-3.5 Y109.0 I0.75 J-1.299
G2 X-5.75 Y107.701 I-1.5 J0.0
G2 X-6.2451 Y108.1635 I0.75 J1.299
G1 F300.0 Z-0.8
G2 F800.0 X-5.75 Y110.299 I1.2451 J0.8365
G2 X-3.5 Y109.0 I0.75 J-1.299
G2 X-5.75 Y107.701 I-1.5 J0.0
G2 X-6.2451 Y108.1635 I0.75 J1.299
G1 F300.0 Z-1.2
G2 F800.0 X-5.75 Y110.299 I1.2451 J0.8365
G2 X-3.5 Y109.0 I0.75 J-1.299
G2 X-5.75 Y107.701 I-1.5 J0.0
G2 X-6.2451 Y108.1635 I0.75 J1.299
G1 F300.0 Z-1.6
G2 F800.0 X-5.75 Y110.299 I1.2451 J0.8365
G2 X-3.5 Y109.0 I0.75 J-1.299
G2 X-5.75 Y107.701 I-1.5 J0.0
G2 X-6.2451 Y108.1635 I0.75 J1.299
G1 F300.0 Z-2.0
G2 F800.0 X-5.75 Y110.299 I1.2451 J0.8365
G2 X-3.5 Y109.0 I0.75 J-1.299
G2 X-5.75 Y107.701 I-1.5 J0.0
G2 X-6.2451 Y108.1635 I0.75 J1.299
G1 F300.0 Z-2.4
G2 F800.0 X-5.75 Y110.299 I1.2451 J0.8365
G2 X-3.5 Y109.0 I0.75 J-1.299
G2 X-5.75 Y107.701 I-1.5 J0.0
G2 X-6.2451 Y108.1635 I0.75 J1.299
G1 F300.0 Z-2.8
G2 F800.0 X-5.75 Y110.299 I1.2451 J0.8365
G2 X-3.5 Y109.0 I0.75 J-1.299
G2 X-5.75 Y107.701 I-1.5 J0.0
G2 X-6.2451 Y108.1635 I0.75 J1.299
G1 F300.0 Z-3.2
G2 F800.0 X-5.75 Y110.299 I1.2451 J0.8365
G2 X-3.5 Y109.0 I0.75 J-1.299
G2 X-5.75 Y107.701 I-1.5 J0.0
G2 X-6.2451 Y108.1635 I0.75 J1.299
G1 F300.0 Z-3.6
G2 F800.0 X-5.75 Y110.299 I1.2451 J0.8365
G2 X-3.5 Y109.0 I0.75 J-1.299
G2 X-5.75 Y107.701 I-1.5 J0.0
G2 X-6.2451 Y108.1635 I0.75 J1.299
G1 F300.0 Z-4.0
G2 F800.0 X-5.75 Y110.299 I1.2451 J0.8365
G2 X-3.5 Y109.0 I0.75 J-1.299
G2 X-5.75 Y107.701 I-1.5 J0.0
G2 X-6.2451 Y108.1635 I0.75 J1.299
G0 Z3.0
G0 X-80.7393 Y56.5658
G0 Z0.2
G1 F300.0 Z-0.4
G2 F800.0 X-80.25 Y55.0 I-2.2607 J-1.5658
G2 X-84.375 Y52.6184 I-2.75 J0.0
G2 Y57.3816 I1.375 J2.3816
G2 X-80.7393 Y56.5658 I1.375 J-2.3816
G1 F300.0 Z-0.8
G2 F800.0 X-80.25 Y55.0 I-2.2607 J-1.5658
G2 X-84.375 Y52.6184 I-2.75 J0.0
G2 Y57.3816 I1.375 J2.3816
G2 X-80.7393 Y56.5658 I1.375 J-2.3816
G1 F300.0 Z-1.2
G2 F800.0 X-80.25 Y55.0 I-2.2607 J-1.5658
G2 X-84.375 Y52.6184 I-2.75 J0.0
G2 Y57.3816 I1.375 J2.3816
G2 X-80.7393 Y56.5658 I1.375 J-2.3816
G1 F300.0 Z-1.6
G2 F800.0 X-80.25 Y55.0 I-2.2607 J-1.5658
G2 X-84.375 Y52.6184 I-2.75 J0.0
G2 Y57.3816 I1.375 J2.3816
G2 X-80.7393 Y56.5658 I1.375 J-2.3816
G1 F300.0 Z-2.0
G2 F800.0 X-80.25 Y55.0 I-2.2607 J-1.5658
G2 X-84.375 Y52.6184 I-2.75 J0.0
G2 Y57.3816 I1.375 J2.3816
G2 X-80.7393 Y56.5658 I1.375 J-2.3816
G1 F300.0 Z-2.4
G2 F800.0 X-80.25 Y55.0 I-2.2607 J-1.5658
G2 X-84.375 Y52.6184 I-2.75 J0.0
G2 Y57.3816 I1.375 J2.3816
G2 X-80.7393 Y56.5658 I1.375 J-2.3816
G1 F300.0 Z-2.8
G2 F800.0 X-80.25 Y55.0 I-2.2607 J-1.5658
G2 X-84.375 Y52.6184 I-2.75 J0.0
G2 Y57.3816 I1.375 J2.3816
G2 X-80.7393 Y56.5658 I1.375 J-2.3816
G1 F300.0 Z-3.2
G2 F800.0 X-80.25 Y55.0 I-2.2607 J-1.5658
G2 X-84.375 Y52.6184 I-2.75 J0.0
G2 Y57.3816 I1.375 J2.3816
G2 X-80.7393 Y56.5658 I1.375 J-2.3816
G1 F300.0 Z-3.6
G2 F800.0 X-80.25 Y55.0 I-2.2607 J-1.5658
G2 X-84.375 Y52.6184 I-2.75 J0.0
G2 Y57.3816 I1.375 J2.3816
G2 X-80.7393 Y56.5658 I1.375 J-2.3816
G1 F300.0 Z-4.0
G2 F800.0 X-80.25 Y55.0 I-2.2607 J-1.5658
G2 X-84.375 Y52.6184 I-2.75 J0.0
G2 Y57.3816 I1.375 J2.3816
G2 X-80.7393 Y56.5658 I1.375 J-2.3816
G0 Z3.0
G0 X-101.0026 Y37.3902
G0 Z0.2
G1 F300.0 Z-0.4
G2 F800.0 X-100.25 Y35.5 I-1.9974 J-1.8902
G2 X-104.375 Y33.1184 I-2.75 J0.0
G2 Y37.8816 I1.375 J2.3816
G2 X-101.0026 Y37.3902 I1.375 J-2.3816
G1 F300.0 Z-0.8
G2 F800.0 X-100.25 Y35.5 I-1.9974 J-1.8902
G2 X-104.375 Y33.1184 I-2.75 J0.0
G2 Y37.8816 I1.375 J2.3816
G2 X-101.0026 Y37.3902 I1.375 J-2.3816
G1 F300.0 Z-1.2
G2 F800.0 X-100.25 Y35.5 I-1.9974 J-1.8902
G2 X-104.375 Y33.1184 I-2.75 J0.0
G2 Y37.8816 I1.375 J2.3816
G2 X-101.0026 Y37.3902 I1.375 J-2.3816
G1 F300.0 Z-1.6
G2 F800.0 X-100.25 Y35.5 I-1.9974 J-1.8902
G2 X-104.375 Y33.1184 I-2.75 J0.0
G2 Y37.8816 I1.375 J2.3816
G2 X-101.0026 Y37.3902 I1.375 J-2.3816
G1 F300.0 Z-2.0
G2 F800.0 X-100.25 Y35.5 I-1.9974 J-1.8902
G2 X-104.375 Y33.1184 I-2.75 J0.0
G2 Y37.8816 I1.375 J2.3816
G2 X-101.0026 Y37.3902 I1.375 J-2.3816
G1 F300.0 Z-2.4
G2 F800.0 X-100.25 Y35.5 I-1.9974 J-1.8902
G2 X-104.375 Y33.1184 I-2.75 J0.0
G2 Y37.8816 I1.375 J2.3816
G2 X-101.0026 Y37.3902 I1.375 J-2.3816
G1 F300.0 Z-2.8
G2 F800.0 X-100.25 Y35.5 I-1.9974 J-1.8902
G2 X-104.375 Y33.1184 I-2.75 J0.0
G2 Y37.8816 I1.375 J2.3816
G2 X-101.0026 Y37.3902 I1.375 J-2.3816
G1 F300.0 Z-3.2
G2 F800.0 X-100.25 Y35.5 I-1.9974 J-1.8902
G2 X-104.375 Y33.1184 I-2.75 J0.0
G2 Y37.8816 I1.375 J2.3816
G2 X-101.0026 Y37.3902 I1.375 J-2.3816
G1 F300.0 Z-3.6
G2 F800.0 X-100.25 Y35.5 I-1.9974 J-1.8902
G2 X-104.375 Y33.1184 I-2.75 J0.0
G2 Y37.8816 I1.375 J2.3816
G2 X-101.0026 Y37.3902 I1.375 J-2.3816
G1 F300.0 Z-4.0
G2 F800.0 X-100.25 Y35.5 I-1.9974 J-1.8902
G2 X-104.375 Y33.1184 I-2.75 J0.0
G2 Y37.8816 I1.375 J2.3816
G2 X-101.0026 Y37.3902 I1.375 J-2.3816
G0 Z3.0
G0 X-117.5083 Y53.1038
G0 Z0.2
G1 F300.0 Z-0.4
G2 F800.0 X-120.875 Y52.6184 I-1.9917 J1.8962
G2 Y57.3816 I1.375 J2.3816
G2 X-116.75 Y55.0 I1.375 J-2.3816
G2 X-117.5083 Y53.1038 I-2.75 J0.0
G1 F300.0 Z-0.8
G2 F800.0 X-120.875 Y52.6184 I-1.9917 J1.8962
G2 Y57.3816 I1.375 J2.3816
G2 X-116.75 Y55.0 I1.375 J-2.3816
G2 X-117.5083 Y53.1038 I-2.75 J0.0
G1 F300.0 Z-1.2
G2 F800.0 X-120.875 Y52.6184 I-1.9917 J1.8962
G2 Y57.3816 I1.375 J2.3816
G2 X-116.75 Y55.0 I1.375 J-2.3816
G2 X-117.5083 Y53.1038 I-2.75 J0.0
G1 F300.0 Z-1.6
G2 F800.0 X-120.875 Y52.6184 I-1.9917 J1.8962
G2 Y57.3816 I1.375 J2.3816
G2 X-116.75 Y55.0 I1.375 J-2.3816
G2 X-117.5083 Y53.1038 I-2.75 J0.0
G1 F300.0 Z-2.0
G2 F800.0 X-120.875 Y52.6184 I-1.9917 J1.8962
G2 Y57.3816 I1.375 J2.3816
G2 X-116.75 Y55.0 I1.375 J-2.3816
G2 X-117.5083 Y53.1038 I-2.75 J0.0
G1 F300.0 Z-2.4
G2 F800.0 X-120.875 Y52.6184 I-1.9917 J1.8962
G2 Y57.3816 I1.375 J2.3816
G2 X-116.75 Y55.0 I1.375 J-2.3816
G2 X-117.5083 Y53.1038 I-2.75 J0.0
G1 F300.0 Z-2.8
G2 F800.0 X-120.875 Y52.6184 I-1.9917 J1.8962
G2 Y57.3816 I1.375 J2.3816
G2 X-116.75 Y55.0 I1.375 J-2.3816
G2 X-117.5083 Y53.1038 I-2.75 J0.0
G1 F300.0 Z-3.2
G2 F800.0 X-120.875 Y52.6184 I-1.9917 J1.8962
G2 Y57.3816 I1.375 J2.3816
G2 X-116.75 Y55.0 I1.375 J-2.3816
G2 X-117.5083 Y53.1038 I-2.75 J0.0
G1 F300.0 Z-3.6
G2 F800.0 X-120.875 Y52.6184 I-1.9917 J1.8962
G2 Y57.3816 I1.375 J2.3816
G2 X-116.75 Y55.0 I1.375 J-2.3816
G2 X-117.5083 Y53.1038 I-2.75 J0.0
G1 F300.0 Z-4.0
G2 F800.0 X-120.875 Y52.6184 I-1.9917 J1.8962
G2 Y57.3816 I1.375 J2.3816
G2 X-116.75 Y55.0 I1.375 J-2.3816
G2 X-117.5083 Y53.1038 I-2.75 J0.0
G0 Z3.0
G0 X-134.0082 Y37.3961
G0 Z0.2
G1 F300.0 Z-0.4
G2 F800.0 X-133.25 Y35.5 I-1.9918 J-1.8961
G2 X-137.375 Y33.1184 I-2.75 J0.0
G2 Y37.8816 I1.375 J2.3816
G2 X-134.0082 Y37.3961 I1.375 J-2.3816
G1 F300.0 Z-0.8
G2 F800.0 X-133.25 Y35.5 I-1.9918 J-1.8961
G2 X-137.375 Y33.1184 I-2.75 J0.0
G2 Y37.8816 I1.375 J2.3816
G2 X-134.0082 Y37.3961 I1.375 J-2.3816
G1 F300.0 Z-1.2
G2 F800.0 X-133.25 Y35.5 I-1.9918 J-1.8961
G2 X-137.375 Y33.1184 I-2.75 J0.0
G2 Y37.8816 I1.375 J2.3816
G2 X-134.0082 Y37.3961 I1.375 J-2.3816
G1 F300.0 Z-1.6
G2 F800.0 X-133.25 Y35.5 I-1.9918 J-1.8961
G2 X-137.375 Y33.1184 I-2.75 J0.0
G2 Y37.8816 I1.375 J2.3816
G2 X-134.0082 Y37.3961 I1.375 J-2.3816
G1 F300.0 Z-2.0
G2 F800.0 X-133.25 Y35.5 I-1.9918 J-1.8961
G2 X-137.375 Y33.1184 I-2.75 J0.0
G2 Y37.8816 I1.375 J2.3816
G2 X-134.0082 Y37.3961 I1.375 J-2.3816
G1 F300.0 Z-2.4
G2 F800.0 X-133.25 Y35.5 I-1.9918 J-1.8961
G2 X-137.375 Y33.1184 I-2.75 J0.0
G2 Y37.8816 I1.375 J2.3816
G2 X-134.0082 Y37.3961 I1.375 J-2.3816
G1 F300.0 Z-2.8
G2 F800.0 X-133.25 Y35.5 I-1.9918 J-1.8961
G2 X-137.375 Y33.1184 I-2.75 J0.0
G2 Y37.8816 I1.375 J2.3816
G2 X-134.0082 Y37.3961 I1.375 J-2.3816
G1 F300.0 Z-3.2
G2 F800.0 X-133.25 Y35.5 I-1.9918 J-1.8961
G2 X-137.375 Y33.1184 I-2.75 J0.0
G2 Y37.8816 I1.375 J2.3816
G2 X-134.0082 Y37.3961 I1.375 J-2.3816
G1 F300.0 Z-3.6
G2 F800.0 X-133.25 Y35.5 I-1.9918 J-1.8961
G2 X-137.375 Y33.1184 I-2.75 J0.0
G2 Y37.8816 I1.375 J2.3816
G2 X-134.0082 Y37.3961 I1.375 J-2.3816
G1 F300.0 Z-4.0
G2 F800.0 X-133.25 Y35.5 I-1.9918 J-1.8961
G2 X-137.375 Y33.1184 I-2.75 J0.0
G2 Y37.8816 I1.375 J2.3816
G2 X-134.0082 Y37.3961 I1.375 J-2.3816
G0 Z3.0
G0 X-121.1472 Y20.2021
G0 Z0.2
G1 F300.0 Z-0.4
G2 F800.0 X-120.875 Y20.3816 I1.6472 J-2.2021
G2 X-116.75 Y18.0 I1.375 J-2.3816
G2 X-120.875 Y15.6184 I-2.75 J0.0
G2 X-121.1472 Y20.2021 I1.375 J2.3816
G1 F300.0 Z-0.8
G2 F800.0 X-120.875 Y20.3816 I1.6472 J-2.2021
G2 X-116.75 Y18.0 I1.375 J-2.3816
G2 X-120.875 Y15.6184 I-2.75 J0.0
G2 X-121.1472 Y20.2021 I1.375 J2.3816
G1 F300.0 Z-1.2
G2 F800.0 X-120.875 Y20.3816 I1.6472 J-2.2021
G2 X-116.75 Y18.0 I1.375 J-2.3816
G2 X-120.875 Y15.6184 I-2.75 J0.0
G2 X-121.1472 Y20.2021 I1.375 J2.3816
G1 F300.0 Z-1.6
G2 F800.0 X-120.875 Y20.3816 I1.6472 J-2.2021
G2 X-116.75 Y18.0 I1.375 J-2.3816
G2 X-120.875 Y15.6184 I-2.75 J0.0
G2 X-121.1472 Y20.2021 I1.375 J2.3816
G1 F300.0 Z-2.0
G2 F800.0 X-120.875 Y20.3816 I1.6472 J-2.2021
G2 X-116.75 Y18.0 I1.375 J-2.3816
G2 X-120.875 Y15.6184 I-2.75 J0.0
G2 X-121.1472 Y20.2021 I1.375 J2.3816
G1 F300.0 Z-2.4
G2 F800.0 X-120.875 Y20.3816 I1.6472 J-2.2021
G2 X-116.75 Y18.0 I1.375 J-2.3816
G2 X-120.875 Y15.6184 I-2.75 J0.0
G2 X-121.1472 Y20.2021 I1.375 J2.3816
G1 F300.0 Z-2.8
G2 F800.0 X-120.875 Y20.3816 I1.6472 J-2.2021
G2 X-116.75 Y18.0 I1.375 J-2.3816
G2 X-120.875 Y15.6184 I-2.75 J0.0
G2 X-121.1472 Y20.2021 I1.375 J2.3816
G1 F300.0 Z-3.2
G2 F800.0 X-120.875 Y20.3816 I1.6472 J-2.2021
G2 X-116.75 Y18.0 I1.375 J-2.3816
G2 X-120.875 Y15.6184 I-2.75 J0.0
G2 X-121.1472 Y20.2021 I1.375 J2.3816
G1 F300.0 Z-3.6
G2 F800.0 X-120.875 Y20.3816 I1.6472 J-2.2021
G2 X-116.75 Y18.0 I1.375 J-2.3816
G2 X-120.875 Y15.6184 I-2.75 J0.0
G2 X-121.1472 Y20.2021 I1.375 J2.3816
G1 F300.0 Z-4.0
G2 F800.0 X-120.875 Y20.3816 I1.6472 J-2.2021
G2 X-116.75 Y18.0 I1.375 J-2.3816
G2 X-120.875 Y15.6184 I-2.75 J0.0
G2 X-121.1472 Y20.2021 I1.375 J2.3816
G0 Z3.0
G0 X-85.7454 Y18.1585
G0 Z0.2
G1 F300.0 Z-0.4
G2 F800.0 X-84.375 Y20.3816 I2.7454 J-0.1585
G2 X-80.25 Y18.0 I1.375 J-2.3816
G2 X-84.375 Y15.6184 I-2.75 J0.0
G2 X-85.7454 Y18.1585 I1.375 J2.3816
G1 F300.0 Z-0.8
G2 F800.0 X-84.375 Y20.3816 I2.7454 J-0.1585
G2 X-80.25 Y18.0 I1.375 J-2.3816
G2 X-84.375 Y15.6184 I-2.75 J0.0
G2 X-85.7454 Y18.1585 I1.375 J2.3816
G1 F300.0 Z-1.2
G2 F800.0 X-84.375 Y20.3816 I2.7454 J-0.1585
G2 X-80.25 Y18.0 I1.375 J-2.3816
G2 X-84.375 Y15.6184 I-2.75 J0.0
G2 X-85.7454 Y18.1585 I1.375 J2.3816
G1 F300.0 Z-1.6
G2 F800.0 X-84.375 Y20.3816 I2.7454 J-0.1585
G2 X-80.25 Y18.0 I1.375 J-2.3816
G2 X-84.375 Y15.6184 I-2.75 J0.0
G2 X-85.7454 Y18.1585 I1.375 J2.3816
G1 F300.0 Z-2.0
G2 F800.0 X-84.375 Y20.3816 I2.7454 J-0.1585
G2 X-80.25 Y18.0 I1.375 J-2.3816
G2 X-84.375 Y15.6184 I-2.75 J0.0
G2 X-85.7454 Y18.1585 I1.375 J2.3816
G1 F300.0 Z-2.4
G2 F800.0 X-84.375 Y20.3816 I2.7454 J-0.1585
G2 X-80.25 Y18.0 I1.375 J-2.3816
G2 X-84.375 Y15.6184 I-2.75 J0.0
G2 X-85.7454 Y18.1585 I1.375 J2.3816
G1 F300.0 Z-2.8
G2 F800.0 X-84.375 Y20.3816 I2.7454 J-0.1585
G2 X-80.25 Y18.0 I1.375 J-2.3816
G2 X-84.375 Y15.6184 I-2.75 J0.0
G2 X-85.7454 Y18.1585 I1.375 J2.3816
G1 F300.0 Z-3.2
G2 F800.0 X-84.375 Y20.3816 I2.7454 J-0.1585
G2 X-80.25 Y18.0 I1.375 J-2.3816
G2 X-84.375 Y15.6184 I-2.75 J0.0
G2 X-85.7454 Y18.1585 I1.375 J2.3816
G1 F300.0 Z-3.6
G2 F800.0 X-84.375 Y20.3816 I2.7454 J-0.1585
G2 X-80.25 Y18.0 I1.375 J-2.3816
G2 X-84.375 Y15.6184 I-2.75 J0.0
G2 X-85.7454 Y18.1585 I1.375 J2.3816
G1 F300.0 Z-4.0
G2 F800.0 X-84.375 Y20.3816 I2.7454 J-0.1585
G2 X-80.25 Y18.0 I1.375 J-2.3816
G2 X-84.375 Y15.6184 I-2.75 J0.0
G2 X-85.7454 Y18.1585 I1.375 J2.3816
G0 Z3.0
G0 X-153.5264 Y5.28
G0 Z0.2
G1 F300.0 Z-0.4
G2 F800.0 X-153.5 Y5.0 I-1.4736 J-0.28
G2 X-155.75 Y3.701 I-1.5 J0.0
G2 Y6.299 I0.75 J1.299
G2 X-153.5264 Y5.28 I0.75 J-1.299
G1 F300.0 Z-0.8
G2 F800.0 X-153.5 Y5.0 I-1.4736 J-0.28
G2 X-155.75 Y3.701 I-1.5 J0.0
G2 Y6.299 I0.75 J1.299
G2 X-153.5264 Y5.28 I0.75 J-1.299
G1 F300.0 Z-1.2
G2 F800.0 X-153.5 Y5.0 I-1.4736 J-0.28
G2 X-155.75 Y3.701 I-1.5 J0.0
G2 Y6.299 I0.75 J1.299
G2 X-153.5264 Y5.28 I0.75 J-1.299
G1 F300.0 Z-1.6
G2 F800.0 X-153.5 Y5.0 I-1.4736 J-0.28
G2 X-155.75 Y3.701 I-1.5 J0.0
G2 Y6.299 I0.75 J1.299
G2 X-153.5264 Y5.28 I0.75 J-1.299
G1 F300.0 Z-2.0
G2 F800.0 X-153.5 Y5.0 I-1.4736 J-0.28
G2 X-155.75 Y3.701 I-1.5 J0.0
G2 Y6.299 I0.75 J1.299
G2 X-153.5264 Y5.28 I0.75 J-1.299
G1 F300.0 Z-2.4
G2 F800.0 X-153.5 Y5.0 I-1.4736 J-0.28
G2 X-155.75 Y3.701 I-1.5 J0.0
G2 Y6.299 I0.75 J1.299
G2 X-153.5264 Y5.28 I0.75 J-1.299
G1 F300.0 Z-2.8
G2 F800.0 X-153.5 Y5.0 I-1.4736 J-0.28
G2 X-155.75 Y3.701 I-1.5 J0.0
G2 Y6.299 I0.75 J1.299
G2 X-153.5264 Y5.28 I0.75 J-1.299
G1 F300.0 Z-3.2
G2 F800.0 X-153.5 Y5.0 I-1.4736 J-0.28
G2 X-155.75 Y3.701 I-1.5 J0.0
G2 Y6.299 I0.75 J1.299
G2 X-153.5264 Y5.28 I0.75 J-1.299
G1 F300.0 Z-3.6
G2 F800.0 X-153.5 Y5.0 I-1.4736 J-0.28
G2 X-155.75 Y3.701 I-1.5 J0.0
G2 Y6.299 I0.75 J1.299
G2 X-153.5264 Y5.28 I0.75 J-1.299
G1 F300.0 Z-4.0
G2 F800.0 X-153.5 Y5.0 I-1.4736 J-0.28
G2 X-155.75 Y3.701 I-1.5 J0.0
G2 Y6.299 I0.75 J1.299
G2 X-153.5264 Y5.28 I0.75 J-1.299
G0 Z3.0
G0 X-143.3465 Y78.0241
G0 Z0.2
G1 F300.0 Z-0.4
G2 F800.0 X-144.25 Y78.3349 I0.3465 J2.4759
G2 Y82.6651 I1.25 J2.1651
G2 X-140.5 Y80.5 I1.25 J-2.1651
G2 X-143.3465 Y78.0241 I-2.5 J0.0
G1 F300.0 Z-0.8
G2 F800.0 X-144.25 Y78.3349 I0.3465 J2.4759
G2 Y82.6651 I1.25 J2.1651
G2 X-140.5 Y80.5 I1.25 J-2.1651
G2 X-143.3465 Y78.0241 I-2.5 J0.0
G1 F300.0 Z-1.2
G2 F800.0 X-144.25 Y78.3349 I0.3465 J2.4759
G2 Y82.6651 I1.25 J2.1651
G2 X-140.5 Y80.5 I1.25 J-2.1651
G2 X-143.3465 Y78.0241 I-2.5 J0.0
G1 F300.0 Z-1.6
G2 F800.0 X-144.25 Y78.3349 I0.3465 J2.4759
G2 Y82.6651 I1.25 J2.1651
G2 X-140.5 Y80.5 I1.25 J-2.1651
G2 X-143.3465 Y78.0241 I-2.5 J0.0
G1 F300.0 Z-2.0
G2 F800.0 X-144.25 Y78.3349 I0.3465 J2.4759
G2 Y82.6651 I1.25 J2.1651
G2 X-140.5 Y80.5 I1.25 J-2.1651
G2 X-143.3465 Y78.0241 I-2.5 J0.0
G1 F300.0 Z-2.4
G2 F800.0 X-144.25 Y78.3349 I0.3465 J2.4759
G2 Y82.6651 I1.25 J2.1651
G2 X-140.5 Y80.5 I1.25 J-2.1651
G2 X-143.3465 Y78.0241 I-2.5 J0.0
G1 F300.0 Z-2.8
G2 F800.0 X-144.25 Y78.3349 I0.3465 J2.4759
G2 Y82.6651 I1.25 J2.1651
G2 X-140.5 Y80.5 I1.25 J-2.1651
G2 X-143.3465 Y78.0241 I-2.5 J0.0
G1 F300.0 Z-3.2
G2 F800.0 X-144.25 Y78.3349 I0.3465 J2.4759
G2 Y82.6651 I1.25 J2.1651
G2 X-140.5 Y80.5 I1.25 J-2.1651
G2 X-143.3465 Y78.0241 I-2.5 J0.0
G1 F300.0 Z-3.6
G2 F800.0 X-144.25 Y78.3349 I0.3465 J2.4759
G2 Y82.6651 I1.25 J2.1651
G2 X-140.5 Y80.5 I1.25 J-2.1651
G2 X-143.3465 Y78.0241 I-2.5 J0.0
G1 F300.0 Z-4.0
G2 F800.0 X-144.25 Y78.3349 I0.3465 J2.4759
G2 Y82.6651 I1.25 J2.1651
G2 X-140.5 Y80.5 I1.25 J-2.1651
G2 X-143.3465 Y78.0241 I-2.5 J0.0
G0 Z3.0
G0 X-153.5122 Y107.5815
G0 Z0.2
G1 F300.0 Z-0.4
G2 F800.0 X-154.75 Y107.701 I-0.4878 J1.4185
G2 Y110.299 I0.75 J1.299
G2 X-152.5 Y109.0 I0.75 J-1.299
G2 X-153.5122 Y107.5815 I-1.5 J0.0
G1 F300.0 Z-0.8
G2 F800.0 X-154.75 Y107.701 I-0.4878 J1.4185
G2 Y110.299 I0.75 J1.299
G2 X-152.5 Y109.0 I0.75 J-1.299
G2 X-153.5122 Y107.5815 I-1.5 J0.0
G1 F300.0 Z-1.2
G2 F800.0 X-154.75 Y107.701 I-0.4878 J1.4185
G2 Y110.299 I0.75 J1.299
G2 X-152.5 Y109.0 I0.75 J-1.299
G2 X-153.5122 Y107.5815 I-1.5 J0.0
G1 F300.0 Z-1.6
G2 F800.0 X-154.75 Y107.701 I-0.4878 J1.4185
G2 Y110.299 I0.75 J1.299
G2 X-152.5 Y109.0 I0.75 J-1.299
G2 X-153.5122 Y107.5815 I-1.5 J0.0
G1 F300.0 Z-2.0
G2 F800.0 X-154.75 Y107.701 I-0.4878 J1.4185
G2 Y110.299 I0.75 J1.299
G2 X-152.5 Y109.0 I0.75 J-1.299
G2 X-153.5122 Y107.5815 I-1.5 J0.0
G1 F300.0 Z-2.4
G2 F800.0 X-154.75 Y107.701 I-0.4878 J1.4185
G2 Y110.299 I0.75 J1.299
G2 X-152.5 Y109.0 I0.75 J-1.299
G2 X-153.5122 Y107.5815 I-1.5 J0.0
G1 F300.0 Z-2.8
G2 F800.0 X-154.75 Y107.701 I-0.4878 J1.4185
G2 Y110.299 I0.75 J1.299
G2 X-152.5 Y109.0 I0.75 J-1.299
G2 X-153.5122 Y107.5815 I-1.5 J0.0
G1 F300.0 Z-3.2
G2 F800.0 X-154.75 Y107.701 I-0.4878 J1.4185
G2 Y110.299 I0.75 J1.299
G2 X-152.5 Y109.0 I0.75 J-1.299
G2 X-153.5122 Y107.5815 I-1.5 J0.0
G1 F300.0 Z-3.6
G2 F800.0 X-154.75 Y107.701 I-0.4878 J1.4185
G2 Y110.299 I0.75 J1.299
G2 X-152.5 Y109.0 I0.75 J-1.299
G2 X-153.5122 Y107.5815 I-1.5 J0.0
G1 F300.0 Z-4.0
G2 F800.0 X-154.75 Y107.701 I-0.4878 J1.4185
G2 Y110.299 I0.75 J1.299
G2 X-152.5 Y109.0 I0.75 J-1.299
G2 X-153.5122 Y107.5815 I-1.5 J0.0
G0 Z3.0
G0 X-7.2315 Y5.8564
G0 Z0.2
G1 F300.0 Z-0.4
G2 F800.0 X-6.75 Y6.299 I1.2315 J-0.8564
G2 X-4.5 Y5.0 I0.75 J-1.299
G2 X-6.75 Y3.701 I-1.5 J0.0
G2 X-7.2315 Y5.8564 I0.75 J1.299
G1 F300.0 Z-0.8
G2 F800.0 X-6.75 Y6.299 I1.2315 J-0.8564
G2 X-4.5 Y5.0 I0.75 J-1.299
G2 X-6.75 Y3.701 I-1.5 J0.0
G2 X-7.2315 Y5.8564 I0.75 J1.299
G1 F300.0 Z-1.2
G2 F800.0 X-6.75 Y6.299 I1.2315 J-0.8564
G2 X-4.5 Y5.0 I0.75 J-1.299
G2 X-6.75 Y3.701 I-1.5 J0.0
G2 X-7.2315 Y5.8564 I0.75 J1.299
G1 F300.0 Z-1.6
G2 F800.0 X-6.75 Y6.299 I1.2315 J-0.8564
G2 X-4.5 Y5.0 I0.75 J-1.299
G2 X-6.75 Y3.701 I-1.5 J0.0
G2 X-7.2315 Y5.8564 I0.75 J1.299
G1 F300.0 Z-2.0
G2 F800.0 X-6.75 Y6.299 I1.2315 J-0.8564
G2 X-4.5 Y5.0 I0.75 J-1.299
G2 X-6.75 Y3.701 I-1.5 J0.0
G2 X-7.2315 Y5.8564 I0.75 J1.299
G1 F300.0 Z-2.4
G2 F800.0 X-6.75 Y6.299 I1.2315 J-0.8564
G2 X-4.5 Y5.0 I0.75 J-1.299
G2 X-6.75 Y3.701 I-1.5 J0.0
G2 X-7.2315 Y5.8564 I0.75 J1.299
G1 F300.0 Z-2.8
G2 F800.0 X-6.75 Y6.299 I1.2315 J-0.8564
G2 X-4.5 Y5.0 I0.75 J-1.299
G2 X-6.75 Y3.701 I-1.5 J0.0
G2 X-7.2315 Y5.8564 I0.75 J1.299
G1 F300.0 Z-3.2
G2 F800.0 X-6.75 Y6.299 I1.2315 J-0.8564
G2 X-4.5 Y5.0 I0.75 J-1.299
G2 X-6.75 Y3.701 I-1.5 J0.0
G2 X-7.2315 Y5.8564 I0.75 J1.299
G1 F300.0 Z-3.6
G2 F800.0 X-6.75 Y6.299 I1.2315 J-0.8564
G2 X-4.5 Y5.0 I0.75 J-1.299
G2 X-6.75 Y3.701 I-1.5 J0.0
G2 X-7.2315 Y5.8564 I0.75 J1.299
G1 F300.0 Z-4.0
G2 F800.0 X-6.75 Y6.299 I1.2315 J-0.8564
G2 X-4.5 Y5.0 I0.75 J-1.299
G2 X-6.75 Y3.701 I-1.5 J0.0
G2 X-7.2315 Y5.8564 I0.75 J1.299
( Profil2 )
S1000
G0 Z3.0
G0 X-119.0 Y68.0
G0 Z0.2
G1 F300.0 Z-0.4
G2 F800.0 X-120.0 Y69.0 I0.0 J1.0
G1 Y90.0
G2 X-119.0 Y91.0 I1.0 J0.0
G1 X-62.0
G2 X-61.0 Y90.0 I0.0 J-1.0
G1 Y69.0
G2 X-62.0 Y68.0 I-1.0 J0.0
G1 X-119.0
G1 F300.0 Z-0.8
G2 F800.0 X-120.0 Y69.0 I0.0 J1.0
G1 Y90.0
G2 X-119.0 Y91.0 I1.0 J0.0
G1 X-62.0
G2 X-61.0 Y90.0 I0.0 J-1.0
G1 Y69.0
G2 X-62.0 Y68.0 I-1.0 J0.0
G1 X-119.0
G1 F300.0 Z-1.2
G2 F800.0 X-120.0 Y69.0 I0.0 J1.0
G1 Y90.0
G2 X-119.0 Y91.0 I1.0 J0.0
G1 X-62.0
G2 X-61.0 Y90.0 I0.0 J-1.0
G1 Y69.0
G2 X-62.0 Y68.0 I-1.0 J0.0
G1 X-119.0
G1 F300.0 Z-1.6
G2 F800.0 X-120.0 Y69.0 I0.0 J1.0
G1 Y90.0
G2 X-119.0 Y91.0 I1.0 J0.0
G1 X-62.0
G2 X-61.0 Y90.0 I0.0 J-1.0
G1 Y69.0
G2 X-62.0 Y68.0 I-1.0 J0.0
G1 X-119.0
G1 F300.0 Z-2.0
G2 F800.0 X-120.0 Y69.0 I0.0 J1.0
G1 Y90.0
G2 X-119.0 Y91.0 I1.0 J0.0
G1 X-62.0
G2 X-61.0 Y90.0 I0.0 J-1.0
G1 Y69.0
G2 X-62.0 Y68.0 I-1.0 J0.0
G1 X-119.0
G1 F300.0 Z-2.4
G2 F800.0 X-120.0 Y69.0 I0.0 J1.0
G1 Y90.0
G2 X-119.0 Y91.0 I1.0 J0.0
G1 X-62.0
G2 X-61.0 Y90.0 I0.0 J-1.0
G1 Y69.0
G2 X-62.0 Y68.0 I-1.0 J0.0
G1 X-119.0
G1 F300.0 Z-2.8
G2 F800.0 X-120.0 Y69.0 I0.0 J1.0
G1 Y90.0
G2 X-119.0 Y91.0 I1.0 J0.0
G1 X-62.0
G2 X-61.0 Y90.0 I0.0 J-1.0
G1 Y69.0
G2 X-62.0 Y68.0 I-1.0 J0.0
G1 X-119.0
G1 F300.0 Z-3.2
G2 F800.0 X-120.0 Y69.0 I0.0 J1.0
G1 Y90.0
G2 X-119.0 Y91.0 I1.0 J0.0
G1 X-62.0
G2 X-61.0 Y90.0 I0.0 J-1.0
G1 Y69.0
G2 X-62.0 Y68.0 I-1.0 J0.0
G1 X-119.0
G1 F300.0 Z-3.6
G2 F800.0 X-120.0 Y69.0 I0.0 J1.0
G1 Y90.0
G2 X-119.0 Y91.0 I1.0 J0.0
G1 X-62.0
G2 X-61.0 Y90.0 I0.0 J-1.0
G1 Y69.0
G2 X-62.0 Y68.0 I-1.0 J0.0
G1 X-119.0
G1 F300.0 Z-4.0
G2 F800.0 X-120.0 Y69.0 I0.0 J1.0
G1 Y90.0
G2 X-119.0 Y91.0 I1.0 J0.0
G1 X-62.0
G2 X-61.0 Y90.0 I0.0 J-1.0
G1 Y69.0
G2 X-62.0 Y68.0 I-1.0 J0.0
G1 X-119.0
( Textgravur )
G0 Z3.0
( T10 : 0.0 )
T10 M6
M3 S1000
G0 X-28.6465 Y97.2539
G0 Z0.2
G1 F300.0 Z-0.4
G1 F800.0 X-29.1855
G1 X-29.4004 Y98.6133
G1 X-30.6152
G1 X-30.8301 Y97.2539
G1 X-31.3535
G1 Y97.2695
G1 X-30.2637 Y103.3828
G1 X-29.7285
G1 X-28.6465 Y97.2539
G0 Z3.0
G0 X-29.4707 Y99.0938
G0 Z0.2
G1 F300.0 Z-0.4
G1 F800.0 X-30.0059 Y102.4063
G1 X-30.5449 Y99.0938
G1 X-29.4707
G0 Z3.0
G0 Y86.3164
G0 Z0.2
G1 F300.0 Z-0.4
G1 F800.0 X-29.2109
G2 X-28.8984 Y86.1953 I0.0156 J-0.4234
G2 X-28.7773 Y85.8828 I-0.3023 J-0.2969
G1 Y84.0664
G2 X-28.9961 Y83.6602 I-0.4928 J0.0034
G1 X-29.4258 Y83.4023
G1 X-28.9648 Y83.1055
G2 X-28.7617 Y82.7148 I-0.2226 J-0.3639
G1 Y80.6367
G2 X-28.8828 Y80.3242 I-0.4234 J-0.0156
G2 X-29.1953 Y80.2031 I-0.2969 J0.3023
G1 X-31.2109
G1 Y86.3164
G1 X-29.4707
G0 Z3.0
G0 Y85.8359
G0 Z0.2
G1 F300.0 Z-0.4
G1 F800.0 X-30.668
G1 Y83.6289
G1 X-29.8672
G1 X-29.3242 Y83.9961
G1 Y85.8359
G1 X-29.4707
G0 Z3.0
G0 X-29.8594 Y83.1563
G0 Z0.2
G1 F300.0 Z-0.4
G1 F800.0 X-30.668
G1 Y80.6836
G1 X-29.3086
G1 Y82.7969
G1 X-29.8594 Y83.1563
G0 Z3.0
G0 Y69.2656
G0 Z0.2
G1 F300.0 Z-0.4
G1 F800.0 X-29.2031
G2 X-28.8867 Y69.1445 I0.0143 J-0.4366
G2 X-28.7617 Y68.832 I-0.2912 J-0.2977
G1 Y67.4102
G1 X-29.3086
G1 Y68.7852
G1 X-30.668
G1 Y63.6328
G1 X-29.3086
G1 Y65.1367
G1 X-28.7617
G1 Y63.5859
G2 X-28.8867 Y63.2734 I-0.4162 J-0.0148
G2 X-29.2031 Y63.1523 I-0.3021 J0.3155
G1 X-30.7773
G2 X-31.0898 Y63.2734 I-0.0156 J0.4234
G2 X-31.2109 Y63.5859 I0.3023 J0.2969
G1 Y68.832
G2 X-31.0898 Y69.1445 I0.4234 J0.0156
G2 X-30.7773 Y69.2656 I0.2969 J-0.3023
G1 X-29.8594
G0 Z3.0
G0 X-29.8369 Y52.2149
G0 Z0.2
G1 F300.0 Z-0.4
G2 F800.0 X-29.4153 Y52.1409 I0.0016 J-1.2289
G2 X-29.0449 Y51.9023 I-0.3684 J-0.9787
G2 X-28.7285 Y51.1094 I-0.7437 J-0.7563
G1 Y47.207
G2 X-28.8049 Y46.7749 I-1.1803 J-0.0141
G2 X-29.0488 Y46.4102 I-0.9571 J0.3761
G2 X-29.8496 Y46.1016 I-0.7651 J0.7922
G1 X-31.248
G1 Y52.2148
G1 X-29.8496
G2 X-29.8369 Y52.2149 I0.0143 J-1.2288
G0 Z3.0
G0 X-29.8741 Y51.7329
G0 Z0.2
G1 F300.0 Z-0.4
G3 F800.0 X-29.9512 Y51.7344 I-0.0509 J-0.6601
G1 X-30.7051
G1 Y46.582
G1 X-29.9824
G3 X-29.7092 Y46.6225 I0.0103 J0.8719
G3 X-29.4707 Y46.7617 I-0.1993 J0.6155
G3 X-29.2715 Y47.2617 I-0.4489 J0.4686
G1 Y51.0625
G3 X-29.3159 Y51.325 I-0.7409 J0.0097
G3 X-29.4629 Y51.5469 I-0.557 J-0.2094
G3 X-29.8741 Y51.7329 I-0.4622 J-0.4741
G0 Z3.0
G0 Y35.1641
G0 Z0.2
G1 F300.0 Z-0.4
G1 F800.0 X-28.9551
G1 Y34.6836
G1 X-30.3965
G1 Y32.4023
G1 X-29.084
G1 Y31.9141
G1 X-30.3965
G1 Y29.5313
G1 X-28.9316
G1 Y29.0508
G1 X-30.9395
G1 Y35.1641
G1 X-29.8741
G0 Z3.0
G0 Y18.1133
G0 Z0.2
G1 F300.0 Z-0.4
G1 F800.0 X-28.9023
G1 Y17.6328
G1 X-30.3281
G1 Y15.3125
G1 X-29.0156
G1 Y14.8242
G1 X-30.3281
G1 Y12.0
G1 X-30.8711
G1 Y18.1133
G1 X-29.8741
G0 Z3.0
G0 Y4.0
G0 Z0.2
G1 F300.0 Z-0.4
G1 F800.0 X-12.0
G3 X-10.0 Y6.0 I0.0 J2.0
G1 Y110.0
G3 X-12.0 Y112.0 I-2.0 J0.0
G1 X-55.0
G3 X-57.0 Y110.0 I0.0 J-2.0
G1 Y6.0
G3 X-55.0 Y4.0 I2.0 J0.0
G1 X-29.8741
G0 Z3.0
G0 X-47.8235 Y12.2412
G0 Z0.2
G1 F300.0 Z-0.4
G2 F800.0 X-47.9063 Y12.1211 I-0.3851 J0.1768
G2 X-48.2148 Y12.0 I-0.2917 J0.2895
G1 X-49.7734
G2 X-50.0859 Y12.1211 I-0.0156 J0.4234
G2 X-50.207 Y12.4336 I0.3023 J0.2969
G1 Y17.6797
G2 X-50.0859 Y17.9922 I0.4234 J0.0156
G2 X-49.7734 Y18.1133 I0.2969 J-0.3023
G1 X-48.2305
G2 X-47.9219 Y17.9922 I0.0169 J-0.4106
G2 X-47.8008 Y17.6797 I-0.3023 J-0.2969
G1 Y16.3281
G1 X-48.3438
G1 Y17.6328
G1 X-49.6641
G1 Y15.3672
G1 X-48.2148
G2 X-47.9063 Y15.2461 I0.0169 J-0.4106
G2 X-47.7852 Y14.9375 I-0.2895 J-0.2917
G1 Y12.4336
G2 X-47.8235 Y12.2412 I-0.4234 J-0.0156
G0 Z3.0
G0 X-48.3281 Y12.4805
G0 Z0.2
G1 F300.0 Z-0.4
G1 F800.0 Y14.8945
G1 X-49.6641
G1 Y12.4805
G1 X-48.3281
G0 Z3.0
G0 X-60.0
G0 Z0.2
G1 F300.0 Z-0.4
G1 F800.0 Y63.0
G3 X-62.0 Y65.0 I-2.0 J0.0
G1 X-148.0
G3 X-150.0 Y63.0 I0.0 J-2.0
G1 Y6.0
G3 X-148.0 Y4.0 I2.0 J0.0
G1 X-62.0
G3 X-60.0 Y6.0 I0.0 J2.0
G1 Y12.4805
G0 Z3.0
G0 X-73.2617 Y17.0898
G0 Z0.2
G1 F300.0 Z-0.4
G1 F800.0 X-74.8711
G1 Y17.5742
G1 X-73.2617
G1 Y17.0898
G0 Z3.0
G0 X-75.4648 Y15.4805
G0 Z0.2
G1 F300.0 Z-0.4
G1 F800.0 Y15.0
G1 X-77.8086
G1 Y15.2891
G1 X-76.0898 Y20.6328
G1 X-77.6406
G1 Y21.1133
G1 X-75.4648
G1 Y20.832
G1 X-77.1836 Y15.4805
G1 X-75.4648
G0 Z3.0
G0 X-83.3555 Y28.0
G0 Z0.2
G1 F300.0 Z-0.4
G1 F800.0 X-87.6914 Y32.3359
G1 X-84.2227
G1 Y41.0078
G1 X-87.6914
G1 X-83.3555 Y45.3438
G1 X-79.0195 Y41.0078
G1 X-82.4883
G1 Y32.3359
G1 X-79.0195
G1 X-83.3555 Y28.0
G0 Z3.0
G0 X-91.9258 Y35.457
G0 Z0.2
G1 F300.0 Z-0.4
G1 F800.0 X-93.0508
G1 Y34.3516
G1 X-93.5313
G1 Y35.457
G1 X-94.6563
G1 Y35.9102
G1 X-93.5313
G1 Y37.0156
G1 X-93.0508
G1 Y35.9102
G1 X-91.9258
G1 Y35.457
G0 Z3.0
G0 X-95.5104 Y34.2284
G0 Z0.2
G1 F300.0 Z-0.4
G2 F800.0 X-95.3613 Y33.792 I-249.0896 J-85.378
G2 X-95.0977 Y33.0 I-32.2159 J-11.1634
G1 X-95.6563
G1 X-96.4727 Y35.5117
G1 X-97.2891 Y33.0
G1 X-97.832
G1 Y33.0313
G1 X-96.7422 Y36.1289
G2 X-97.2593 Y37.6199 I963.4491 J334.9851
G2 X-97.7695 Y39.1133 I116.5334 J40.6485
G1 X-97.1992
G1 X-96.4648 Y36.793
G1 X-95.7031 Y39.1133
G1 X-95.1602
G1 Y39.0781
G1 X-96.1758 Y36.1602
G2 X-95.6318 Y34.5817 I-571.3891 J-197.7941
G2 X-95.5104 Y34.2284 I-248.9682 J-85.7314
G0 Z3.0
G0 X-111.0 Y35.6445
G0 Z0.2
G1 F300.0 Z-0.4
G1 F800.0 X-115.3359 Y31.3086
G1 Y34.7773
G1 X-124.0078
G1 Y31.3086
G1 X-128.3438 Y35.6445
G1 X-124.0078 Y39.9805
G1 Y36.5117
G1 X-115.3359
G1 Y39.9805
G1 X-111.0 Y35.6445
G0 Z3.0
G0 X-112.0547 Y21.1133
G0 Z0.2
G1 F300.0 Z-0.4
G1 F800.0 Y21.0781
G1 X-112.7969 Y18.6055
G3 X-112.9954 Y17.9902 I8.4896 J-3.0797
G3 X-113.168 Y17.3672 I26.3588 J-7.6343
G1 Y15.0
G1 X-113.7109
G1 Y17.3672
G3 X-113.8789 Y17.9922 I-4.2561 J-0.8087
G2 X-114.082 Y18.6055 I139.2835 J46.4724
G1 X-114.8242 Y21.0781
G1 Y21.1133
G1 X-114.2734
G1 X-113.4336 Y18.0547
G1 X-112.6016 Y21.1133
G1 X-112.0547
G0 Z3.0
G0 X-111.5039 Y17.5742
G0 Z0.2
G1 F300.0 Z-0.4
G1 F800.0 X-109.8945
G1 Y17.0898
G1 X-111.5039
G1 Y17.5742
G0 Z3.0
G0 X-140.9453 Y35.0898
G0 Z0.2
G1 F300.0 Z-0.4
G1 F800.0 X-142.5547
G1 Y35.5742
G1 X-140.9453
G1 Y35.0898
G0 Z3.0
G0 X-143.505 Y34.2127
G0 Z0.2
G1 F300.0 Z-0.4
G2 F800.0 X-143.3613 Y33.792 I-249.095 J-85.3623
G2 X-143.0977 Y33.0 I-32.2159 J-11.1634
G1 X-143.6563
G1 X-144.4727 Y35.5117
G1 X-145.2891 Y33.0
G1 X-145.832
G1 Y33.0313
G1 X-144.7422 Y36.1289
G2 X-145.2593 Y37.6199 I963.4491 J334.9851
G2 X-145.7695 Y39.1133 I116.5334 J40.6485
G1 X-145.1992
G1 X-144.4648 Y36.793
G1 X-143.7031 Y39.1133
G1 X-143.1602
G1 Y39.0781
G1 X-144.1758 Y36.1602
G2 X-143.6318 Y34.5817 I-571.3891 J-197.7941
G2 X-143.505 Y34.2127 I-248.9682 J-85.7314
G0 Z3.0
G0 X-142.5 Y52.0
G0 Z0.2
G1 F300.0 Z-0.4
G1 F800.0 Y57.8066
G2 X-142.418 Y58.5273 I10.377 J-0.8161
G1 X-143.918 Y52.8613
G1 X-144.082
G1 X-145.582 Y58.5273
G2 X-145.5 Y57.8066 I-10.8709 J-1.6024
G1 Y52.0
G1 X-146.2676
G1 Y61.1699
G1 X-145.5117
G1 X-144.0234 Y55.2051
G2 X-144.0 Y54.9414 I-2.5182 J-0.3567
G2 X-143.9766 Y55.2051 I2.3158 J-0.073
G1 X-142.4883 Y61.1699
G1 X-141.7324
G1 Y52.0
G1 X-142.5
G0 Z3.0
G0 X-140.3437 Y52.463
G0 Z0.2
G1 F300.0 Z-0.4
G2 F800.0 X-140.3613 Y52.6621 I0.7956 J0.1708
G1 Y57.0391
G2 X-140.3284 Y57.3025 I0.9644 J0.0132
G2 X-140.0902 Y57.6167 I0.486 J-0.1211
G2 X-139.7051 Y57.7012 I0.3567 J-0.7061
G1 X-137.748
G2 X-137.4834 Y57.6676 I0.0133 J-0.9549
G2 X-137.1696 Y57.4261 I-0.1237 J-0.4854
G2 X-137.0859 Y57.0391 I-0.7218 J-0.3585
G1 Y52.6621
G2 X-137.1195 Y52.3974 I-0.9549 J-0.0133
G2 X-137.361 Y52.0836 I-0.4854 J0.1237
G2 X-137.748 Y52.0 I-0.3585 J0.7218
G1 X-139.7051
G2 X-139.9687 Y52.034 I-0.0133 J0.937
G2 X-140.2793 Y52.2766 I0.1253 J0.4805
G2 X-140.3437 Y52.463 I0.7312 J0.3572
G0 Z3.0
G0 X-139.582 Y52.6855
G0 Z0.2
G1 F300.0 Z-0.4
G1 F800.0 X-137.8652
G1 Y57.0156
G1 X-139.582
G1 Y52.6855
G0 Z3.0
G0 X-135.1695 Y53.7808
G0 Z0.2
G1 F300.0 Z-0.4
G1 F800.0 X-136.1426 Y57.7012
G1 X-135.3398
G1 X-134.3672 Y53.2129
G1 X-133.3828 Y57.7012
G1 X-132.6035
G1 X-134.0156 Y51.9883
G1 X-134.7246
G1 X-135.1695 Y53.7808
G0 Z3.0
G0 X-131.6484
G0 Z0.2
G1 F300.0 Z-0.4
G1 F800.0 Y57.0391
G2 X-131.6155 Y57.3025 I0.9644 J0.0132
G2 X-131.3773 Y57.6167 I0.486 J-0.1211
G2 X-130.9922 Y57.7012 I0.3567 J-0.7061
G1 X-129.1172
G2 X-128.8536 Y57.6672 I0.0133 J-0.937
G2 X-128.543 Y57.4246 I-0.1253 J-0.4805
G2 X-128.4609 Y57.0391 I-0.7312 J-0.3572
G1 Y54.9883
G1 X-128.7246 Y54.7129
G1 X-130.8926
G1 Y52.6504
G1 X-129.2168
G1 Y53.6934
G1 X-128.4609
G1 Y52.6621
G2 X-128.4939 Y52.3987 I-0.9644 J-0.0132
G2 X-128.7321 Y52.0845 I-0.486 J0.1211
G2 X-129.1172 Y52.0 I-0.3567 J0.7061
G1 X-130.9922
G2 X-131.2558 Y52.034 I-0.0133 J0.937
G2 X-131.5664 Y52.2766 I0.1253 J0.4805
G2 X-131.6484 Y52.6621 I0.7312 J0.3572
G1 Y53.7808
G0 Z3.0
G0 X-130.8926 Y55.334
G0 Z0.2
G1 F300.0 Z-0.4
G1 F800.0 X-129.2168
G1 Y57.0508
G1 X-130.8926
G1 Y55.334
G0 Z3.0
G0 Y67.0
G0 Z0.2
G1 F300.0 Z-0.4
G1 F800.0 X-125.0
G3 X-123.0 Y69.0 I0.0 J2.0
G1 Y110.0
G3 X-125.0 Y112.0 I-2.0 J0.0
G1 X-148.0
G3 X-150.0 Y110.0 I0.0 J-2.0
G1 Y69.0
G3 X-148.0 Y67.0 I2.0 J0.0
G1 X-130.8926
G0 Z3.0
G0 X-114.8242 Y58.1133
G0 Z0.2
G1 F300.0 Z-0.4
G1 F800.0 X-114.2734
G1 X-113.4336 Y55.0547
G1 X-112.6016 Y58.1133
G1 X-112.0547
G1 Y58.0781
G1 X-112.7969 Y55.6055
G3 X-112.9954 Y54.9902 I8.4896 J-3.0797
G3 X-113.168 Y54.3672 I26.3588 J-7.6343
G1 Y52.0
G1 X-113.7109
G1 Y54.3672
G3 X-113.8789 Y54.9922 I-4.2561 J-0.8087
G2 X-114.082 Y55.6055 I139.2835 J46.4724
G1 X-114.8242 Y58.0781
G1 Y58.1133
G0 Z3.0
G0 X-111.6055 Y54.9102
G0 Z0.2
G1 F300.0 Z-0.4
G1 F800.0 X-110.4805
G1 Y56.0156
G1 X-110.0
G1 Y54.9102
G1 X-108.875
G1 Y54.457
G1 X-110.0
G1 Y53.3516
G1 X-110.4805
G1 Y54.457
G1 X-111.6055
G1 Y54.9102
G0 Z3.0
G0 X-77.8086 Y52.2891
G0 Z0.2
G1 F300.0 Z-0.4
G1 F800.0 X-76.0898 Y57.6328
G1 X-77.6406
G1 Y58.1133
G1 X-75.4648
G1 Y57.832
G1 X-77.1836 Y52.4805
G1 X-75.4648
G1 Y52.0
G1 X-77.8086
G1 Y52.2891
G0 Z3.0
G0 X-74.9727 Y54.457
G0 Z0.2
G1 F300.0 Z-0.4
G1 F800.0 Y54.9102
G1 X-73.8477
G1 Y56.0156
G1 X-73.3672
G1 Y54.9102
G1 X-72.2422
G1 Y54.457
G1 X-73.3672
G1 Y53.3516
G1 X-73.8477
G1 Y54.457
G1 X-74.9727
G0 Z3.0
G0 X-50.3633 Y47.9727
G0 Z0.2
G1 F300.0 Z-0.4
G1 F800.0 X-48.8828 Y52.2148
G1 X-48.3711
G1 Y52.1914
G1 X-49.7773 Y48.1563
G1 X-48.6367
G1 Y50.375
G1 X-48.125
G1 Y48.1563
G1 X-47.6602
G1 Y47.6953
G1 X-48.125
G1 Y46.1016
G1 X-48.6367
G1 Y47.6953
G1 X-50.3633
G1 Y47.9727
G0 Z3.0
G0 X-50.0859 Y35.1641
G0 Z0.2
G1 F300.0 Z-0.4
G1 F800.0 X-47.8516
G1 Y34.6836
G1 X-49.5547
G1 X-49.6211 Y32.8906
G1 X-48.2383
G2 X-47.9258 Y32.7695 I0.0156 J-0.4234
G2 X-47.8047 Y32.457 I-0.3023 J-0.2969
G1 Y29.4844
G2 X-47.9258 Y29.1719 I-0.4234 J-0.0156
G2 X-48.2383 Y29.0508 I-0.2969 J0.3023
G1 X-49.7422
G2 X-50.0547 Y29.1719 I-0.0156 J0.4234
G2 X-50.1719 Y29.4844 I0.3142 J0.296
G1 Y31.0352
G1 X-49.6289
G1 Y29.5313
G1 X-48.3477
G1 Y32.4102
G1 X-50.1563
G1 X-50.0859 Y35.1641
G0 Z3.0
G0 X-49.7858 Y63.1521
G0 Z0.2
G1 F300.0 Z-0.4
G2 F800.0 X-50.0781 Y63.2734 I0.0045 J0.4237
G2 X-50.1992 Y63.5859 I0.3023 J0.2969
G1 Y65.1367
G1 X-49.6563
G1 Y63.6328
G1 X-48.3047
G1 Y65.5039
G1 X-49.3828 Y66.3125
G1 Y66.4336
G1 X-48.3125 Y67.2305
G1 Y68.7852
G1 X-49.6484
G1 Y67.4102
G1 X-50.1914
G1 Y68.832
G2 X-50.0703 Y69.1445 I0.4234 J0.0156
G2 X-49.7578 Y69.2656 I0.2969 J-0.3023
G1 X-48.1992
G2 X-47.8867 Y69.1445 I0.0156 J-0.4234
G2 X-47.7656 Y68.832 I-0.3023 J-0.2969
G1 Y67.3438
G2 X-48.0 Y66.8867 I-0.5265 J-0.0186
G1 X-48.7266 Y66.375
G1 X-47.9922 Y65.8633
G2 X-47.7578 Y65.3984 I-0.2935 J-0.4395
G1 Y63.5859
G2 X-47.8789 Y63.2734 I-0.4234 J-0.0156
G2 X-48.1914 Y63.1523 I-0.2969 J0.3023
G1 X-49.7656
G2 X-49.7858 Y63.1521 I-0.0156 J0.4234
G0 Z3.0
G0 Y80.2031
G0 Z0.2
G1 F300.0 Z-0.4
G1 F800.0 X-50.2246
G1 Y80.4922
G1 X-48.3535 Y84.3789
G1 Y85.8359
G1 X-49.5996
G1 Y84.4609
G1 X-50.1465
G1 Y85.8828
G2 X-50.0254 Y86.1953 I0.4234 J0.0156
G2 X-49.7129 Y86.3164 I0.2969 J-0.3023
G1 X-48.2402
G2 X-47.9277 Y86.1953 I0.0156 J-0.4234
G2 X-47.8066 Y85.8828 I-0.3023 J-0.2969
G1 Y84.5859
G2 X-47.8497 Y84.3105 I-0.9923 J0.0138
G2 X-47.9512 Y84.0508 I-1.6383 J0.4908
G1 X-49.5684 Y80.6836
G1 X-47.7988
G1 Y80.2031
G1 X-49.7858
G0 Z3.0
G0 X-49.2617 Y97.2539
G0 Z0.2
G1 F300.0 Z-0.4
G1 F800.0 Y101.4922
G1 X-49.5
G1 Y101.5117
G1 X-49.1563 Y103.3672
G1 X-48.7148
G1 Y97.2539
G1 X-49.2617
G0 Z3.0
G0 X-60.0
G0 Z0.2
G1 F300.0 Z-0.4
G1 F800.0 Y110.0
G3 X-62.0 Y112.0 I-2.0 J0.0
G1 X-119.0
G3 X-121.0 Y110.0 I0.0 J-2.0
G1 Y96.0
G3 X-119.0 Y94.0 I2.0 J0.0
G1 X-62.0
G3 X-60.0 Y96.0 I0.0 J2.0
G1 Y97.2539
G0 Z3.0
G0 X-129.0859
G0 Z0.2
G1 F300.0 Z-0.4
G1 F800.0 Y97.0
G1 X-129.8535
G1 Y97.1582
G2 X-130.7852 Y97.0352 I-12.1355 J88.2946
G2 X-131.7168 Y96.9648 I-1.0634 J7.8831
G2 X-131.9698 Y96.9969 I-0.0127 J0.9126
G2 X-132.2697 Y97.2278 I0.1182 J0.4639
G2 X-132.3496 Y97.5977 I0.6899 J0.3427
G1 Y102.7012
G1 X-131.582
G1 Y97.6973
G1 X-129.8535 Y97.7441
G1 Y102.7012
G1 X-129.0859
G1 Y97.2539
G0 Z3.0
G0 X-133.6094
G0 Z0.2
G1 F300.0 Z-0.4
G1 F800.0 Y97.0
G1 X-134.3887
G1 Y102.0039
G1 X-136.1055 Y101.957
G1 Y97.0
G1 X-136.8848
G1 Y102.7012
G1 X-136.1055
G1 Y102.543
G3 X-135.1855 Y102.666 I-10.2101 J79.833
G2 X-134.2598 Y102.7363 I1.0626 J-7.861
G2 X-134.0023 Y102.7046 I0.0128 J-0.9577
G2 X-133.6933 Y102.474 I-0.1164 J-0.4782
G2 X-133.6094 Y102.0977 I-0.6778 J-0.3486
G1 Y97.2539
G0 Z3.0
G0 X-138.1762 Y97.5802
G0 Z0.2
G1 F300.0 Z-0.4
G2 F800.0 X-138.2068 Y97.3987 I-0.9621 J0.0687
G2 X-138.445 Y97.0845 I-0.486 J0.1211
G2 X-138.8301 Y97.0 I-0.3567 J0.7061
G1 X-140.7051
G2 X-140.9687 Y97.034 I-0.0133 J0.937
G2 X-141.2793 Y97.2766 I0.1253 J0.4805
G2 X-141.3613 Y97.6621 I0.7312 J0.3572
G1 Y102.0391
G2 X-141.3284 Y102.3025 I0.9644 J0.0132
G2 X-141.0902 Y102.6167 I0.486 J-0.1211
G2 X-140.7051 Y102.7012 I0.3567 J-0.7061
G1 X-138.8301
G2 X-138.5665 Y102.6672 I0.0133 J-0.937
G2 X-138.2559 Y102.4246 I-0.1253 J-0.4805
G2 X-138.1738 Y102.0391 I-0.7312 J-0.3572
G1 Y99.9883
G1 X-138.4375 Y99.7129
G1 X-140.6055
G1 Y97.6504
G1 X-138.9297
G1 Y98.6934
G1 X-138.1738
G1 Y97.6621
G2 X-138.1762 Y97.5802 I-0.9644 J-0.0132
G0 Z3.0
G0 X-138.9297 Y100.334
G0 Z0.2
G1 F300.0 Z-0.4
G1 F800.0 Y102.0508
G1 X-140.6055
G1 Y100.334
G1 X-138.9297
G0 Z3.0
G0 X-142.7324
G0 Z0.2
G1 F300.0 Z-0.4
G1 F800.0 Y97.0
G1 X-143.5
G1 Y102.8066
G2 X-143.418 Y103.5273 I10.377 J-0.8161
G1 X-144.918 Y97.8613
G1 X-145.082
G1 X-146.582 Y103.5273
G2 X-146.5 Y102.8066 I-10.8709 J-1.6024
G1 Y97.0
G1 X-147.2676
G1 Y106.1699
G1 X-146.5117
G1 X-145.0234 Y100.2051
G2 X-145.0 Y99.9414 I-2.5182 J-0.3567
G2 X-144.9766 Y100.2051 I2.3158 J-0.073
G1 X-143.4883 Y106.1699
G1 X-142.7324
G1 Y100.334
G0 Z3.0
G0 X-131.9043 Y103.2051
G0 Z0.2
G1 F300.0 Z-0.4
G1 F800.0 Y104.0898
G1 X-131.043
G1 Y103.2051
G1 X-131.9043
G0 Z3.0
G0 X-130.3926
G0 Z0.2
G1 F300.0 Z-0.4
G1 F800.0 Y104.0898
G1 X-129.5313
G1 Y103.2051
G1 X-130.3926
( Ausfräsen )
G0 Z3.0
( T2 : 2.0 )
T2 M6
M3 S1000
G0 X-155.0 Y-1.0
G0 Z0.2
G1 F300.0 Z-0.4
G1 F800.0 X-5.0
G3 X1.0 Y5.0 I0.0 J6.0
G1 Y110.0
G3 X-5.0 Y116.0 I-6.0 J0.0
G1 X-155.0
G3 X-161.0 Y110.0 I0.0 J-6.0
G1 Y5.0
G3 X-155.0 Y-1.0 I6.0 J0.0
G1 F300.0 Z-0.8
G1 F800.0 X-5.0
G3 X1.0 Y5.0 I0.0 J6.0
G1 Y110.0
G3 X-5.0 Y116.0 I-6.0 J0.0
G1 X-155.0
G3 X-161.0 Y110.0 I0.0 J-6.0
G1 Y5.0
G3 X-155.0 Y-1.0 I6.0 J0.0
G1 F300.0 Z-1.2
G1 F800.0 X-5.0
G3 X1.0 Y5.0 I0.0 J6.0
G1 Y110.0
G3 X-5.0 Y116.0 I-6.0 J0.0
G1 X-155.0
G3 X-161.0 Y110.0 I0.0 J-6.0
G1 Y5.0
G3 X-155.0 Y-1.0 I6.0 J0.0
G1 F300.0 Z-1.6
G1 F800.0 X-5.0
G3 X1.0 Y5.0 I0.0 J6.0
G1 Y110.0
G3 X-5.0 Y116.0 I-6.0 J0.0
G1 X-155.0
G3 X-161.0 Y110.0 I0.0 J-6.0
G1 Y5.0
G3 X-155.0 Y-1.0 I6.0 J0.0
G1 F300.0 Z-2.0
G1 F800.0 X-5.0
G3 X1.0 Y5.0 I0.0 J6.0
G1 Y110.0
G3 X-5.0 Y116.0 I-6.0 J0.0
G1 X-155.0
G3 X-161.0 Y110.0 I0.0 J-6.0
G1 Y5.0
G3 X-155.0 Y-1.0 I6.0 J0.0
G1 F300.0 Z-2.4
G1 F800.0 X-5.0
G3 X1.0 Y5.0 I0.0 J6.0
G1 Y110.0
G3 X-5.0 Y116.0 I-6.0 J0.0
G1 X-155.0
G3 X-161.0 Y110.0 I0.0 J-6.0
G1 Y5.0
G3 X-155.0 Y-1.0 I6.0 J0.0
G1 F300.0 Z-2.8
G1 F800.0 X-5.0
G3 X1.0 Y5.0 I0.0 J6.0
G1 Y110.0
G3 X-5.0 Y116.0 I-6.0 J0.0
G1 X-155.0
G3 X-161.0 Y110.0 I0.0 J-6.0
G1 Y5.0
G3 X-155.0 Y-1.0 I6.0 J0.0
G1 F300.0 Z-3.2
G1 F800.0 X-5.0
G3 X1.0 Y5.0 I0.0 J6.0
G1 Y110.0
G3 X-5.0 Y116.0 I-6.0 J0.0
G1 X-155.0
G3 X-161.0 Y110.0 I0.0 J-6.0
G1 Y5.0
G3 X-155.0 Y-1.0 I6.0 J0.0
G1 F300.0 Z-3.6
G1 F800.0 X-5.0
G3 X1.0 Y5.0 I0.0 J6.0
G1 Y110.0
G3 X-5.0 Y116.0 I-6.0 J0.0
G1 X-155.0
G3 X-161.0 Y110.0 I0.0 J-6.0
G1 Y5.0
G3 X-155.0 Y-1.0 I6.0 J0.0
G1 F300.0 Z-4.0
G1 F800.0 X-5.0
G3 X1.0 Y5.0 I0.0 J6.0
G1 Y110.0
G3 X-5.0 Y116.0 I-6.0 J0.0
G1 X-155.0
G3 X-161.0 Y110.0 I0.0 J-6.0
G1 Y5.0
G3 X-155.0 Y-1.0 I6.0 J0.0
G0 Z3.0
M5
M30
