( Made using CamBam - http://www.cambam.co.uk )
( Frontplate 8/19/2013 3:31:51 PM )
( T2 : 2.0 )
( T10 : 0.0 )
G21 G90 G64 G40
G0 Z3.0
( T2 : 2.0 )
T2 M6
( Löcher )
G17
M3 S1000
G0 X-17.25 Y94.0
G0 Z0.2
G1 F300.0 Z-0.4
G2 F800.0 X-21.375 Y91.6184 I-2.75 J0.0
G2 Y96.3816 I1.375 J2.3816
G2 X-17.25 Y94.0 I1.375 J-2.3816
G1 F300.0 Z-0.8
G2 F800.0 X-21.375 Y91.6184 I-2.75 J0.0
G2 Y96.3816 I1.375 J2.3816
G2 X-17.25 Y94.0 I1.375 J-2.3816
G1 F300.0 Z-1.2
G2 F800.0 X-21.375 Y91.6184 I-2.75 J0.0
G2 Y96.3816 I1.375 J2.3816
G2 X-17.25 Y94.0 I1.375 J-2.3816
G1 F300.0 Z-1.6
G2 F800.0 X-21.375 Y91.6184 I-2.75 J0.0
G2 Y96.3816 I1.375 J2.3816
G2 X-17.25 Y94.0 I1.375 J-2.3816
G1 F300.0 Z-2.0
G2 F800.0 X-21.375 Y91.6184 I-2.75 J0.0
G2 Y96.3816 I1.375 J2.3816
G2 X-17.25 Y94.0 I1.375 J-2.3816
G1 F300.0 Z-2.4
G2 F800.0 X-21.375 Y91.6184 I-2.75 J0.0
G2 Y96.3816 I1.375 J2.3816
G2 X-17.25 Y94.0 I1.375 J-2.3816
G1 F300.0 Z-2.8
G2 F800.0 X-21.375 Y91.6184 I-2.75 J0.0
G2 Y96.3816 I1.375 J2.3816
G2 X-17.25 Y94.0 I1.375 J-2.3816
G1 F300.0 Z-3.2
G2 F800.0 X-21.375 Y91.6184 I-2.75 J0.0
G2 Y96.3816 I1.375 J2.3816
G2 X-17.25 Y94.0 I1.375 J-2.3816
G1 F300.0 Z-3.6
G2 F800.0 X-21.375 Y91.6184 I-2.75 J0.0
G2 Y96.3816 I1.375 J2.3816
G2 X-17.25 Y94.0 I1.375 J-2.3816
G1 F300.0 Z-4.0
G2 F800.0 X-21.375 Y91.6184 I-2.75 J0.0
G2 Y96.3816 I1.375 J2.3816
G2 X-17.25 Y94.0 I1.375 J-2.3816
G0 Z3.0
G0 X-19.6254 Y76.7244
G0 Z0.2
G1 F300.0 Z-0.4
G2 F800.0 X-17.25 Y74.0 I-0.3746 J-2.7244
G2 X-21.375 Y71.6184 I-2.75 J0.0
G2 Y76.3816 I1.375 J2.3816
G2 X-19.6254 Y76.7244 I1.375 J-2.3816
G1 F300.0 Z-0.8
G2 F800.0 X-17.25 Y74.0 I-0.3746 J-2.7244
G2 X-21.375 Y71.6184 I-2.75 J0.0
G2 Y76.3816 I1.375 J2.3816
G2 X-19.6254 Y76.7244 I1.375 J-2.3816
G1 F300.0 Z-1.2
G2 F800.0 X-17.25 Y74.0 I-0.3746 J-2.7244
G2 X-21.375 Y71.6184 I-2.75 J0.0
G2 Y76.3816 I1.375 J2.3816
G2 X-19.6254 Y76.7244 I1.375 J-2.3816
G1 F300.0 Z-1.6
G2 F800.0 X-17.25 Y74.0 I-0.3746 J-2.7244
G2 X-21.375 Y71.6184 I-2.75 J0.0
G2 Y76.3816 I1.375 J2.3816
G2 X-19.6254 Y76.7244 I1.375 J-2.3816
G1 F300.0 Z-2.0
G2 F800.0 X-17.25 Y74.0 I-0.3746 J-2.7244
G2 X-21.375 Y71.6184 I-2.75 J0.0
G2 Y76.3816 I1.375 J2.3816
G2 X-19.6254 Y76.7244 I1.375 J-2.3816
G1 F300.0 Z-2.4
G2 F800.0 X-17.25 Y74.0 I-0.3746 J-2.7244
G2 X-21.375 Y71.6184 I-2.75 J0.0
G2 Y76.3816 I1.375 J2.3816
G2 X-19.6254 Y76.7244 I1.375 J-2.3816
G1 F300.0 Z-2.8
G2 F800.0 X-17.25 Y74.0 I-0.3746 J-2.7244
G2 X-21.375 Y71.6184 I-2.75 J0.0
G2 Y76.3816 I1.375 J2.3816
G2 X-19.6254 Y76.7244 I1.375 J-2.3816
G1 F300.0 Z-3.2
G2 F800.0 X-17.25 Y74.0 I-0.3746 J-2.7244
G2 X-21.375 Y71.6184 I-2.75 J0.0
G2 Y76.3816 I1.375 J2.3816
G2 X-19.6254 Y76.7244 I1.375 J-2.3816
G1 F300.0 Z-3.6
G2 F800.0 X-17.25 Y74.0 I-0.3746 J-2.7244
G2 X-21.375 Y71.6184 I-2.75 J0.0
G2 Y76.3816 I1.375 J2.3816
G2 X-19.6254 Y76.7244 I1.375 J-2.3816
G1 F300.0 Z-4.0
G2 F800.0 X-17.25 Y74.0 I-0.3746 J-2.7244
G2 X-21.375 Y71.6184 I-2.75 J0.0
G2 Y76.3816 I1.375 J2.3816
G2 X-19.6254 Y76.7244 I1.375 J-2.3816
G0 Z3.0
G0 X-37.2743 Y74.3645
G0 Z0.2
G1 F300.0 Z-0.4
G2 F800.0 X-37.25 Y74.0 I-2.7257 J-0.3645
G2 X-41.375 Y71.6184 I-2.75 J0.0
G2 Y76.3816 I1.375 J2.3816
G2 X-37.2743 Y74.3645 I1.375 J-2.3816
G1 F300.0 Z-0.8
G2 F800.0 X-37.25 Y74.0 I-2.7257 J-0.3645
G2 X-41.375 Y71.6184 I-2.75 J0.0
G2 Y76.3816 I1.375 J2.3816
G2 X-37.2743 Y74.3645 I1.375 J-2.3816
G1 F300.0 Z-1.2
G2 F800.0 X-37.25 Y74.0 I-2.7257 J-0.3645
G2 X-41.375 Y71.6184 I-2.75 J0.0
G2 Y76.3816 I1.375 J2.3816
G2 X-37.2743 Y74.3645 I1.375 J-2.3816
G1 F300.0 Z-1.6
G2 F800.0 X-37.25 Y74.0 I-2.7257 J-0.3645
G2 X-41.375 Y71.6184 I-2.75 J0.0
G2 Y76.3816 I1.375 J2.3816
G2 X-37.2743 Y74.3645 I1.375 J-2.3816
G1 F300.0 Z-2.0
G2 F800.0 X-37.25 Y74.0 I-2.7257 J-0.3645
G2 X-41.375 Y71.6184 I-2.75 J0.0
G2 Y76.3816 I1.375 J2.3816
G2 X-37.2743 Y74.3645 I1.375 J-2.3816
G1 F300.0 Z-2.4
G2 F800.0 X-37.25 Y74.0 I-2.7257 J-0.3645
G2 X-41.375 Y71.6184 I-2.75 J0.0
G2 Y76.3816 I1.375 J2.3816
G2 X-37.2743 Y74.3645 I1.375 J-2.3816
G1 F300.0 Z-2.8
G2 F800.0 X-37.25 Y74.0 I-2.7257 J-0.3645
G2 X-41.375 Y71.6184 I-2.75 J0.0
G2 Y76.3816 I1.375 J2.3816
G2 X-37.2743 Y74.3645 I1.375 J-2.3816
G1 F300.0 Z-3.2
G2 F800.0 X-37.25 Y74.0 I-2.7257 J-0.3645
G2 X-41.375 Y71.6184 I-2.75 J0.0
G2 Y76.3816 I1.375 J2.3816
G2 X-37.2743 Y74.3645 I1.375 J-2.3816
G1 F300.0 Z-3.6
G2 F800.0 X-37.25 Y74.0 I-2.7257 J-0.3645
G2 X-41.375 Y71.6184 I-2.75 J0.0
G2 Y76.3816 I1.375 J2.3816
G2 X-37.2743 Y74.3645 I1.375 J-2.3816
G1 F300.0 Z-4.0
G2 F800.0 X-37.25 Y74.0 I-2.7257 J-0.3645
G2 X-41.375 Y71.6184 I-2.75 J0.0
G2 Y76.3816 I1.375 J2.3816
G2 X-37.2743 Y74.3645 I1.375 J-2.3816
G0 Z3.0
G0 X-39.6219 Y91.2761
G0 Z0.2
G1 F300.0 Z-0.4
G2 F800.0 X-41.375 Y91.6184 I-0.3781 J2.7239
G2 Y96.3816 I1.375 J2.3816
G2 X-37.25 Y94.0 I1.375 J-2.3816
G2 X-39.6219 Y91.2761 I-2.75 J0.0
G1 F300.0 Z-0.8
G2 F800.0 X-41.375 Y91.6184 I-0.3781 J2.7239
G2 Y96.3816 I1.375 J2.3816
G2 X-37.25 Y94.0 I1.375 J-2.3816
G2 X-39.6219 Y91.2761 I-2.75 J0.0
G1 F300.0 Z-1.2
G2 F800.0 X-41.375 Y91.6184 I-0.3781 J2.7239
G2 Y96.3816 I1.375 J2.3816
G2 X-37.25 Y94.0 I1.375 J-2.3816
G2 X-39.6219 Y91.2761 I-2.75 J0.0
G1 F300.0 Z-1.6
G2 F800.0 X-41.375 Y91.6184 I-0.3781 J2.7239
G2 Y96.3816 I1.375 J2.3816
G2 X-37.25 Y94.0 I1.375 J-2.3816
G2 X-39.6219 Y91.2761 I-2.75 J0.0
G1 F300.0 Z-2.0
G2 F800.0 X-41.375 Y91.6184 I-0.3781 J2.7239
G2 Y96.3816 I1.375 J2.3816
G2 X-37.25 Y94.0 I1.375 J-2.3816
G2 X-39.6219 Y91.2761 I-2.75 J0.0
G1 F300.0 Z-2.4
G2 F800.0 X-41.375 Y91.6184 I-0.3781 J2.7239
G2 Y96.3816 I1.375 J2.3816
G2 X-37.25 Y94.0 I1.375 J-2.3816
G2 X-39.6219 Y91.2761 I-2.75 J0.0
G1 F300.0 Z-2.8
G2 F800.0 X-41.375 Y91.6184 I-0.3781 J2.7239
G2 Y96.3816 I1.375 J2.3816
G2 X-37.25 Y94.0 I1.375 J-2.3816
G2 X-39.6219 Y91.2761 I-2.75 J0.0
G1 F300.0 Z-3.2
G2 F800.0 X-41.375 Y91.6184 I-0.3781 J2.7239
G2 Y96.3816 I1.375 J2.3816
G2 X-37.25 Y94.0 I1.375 J-2.3816
G2 X-39.6219 Y91.2761 I-2.75 J0.0
G1 F300.0 Z-3.6
G2 F800.0 X-41.375 Y91.6184 I-0.3781 J2.7239
G2 Y96.3816 I1.375 J2.3816
G2 X-37.25 Y94.0 I1.375 J-2.3816
G2 X-39.6219 Y91.2761 I-2.75 J0.0
G1 F300.0 Z-4.0
G2 F800.0 X-41.375 Y91.6184 I-0.3781 J2.7239
G2 Y96.3816 I1.375 J2.3816
G2 X-37.25 Y94.0 I1.375 J-2.3816
G2 X-39.6219 Y91.2761 I-2.75 J0.0
G0 Z3.0
G0 X-67.5578 Y105.7359
G0 Z0.2
G1 F300.0 Z-0.4
G2 F800.0 X-71.375 Y104.6184 I-2.4422 J1.2641
G2 Y109.3816 I1.375 J2.3816
G2 X-67.25 Y107.0 I1.375 J-2.3816
G2 X-67.5578 Y105.7359 I-2.75 J0.0
G1 F300.0 Z-0.8
G2 F800.0 X-71.375 Y104.6184 I-2.4422 J1.2641
G2 Y109.3816 I1.375 J2.3816
G2 X-67.25 Y107.0 I1.375 J-2.3816
G2 X-67.5578 Y105.7359 I-2.75 J0.0
G1 F300.0 Z-1.2
G2 F800.0 X-71.375 Y104.6184 I-2.4422 J1.2641
G2 Y109.3816 I1.375 J2.3816
G2 X-67.25 Y107.0 I1.375 J-2.3816
G2 X-67.5578 Y105.7359 I-2.75 J0.0
G1 F300.0 Z-1.6
G2 F800.0 X-71.375 Y104.6184 I-2.4422 J1.2641
G2 Y109.3816 I1.375 J2.3816
G2 X-67.25 Y107.0 I1.375 J-2.3816
G2 X-67.5578 Y105.7359 I-2.75 J0.0
G1 F300.0 Z-2.0
G2 F800.0 X-71.375 Y104.6184 I-2.4422 J1.2641
G2 Y109.3816 I1.375 J2.3816
G2 X-67.25 Y107.0 I1.375 J-2.3816
G2 X-67.5578 Y105.7359 I-2.75 J0.0
G1 F300.0 Z-2.4
G2 F800.0 X-71.375 Y104.6184 I-2.4422 J1.2641
G2 Y109.3816 I1.375 J2.3816
G2 X-67.25 Y107.0 I1.375 J-2.3816
G2 X-67.5578 Y105.7359 I-2.75 J0.0
G1 F300.0 Z-2.8
G2 F800.0 X-71.375 Y104.6184 I-2.4422 J1.2641
G2 Y109.3816 I1.375 J2.3816
G2 X-67.25 Y107.0 I1.375 J-2.3816
G2 X-67.5578 Y105.7359 I-2.75 J0.0
G1 F300.0 Z-3.2
G2 F800.0 X-71.375 Y104.6184 I-2.4422 J1.2641
G2 Y109.3816 I1.375 J2.3816
G2 X-67.25 Y107.0 I1.375 J-2.3816
G2 X-67.5578 Y105.7359 I-2.75 J0.0
G1 F300.0 Z-3.6
G2 F800.0 X-71.375 Y104.6184 I-2.4422 J1.2641
G2 Y109.3816 I1.375 J2.3816
G2 X-67.25 Y107.0 I1.375 J-2.3816
G2 X-67.5578 Y105.7359 I-2.75 J0.0
G1 F300.0 Z-4.0
G2 F800.0 X-71.375 Y104.6184 I-2.4422 J1.2641
G2 Y109.3816 I1.375 J2.3816
G2 X-67.25 Y107.0 I1.375 J-2.3816
G2 X-67.5578 Y105.7359 I-2.75 J0.0
G0 Z3.0
G0 X-87.2544 Y106.8453
G0 Z0.2
G1 F300.0 Z-0.4
G2 F800.0 X-91.375 Y104.6184 I-2.7456 J0.1547
G2 Y109.3816 I1.375 J2.3816
G2 X-87.25 Y107.0 I1.375 J-2.3816
G2 X-87.2544 Y106.8453 I-2.75 J0.0
G1 F300.0 Z-0.8
G2 F800.0 X-91.375 Y104.6184 I-2.7456 J0.1547
G2 Y109.3816 I1.375 J2.3816
G2 X-87.25 Y107.0 I1.375 J-2.3816
G2 X-87.2544 Y106.8453 I-2.75 J0.0
G1 F300.0 Z-1.2
G2 F800.0 X-91.375 Y104.6184 I-2.7456 J0.1547
G2 Y109.3816 I1.375 J2.3816
G2 X-87.25 Y107.0 I1.375 J-2.3816
G2 X-87.2544 Y106.8453 I-2.75 J0.0
G1 F300.0 Z-1.6
G2 F800.0 X-91.375 Y104.6184 I-2.7456 J0.1547
G2 Y109.3816 I1.375 J2.3816
G2 X-87.25 Y107.0 I1.375 J-2.3816
G2 X-87.2544 Y106.8453 I-2.75 J0.0
G1 F300.0 Z-2.0
G2 F800.0 X-91.375 Y104.6184 I-2.7456 J0.1547
G2 Y109.3816 I1.375 J2.3816
G2 X-87.25 Y107.0 I1.375 J-2.3816
G2 X-87.2544 Y106.8453 I-2.75 J0.0
G1 F300.0 Z-2.4
G2 F800.0 X-91.375 Y104.6184 I-2.7456 J0.1547
G2 Y109.3816 I1.375 J2.3816
G2 X-87.25 Y107.0 I1.375 J-2.3816
G2 X-87.2544 Y106.8453 I-2.75 J0.0
G1 F300.0 Z-2.8
G2 F800.0 X-91.375 Y104.6184 I-2.7456 J0.1547
G2 Y109.3816 I1.375 J2.3816
G2 X-87.25 Y107.0 I1.375 J-2.3816
G2 X-87.2544 Y106.8453 I-2.75 J0.0
G1 F300.0 Z-3.2
G2 F800.0 X-91.375 Y104.6184 I-2.7456 J0.1547
G2 Y109.3816 I1.375 J2.3816
G2 X-87.25 Y107.0 I1.375 J-2.3816
G2 X-87.2544 Y106.8453 I-2.75 J0.0
G1 F300.0 Z-3.6
G2 F800.0 X-91.375 Y104.6184 I-2.7456 J0.1547
G2 Y109.3816 I1.375 J2.3816
G2 X-87.25 Y107.0 I1.375 J-2.3816
G2 X-87.2544 Y106.8453 I-2.75 J0.0
G1 F300.0 Z-4.0
G2 F800.0 X-91.375 Y104.6184 I-2.7456 J0.1547
G2 Y109.3816 I1.375 J2.3816
G2 X-87.25 Y107.0 I1.375 J-2.3816
G2 X-87.2544 Y106.8453 I-2.75 J0.0
G0 Z3.0
G0 X-107.2501 Y106.9813
G0 Z0.2
G1 F300.0 Z-0.4
G2 F800.0 X-111.375 Y104.6184 I-2.7499 J0.0187
G2 Y109.3816 I1.375 J2.3816
G2 X-107.25 Y107.0 I1.375 J-2.3816
G2 X-107.2501 Y106.9813 I-2.75 J0.0
G1 F300.0 Z-0.8
G2 F800.0 X-111.375 Y104.6184 I-2.7499 J0.0187
G2 Y109.3816 I1.375 J2.3816
G2 X-107.25 Y107.0 I1.375 J-2.3816
G2 X-107.2501 Y106.9813 I-2.75 J0.0
G1 F300.0 Z-1.2
G2 F800.0 X-111.375 Y104.6184 I-2.7499 J0.0187
G2 Y109.3816 I1.375 J2.3816
G2 X-107.25 Y107.0 I1.375 J-2.3816
G2 X-107.2501 Y106.9813 I-2.75 J0.0
G1 F300.0 Z-1.6
G2 F800.0 X-111.375 Y104.6184 I-2.7499 J0.0187
G2 Y109.3816 I1.375 J2.3816
G2 X-107.25 Y107.0 I1.375 J-2.3816
G2 X-107.2501 Y106.9813 I-2.75 J0.0
G1 F300.0 Z-2.0
G2 F800.0 X-111.375 Y104.6184 I-2.7499 J0.0187
G2 Y109.3816 I1.375 J2.3816
G2 X-107.25 Y107.0 I1.375 J-2.3816
G2 X-107.2501 Y106.9813 I-2.75 J0.0
G1 F300.0 Z-2.4
G2 F800.0 X-111.375 Y104.6184 I-2.7499 J0.0187
G2 Y109.3816 I1.375 J2.3816
G2 X-107.25 Y107.0 I1.375 J-2.3816
G2 X-107.2501 Y106.9813 I-2.75 J0.0
G1 F300.0 Z-2.8
G2 F800.0 X-111.375 Y104.6184 I-2.7499 J0.0187
G2 Y109.3816 I1.375 J2.3816
G2 X-107.25 Y107.0 I1.375 J-2.3816
G2 X-107.2501 Y106.9813 I-2.75 J0.0
G1 F300.0 Z-3.2
G2 F800.0 X-111.375 Y104.6184 I-2.7499 J0.0187
G2 Y109.3816 I1.375 J2.3816
G2 X-107.25 Y107.0 I1.375 J-2.3816
G2 X-107.2501 Y106.9813 I-2.75 J0.0
G1 F300.0 Z-3.6
G2 F800.0 X-111.375 Y104.6184 I-2.7499 J0.0187
G2 Y109.3816 I1.375 J2.3816
G2 X-107.25 Y107.0 I1.375 J-2.3816
G2 X-107.2501 Y106.9813 I-2.75 J0.0
G1 F300.0 Z-4.0
G2 F800.0 X-111.375 Y104.6184 I-2.7499 J0.0187
G2 Y109.3816 I1.375 J2.3816
G2 X-107.25 Y107.0 I1.375 J-2.3816
G2 X-107.2501 Y106.9813 I-2.75 J0.0
G0 Z3.0
G0 X-140.9911 Y81.9881
G0 Z0.2
G1 F300.0 Z-0.4
G2 F800.0 X-140.5 Y80.5 I-2.0089 J-1.4881
G2 X-144.25 Y78.3349 I-2.5 J0.0
G2 Y82.6651 I1.25 J2.1651
G2 X-140.9911 Y81.9881 I1.25 J-2.1651
G1 F300.0 Z-0.8
G2 F800.0 X-140.5 Y80.5 I-2.0089 J-1.4881
G2 X-144.25 Y78.3349 I-2.5 J0.0
G2 Y82.6651 I1.25 J2.1651
G2 X-140.9911 Y81.9881 I1.25 J-2.1651
G1 F300.0 Z-1.2
G2 F800.0 X-140.5 Y80.5 I-2.0089 J-1.4881
G2 X-144.25 Y78.3349 I-2.5 J0.0
G2 Y82.6651 I1.25 J2.1651
G2 X-140.9911 Y81.9881 I1.25 J-2.1651
G1 F300.0 Z-1.6
G2 F800.0 X-140.5 Y80.5 I-2.0089 J-1.4881
G2 X-144.25 Y78.3349 I-2.5 J0.0
G2 Y82.6651 I1.25 J2.1651
G2 X-140.9911 Y81.9881 I1.25 J-2.1651
G1 F300.0 Z-2.0
G2 F800.0 X-140.5 Y80.5 I-2.0089 J-1.4881
G2 X-144.25 Y78.3349 I-2.5 J0.0
G2 Y82.6651 I1.25 J2.1651
G2 X-140.9911 Y81.9881 I1.25 J-2.1651
G1 F300.0 Z-2.4
G2 F800.0 X-140.5 Y80.5 I-2.0089 J-1.4881
G2 X-144.25 Y78.3349 I-2.5 J0.0
G2 Y82.6651 I1.25 J2.1651
G2 X-140.9911 Y81.9881 I1.25 J-2.1651
G1 F300.0 Z-2.8
G2 F800.0 X-140.5 Y80.5 I-2.0089 J-1.4881
G2 X-144.25 Y78.3349 I-2.5 J0.0
G2 Y82.6651 I1.25 J2.1651
G2 X-140.9911 Y81.9881 I1.25 J-2.1651
G1 F300.0 Z-3.2
G2 F800.0 X-140.5 Y80.5 I-2.0089 J-1.4881
G2 X-144.25 Y78.3349 I-2.5 J0.0
G2 Y82.6651 I1.25 J2.1651
G2 X-140.9911 Y81.9881 I1.25 J-2.1651
G1 F300.0 Z-3.6
G2 F800.0 X-140.5 Y80.5 I-2.0089 J-1.4881
G2 X-144.25 Y78.3349 I-2.5 J0.0
G2 Y82.6651 I1.25 J2.1651
G2 X-140.9911 Y81.9881 I1.25 J-2.1651
G1 F300.0 Z-4.0
G2 F800.0 X-140.5 Y80.5 I-2.0089 J-1.4881
G2 X-144.25 Y78.3349 I-2.5 J0.0
G2 Y82.6651 I1.25 J2.1651
G2 X-140.9911 Y81.9881 I1.25 J-2.1651
G0 Z3.0
G0 X-153.3491 Y107.6486
G0 Z0.2
G1 F300.0 Z-0.4
G2 F800.0 X-154.75 Y107.701 I-0.6509 J1.3514
G2 Y110.299 I0.75 J1.299
G2 X-152.5 Y109.0 I0.75 J-1.299
G2 X-153.3491 Y107.6486 I-1.5 J0.0
G1 F300.0 Z-0.8
G2 F800.0 X-154.75 Y107.701 I-0.6509 J1.3514
G2 Y110.299 I0.75 J1.299
G2 X-152.5 Y109.0 I0.75 J-1.299
G2 X-153.3491 Y107.6486 I-1.5 J0.0
G1 F300.0 Z-1.2
G2 F800.0 X-154.75 Y107.701 I-0.6509 J1.3514
G2 Y110.299 I0.75 J1.299
G2 X-152.5 Y109.0 I0.75 J-1.299
G2 X-153.3491 Y107.6486 I-1.5 J0.0
G1 F300.0 Z-1.6
G2 F800.0 X-154.75 Y107.701 I-0.6509 J1.3514
G2 Y110.299 I0.75 J1.299
G2 X-152.5 Y109.0 I0.75 J-1.299
G2 X-153.3491 Y107.6486 I-1.5 J0.0
G1 F300.0 Z-2.0
G2 F800.0 X-154.75 Y107.701 I-0.6509 J1.3514
G2 Y110.299 I0.75 J1.299
G2 X-152.5 Y109.0 I0.75 J-1.299
G2 X-153.3491 Y107.6486 I-1.5 J0.0
G1 F300.0 Z-2.4
G2 F800.0 X-154.75 Y107.701 I-0.6509 J1.3514
G2 Y110.299 I0.75 J1.299
G2 X-152.5 Y109.0 I0.75 J-1.299
G2 X-153.3491 Y107.6486 I-1.5 J0.0
G1 F300.0 Z-2.8
G2 F800.0 X-154.75 Y107.701 I-0.6509 J1.3514
G2 Y110.299 I0.75 J1.299
G2 X-152.5 Y109.0 I0.75 J-1.299
G2 X-153.3491 Y107.6486 I-1.5 J0.0
G1 F300.0 Z-3.2
G2 F800.0 X-154.75 Y107.701 I-0.6509 J1.3514
G2 Y110.299 I0.75 J1.299
G2 X-152.5 Y109.0 I0.75 J-1.299
G2 X-153.3491 Y107.6486 I-1.5 J0.0
G1 F300.0 Z-3.6
G2 F800.0 X-154.75 Y107.701 I-0.6509 J1.3514
G2 Y110.299 I0.75 J1.299
G2 X-152.5 Y109.0 I0.75 J-1.299
G2 X-153.3491 Y107.6486 I-1.5 J0.0
G1 F300.0 Z-4.0
G2 F800.0 X-154.75 Y107.701 I-0.6509 J1.3514
G2 Y110.299 I0.75 J1.299
G2 X-152.5 Y109.0 I0.75 J-1.299
G2 X-153.3491 Y107.6486 I-1.5 J0.0
G0 Z3.0
G0 X-120.9872 Y57.3132
G0 Z0.2
G1 F300.0 Z-0.4
G2 F800.0 X-120.875 Y57.3816 I1.4872 J-2.3132
G2 X-116.75 Y55.0 I1.375 J-2.3816
G2 X-120.875 Y52.6184 I-2.75 J0.0
G2 X-120.9872 Y57.3132 I1.375 J2.3816
G1 F300.0 Z-0.8
G2 F800.0 X-120.875 Y57.3816 I1.4872 J-2.3132
G2 X-116.75 Y55.0 I1.375 J-2.3816
G2 X-120.875 Y52.6184 I-2.75 J0.0
G2 X-120.9872 Y57.3132 I1.375 J2.3816
G1 F300.0 Z-1.2
G2 F800.0 X-120.875 Y57.3816 I1.4872 J-2.3132
G2 X-116.75 Y55.0 I1.375 J-2.3816
G2 X-120.875 Y52.6184 I-2.75 J0.0
G2 X-120.9872 Y57.3132 I1.375 J2.3816
G1 F300.0 Z-1.6
G2 F800.0 X-120.875 Y57.3816 I1.4872 J-2.3132
G2 X-116.75 Y55.0 I1.375 J-2.3816
G2 X-120.875 Y52.6184 I-2.75 J0.0
G2 X-120.9872 Y57.3132 I1.375 J2.3816
G1 F300.0 Z-2.0
G2 F800.0 X-120.875 Y57.3816 I1.4872 J-2.3132
G2 X-116.75 Y55.0 I1.375 J-2.3816
G2 X-120.875 Y52.6184 I-2.75 J0.0
G2 X-120.9872 Y57.3132 I1.375 J2.3816
G1 F300.0 Z-2.4
G2 F800.0 X-120.875 Y57.3816 I1.4872 J-2.3132
G2 X-116.75 Y55.0 I1.375 J-2.3816
G2 X-120.875 Y52.6184 I-2.75 J0.0
G2 X-120.9872 Y57.3132 I1.375 J2.3816
G1 F300.0 Z-2.8
G2 F800.0 X-120.875 Y57.3816 I1.4872 J-2.3132
G2 X-116.75 Y55.0 I1.375 J-2.3816
G2 X-120.875 Y52.6184 I-2.75 J0.0
G2 X-120.9872 Y57.3132 I1.375 J2.3816
G1 F300.0 Z-3.2
G2 F800.0 X-120.875 Y57.3816 I1.4872 J-2.3132
G2 X-116.75 Y55.0 I1.375 J-2.3816
G2 X-120.875 Y52.6184 I-2.75 J0.0
G2 X-120.9872 Y57.3132 I1.375 J2.3816
G1 F300.0 Z-3.6
G2 F800.0 X-120.875 Y57.3816 I1.4872 J-2.3132
G2 X-116.75 Y55.0 I1.375 J-2.3816
G2 X-120.875 Y52.6184 I-2.75 J0.0
G2 X-120.9872 Y57.3132 I1.375 J2.3816
G1 F300.0 Z-4.0
G2 F800.0 X-120.875 Y57.3816 I1.4872 J-2.3132
G2 X-116.75 Y55.0 I1.375 J-2.3816
G2 X-120.875 Y52.6184 I-2.75 J0.0
G2 X-120.9872 Y57.3132 I1.375 J2.3816
G0 Z3.0
G0 X-134.4409 Y37.7653
G0 Z0.2
G1 F300.0 Z-0.4
G2 F800.0 X-133.25 Y35.5 I-1.5591 J-2.2653
G2 X-137.375 Y33.1184 I-2.75 J0.0
G2 Y37.8816 I1.375 J2.3816
G2 X-134.4409 Y37.7653 I1.375 J-2.3816
G1 F300.0 Z-0.8
G2 F800.0 X-133.25 Y35.5 I-1.5591 J-2.2653
G2 X-137.375 Y33.1184 I-2.75 J0.0
G2 Y37.8816 I1.375 J2.3816
G2 X-134.4409 Y37.7653 I1.375 J-2.3816
G1 F300.0 Z-1.2
G2 F800.0 X-133.25 Y35.5 I-1.5591 J-2.2653
G2 X-137.375 Y33.1184 I-2.75 J0.0
G2 Y37.8816 I1.375 J2.3816
G2 X-134.4409 Y37.7653 I1.375 J-2.3816
G1 F300.0 Z-1.6
G2 F800.0 X-133.25 Y35.5 I-1.5591 J-2.2653
G2 X-137.375 Y33.1184 I-2.75 J0.0
G2 Y37.8816 I1.375 J2.3816
G2 X-134.4409 Y37.7653 I1.375 J-2.3816
G1 F300.0 Z-2.0
G2 F800.0 X-133.25 Y35.5 I-1.5591 J-2.2653
G2 X-137.375 Y33.1184 I-2.75 J0.0
G2 Y37.8816 I1.375 J2.3816
G2 X-134.4409 Y37.7653 I1.375 J-2.3816
G1 F300.0 Z-2.4
G2 F800.0 X-133.25 Y35.5 I-1.5591 J-2.2653
G2 X-137.375 Y33.1184 I-2.75 J0.0
G2 Y37.8816 I1.375 J2.3816
G2 X-134.4409 Y37.7653 I1.375 J-2.3816
G1 F300.0 Z-2.8
G2 F800.0 X-133.25 Y35.5 I-1.5591 J-2.2653
G2 X-137.375 Y33.1184 I-2.75 J0.0
G2 Y37.8816 I1.375 J2.3816
G2 X-134.4409 Y37.7653 I1.375 J-2.3816
G1 F300.0 Z-3.2
G2 F800.0 X-133.25 Y35.5 I-1.5591 J-2.2653
G2 X-137.375 Y33.1184 I-2.75 J0.0
G2 Y37.8816 I1.375 J2.3816
G2 X-134.4409 Y37.7653 I1.375 J-2.3816
G1 F300.0 Z-3.6
G2 F800.0 X-133.25 Y35.5 I-1.5591 J-2.2653
G2 X-137.375 Y33.1184 I-2.75 J0.0
G2 Y37.8816 I1.375 J2.3816
G2 X-134.4409 Y37.7653 I1.375 J-2.3816
G1 F300.0 Z-4.0
G2 F800.0 X-133.25 Y35.5 I-1.5591 J-2.2653
G2 X-137.375 Y33.1184 I-2.75 J0.0
G2 Y37.8816 I1.375 J2.3816
G2 X-134.4409 Y37.7653 I1.375 J-2.3816
G0 Z3.0
G0 X-121.1583 Y20.1938
G0 Z0.2
G1 F300.0 Z-0.4
G2 F800.0 X-120.875 Y20.3816 I1.6583 J-2.1938
G2 X-116.75 Y18.0 I1.375 J-2.3816
G2 X-120.875 Y15.6184 I-2.75 J0.0
G2 X-121.1583 Y20.1938 I1.375 J2.3816
G1 F300.0 Z-0.8
G2 F800.0 X-120.875 Y20.3816 I1.6583 J-2.1938
G2 X-116.75 Y18.0 I1.375 J-2.3816
G2 X-120.875 Y15.6184 I-2.75 J0.0
G2 X-121.1583 Y20.1938 I1.375 J2.3816
G1 F300.0 Z-1.2
G2 F800.0 X-120.875 Y20.3816 I1.6583 J-2.1938
G2 X-116.75 Y18.0 I1.375 J-2.3816
G2 X-120.875 Y15.6184 I-2.75 J0.0
G2 X-121.1583 Y20.1938 I1.375 J2.3816
G1 F300.0 Z-1.6
G2 F800.0 X-120.875 Y20.3816 I1.6583 J-2.1938
G2 X-116.75 Y18.0 I1.375 J-2.3816
G2 X-120.875 Y15.6184 I-2.75 J0.0
G2 X-121.1583 Y20.1938 I1.375 J2.3816
G1 F300.0 Z-2.0
G2 F800.0 X-120.875 Y20.3816 I1.6583 J-2.1938
G2 X-116.75 Y18.0 I1.375 J-2.3816
G2 X-120.875 Y15.6184 I-2.75 J0.0
G2 X-121.1583 Y20.1938 I1.375 J2.3816
G1 F300.0 Z-2.4
G2 F800.0 X-120.875 Y20.3816 I1.6583 J-2.1938
G2 X-116.75 Y18.0 I1.375 J-2.3816
G2 X-120.875 Y15.6184 I-2.75 J0.0
G2 X-121.1583 Y20.1938 I1.375 J2.3816
G1 F300.0 Z-2.8
G2 F800.0 X-120.875 Y20.3816 I1.6583 J-2.1938
G2 X-116.75 Y18.0 I1.375 J-2.3816
G2 X-120.875 Y15.6184 I-2.75 J0.0
G2 X-121.1583 Y20.1938 I1.375 J2.3816
G1 F300.0 Z-3.2
G2 F800.0 X-120.875 Y20.3816 I1.6583 J-2.1938
G2 X-116.75 Y18.0 I1.375 J-2.3816
G2 X-120.875 Y15.6184 I-2.75 J0.0
G2 X-121.1583 Y20.1938 I1.375 J2.3816
G1 F300.0 Z-3.6
G2 F800.0 X-120.875 Y20.3816 I1.6583 J-2.1938
G2 X-116.75 Y18.0 I1.375 J-2.3816
G2 X-120.875 Y15.6184 I-2.75 J0.0
G2 X-121.1583 Y20.1938 I1.375 J2.3816
G1 F300.0 Z-4.0
G2 F800.0 X-120.875 Y20.3816 I1.6583 J-2.1938
G2 X-116.75 Y18.0 I1.375 J-2.3816
G2 X-120.875 Y15.6184 I-2.75 J0.0
G2 X-121.1583 Y20.1938 I1.375 J2.3816
G0 Z3.0
G0 X-105.1026 Y33.7276
G0 Z0.2
G1 F300.0 Z-0.4
G2 F800.0 X-104.375 Y37.8816 I2.1026 J1.7724
G2 X-100.25 Y35.5 I1.375 J-2.3816
G2 X-104.375 Y33.1184 I-2.75 J0.0
G2 X-105.1026 Y33.7276 I1.375 J2.3816
G1 F300.0 Z-0.8
G2 F800.0 X-104.375 Y37.8816 I2.1026 J1.7724
G2 X-100.25 Y35.5 I1.375 J-2.3816
G2 X-104.375 Y33.1184 I-2.75 J0.0
G2 X-105.1026 Y33.7276 I1.375 J2.3816
G1 F300.0 Z-1.2
G2 F800.0 X-104.375 Y37.8816 I2.1026 J1.7724
G2 X-100.25 Y35.5 I1.375 J-2.3816
G2 X-104.375 Y33.1184 I-2.75 J0.0
G2 X-105.1026 Y33.7276 I1.375 J2.3816
G1 F300.0 Z-1.6
G2 F800.0 X-104.375 Y37.8816 I2.1026 J1.7724
G2 X-100.25 Y35.5 I1.375 J-2.3816
G2 X-104.375 Y33.1184 I-2.75 J0.0
G2 X-105.1026 Y33.7276 I1.375 J2.3816
G1 F300.0 Z-2.0
G2 F800.0 X-104.375 Y37.8816 I2.1026 J1.7724
G2 X-100.25 Y35.5 I1.375 J-2.3816
G2 X-104.375 Y33.1184 I-2.75 J0.0
G2 X-105.1026 Y33.7276 I1.375 J2.3816
G1 F300.0 Z-2.4
G2 F800.0 X-104.375 Y37.8816 I2.1026 J1.7724
G2 X-100.25 Y35.5 I1.375 J-2.3816
G2 X-104.375 Y33.1184 I-2.75 J0.0
G2 X-105.1026 Y33.7276 I1.375 J2.3816
G1 F300.0 Z-2.8
G2 F800.0 X-104.375 Y37.8816 I2.1026 J1.7724
G2 X-100.25 Y35.5 I1.375 J-2.3816
G2 X-104.375 Y33.1184 I-2.75 J0.0
G2 X-105.1026 Y33.7276 I1.375 J2.3816
G1 F300.0 Z-3.2
G2 F800.0 X-104.375 Y37.8816 I2.1026 J1.7724
G2 X-100.25 Y35.5 I1.375 J-2.3816
G2 X-104.375 Y33.1184 I-2.75 J0.0
G2 X-105.1026 Y33.7276 I1.375 J2.3816
G1 F300.0 Z-3.6
G2 F800.0 X-104.375 Y37.8816 I2.1026 J1.7724
G2 X-100.25 Y35.5 I1.375 J-2.3816
G2 X-104.375 Y33.1184 I-2.75 J0.0
G2 X-105.1026 Y33.7276 I1.375 J2.3816
G1 F300.0 Z-4.0
G2 F800.0 X-104.375 Y37.8816 I2.1026 J1.7724
G2 X-100.25 Y35.5 I1.375 J-2.3816
G2 X-104.375 Y33.1184 I-2.75 J0.0
G2 X-105.1026 Y33.7276 I1.375 J2.3816
G0 Z3.0
G0 X-85.2406 Y19.5944
G0 Z0.2
G1 F300.0 Z-0.4
G2 F800.0 X-84.375 Y20.3816 I2.2406 J-1.5944
G2 X-80.25 Y18.0 I1.375 J-2.3816
G2 X-84.375 Y15.6184 I-2.75 J0.0
G2 X-85.2406 Y19.5944 I1.375 J2.3816
G1 F300.0 Z-0.8
G2 F800.0 X-84.375 Y20.3816 I2.2406 J-1.5944
G2 X-80.25 Y18.0 I1.375 J-2.3816
G2 X-84.375 Y15.6184 I-2.75 J0.0
G2 X-85.2406 Y19.5944 I1.375 J2.3816
G1 F300.0 Z-1.2
G2 F800.0 X-84.375 Y20.3816 I2.2406 J-1.5944
G2 X-80.25 Y18.0 I1.375 J-2.3816
G2 X-84.375 Y15.6184 I-2.75 J0.0
G2 X-85.2406 Y19.5944 I1.375 J2.3816
G1 F300.0 Z-1.6
G2 F800.0 X-84.375 Y20.3816 I2.2406 J-1.5944
G2 X-80.25 Y18.0 I1.375 J-2.3816
G2 X-84.375 Y15.6184 I-2.75 J0.0
G2 X-85.2406 Y19.5944 I1.375 J2.3816
G1 F300.0 Z-2.0
G2 F800.0 X-84.375 Y20.3816 I2.2406 J-1.5944
G2 X-80.25 Y18.0 I1.375 J-2.3816
G2 X-84.375 Y15.6184 I-2.75 J0.0
G2 X-85.2406 Y19.5944 I1.375 J2.3816
G1 F300.0 Z-2.4
G2 F800.0 X-84.375 Y20.3816 I2.2406 J-1.5944
G2 X-80.25 Y18.0 I1.375 J-2.3816
G2 X-84.375 Y15.6184 I-2.75 J0.0
G2 X-85.2406 Y19.5944 I1.375 J2.3816
G1 F300.0 Z-2.8
G2 F800.0 X-84.375 Y20.3816 I2.2406 J-1.5944
G2 X-80.25 Y18.0 I1.375 J-2.3816
G2 X-84.375 Y15.6184 I-2.75 J0.0
G2 X-85.2406 Y19.5944 I1.375 J2.3816
G1 F300.0 Z-3.2
G2 F800.0 X-84.375 Y20.3816 I2.2406 J-1.5944
G2 X-80.25 Y18.0 I1.375 J-2.3816
G2 X-84.375 Y15.6184 I-2.75 J0.0
G2 X-85.2406 Y19.5944 I1.375 J2.3816
G1 F300.0 Z-3.6
G2 F800.0 X-84.375 Y20.3816 I2.2406 J-1.5944
G2 X-80.25 Y18.0 I1.375 J-2.3816
G2 X-84.375 Y15.6184 I-2.75 J0.0
G2 X-85.2406 Y19.5944 I1.375 J2.3816
G1 F300.0 Z-4.0
G2 F800.0 X-84.375 Y20.3816 I2.2406 J-1.5944
G2 X-80.25 Y18.0 I1.375 J-2.3816
G2 X-84.375 Y15.6184 I-2.75 J0.0
G2 X-85.2406 Y19.5944 I1.375 J2.3816
G0 Z3.0
G0 X-83.1737 Y52.2555
G0 Z0.2
G1 F300.0 Z-0.4
G2 F800.0 X-84.375 Y52.6184 I0.1737 J2.7445
G2 Y57.3816 I1.375 J2.3816
G2 X-80.25 Y55.0 I1.375 J-2.3816
G2 X-83.1737 Y52.2555 I-2.75 J0.0
G1 F300.0 Z-0.8
G2 F800.0 X-84.375 Y52.6184 I0.1737 J2.7445
G2 Y57.3816 I1.375 J2.3816
G2 X-80.25 Y55.0 I1.375 J-2.3816
G2 X-83.1737 Y52.2555 I-2.75 J0.0
G1 F300.0 Z-1.2
G2 F800.0 X-84.375 Y52.6184 I0.1737 J2.7445
G2 Y57.3816 I1.375 J2.3816
G2 X-80.25 Y55.0 I1.375 J-2.3816
G2 X-83.1737 Y52.2555 I-2.75 J0.0
G1 F300.0 Z-1.6
G2 F800.0 X-84.375 Y52.6184 I0.1737 J2.7445
G2 Y57.3816 I1.375 J2.3816
G2 X-80.25 Y55.0 I1.375 J-2.3816
G2 X-83.1737 Y52.2555 I-2.75 J0.0
G1 F300.0 Z-2.0
G2 F800.0 X-84.375 Y52.6184 I0.1737 J2.7445
G2 Y57.3816 I1.375 J2.3816
G2 X-80.25 Y55.0 I1.375 J-2.3816
G2 X-83.1737 Y52.2555 I-2.75 J0.0
G1 F300.0 Z-2.4
G2 F800.0 X-84.375 Y52.6184 I0.1737 J2.7445
G2 Y57.3816 I1.375 J2.3816
G2 X-80.25 Y55.0 I1.375 J-2.3816
G2 X-83.1737 Y52.2555 I-2.75 J0.0
G1 F300.0 Z-2.8
G2 F800.0 X-84.375 Y52.6184 I0.1737 J2.7445
G2 Y57.3816 I1.375 J2.3816
G2 X-80.25 Y55.0 I1.375 J-2.3816
G2 X-83.1737 Y52.2555 I-2.75 J0.0
G1 F300.0 Z-3.2
G2 F800.0 X-84.375 Y52.6184 I0.1737 J2.7445
G2 Y57.3816 I1.375 J2.3816
G2 X-80.25 Y55.0 I1.375 J-2.3816
G2 X-83.1737 Y52.2555 I-2.75 J0.0
G1 F300.0 Z-3.6
G2 F800.0 X-84.375 Y52.6184 I0.1737 J2.7445
G2 Y57.3816 I1.375 J2.3816
G2 X-80.25 Y55.0 I1.375 J-2.3816
G2 X-83.1737 Y52.2555 I-2.75 J0.0
G1 F300.0 Z-4.0
G2 F800.0 X-84.375 Y52.6184 I0.1737 J2.7445
G2 Y57.3816 I1.375 J2.3816
G2 X-80.25 Y55.0 I1.375 J-2.3816
G2 X-83.1737 Y52.2555 I-2.75 J0.0
G0 Z3.0
G0 X-42.7478 Y53.889
G0 Z0.2
G1 F300.0 Z-0.4
G2 F800.0 X-41.375 Y56.3816 I2.7478 J0.111
G2 X-37.25 Y54.0 I1.375 J-2.3816
G2 X-41.375 Y51.6184 I-2.75 J0.0
G2 X-42.7478 Y53.889 I1.375 J2.3816
G1 F300.0 Z-0.8
G2 F800.0 X-41.375 Y56.3816 I2.7478 J0.111
G2 X-37.25 Y54.0 I1.375 J-2.3816
G2 X-41.375 Y51.6184 I-2.75 J0.0
G2 X-42.7478 Y53.889 I1.375 J2.3816
G1 F300.0 Z-1.2
G2 F800.0 X-41.375 Y56.3816 I2.7478 J0.111
G2 X-37.25 Y54.0 I1.375 J-2.3816
G2 X-41.375 Y51.6184 I-2.75 J0.0
G2 X-42.7478 Y53.889 I1.375 J2.3816
G1 F300.0 Z-1.6
G2 F800.0 X-41.375 Y56.3816 I2.7478 J0.111
G2 X-37.25 Y54.0 I1.375 J-2.3816
G2 X-41.375 Y51.6184 I-2.75 J0.0
G2 X-42.7478 Y53.889 I1.375 J2.3816
G1 F300.0 Z-2.0
G2 F800.0 X-41.375 Y56.3816 I2.7478 J0.111
G2 X-37.25 Y54.0 I1.375 J-2.3816
G2 X-41.375 Y51.6184 I-2.75 J0.0
G2 X-42.7478 Y53.889 I1.375 J2.3816
G1 F300.0 Z-2.4
G2 F800.0 X-41.375 Y56.3816 I2.7478 J0.111
G2 X-37.25 Y54.0 I1.375 J-2.3816
G2 X-41.375 Y51.6184 I-2.75 J0.0
G2 X-42.7478 Y53.889 I1.375 J2.3816
G1 F300.0 Z-2.8
G2 F800.0 X-41.375 Y56.3816 I2.7478 J0.111
G2 X-37.25 Y54.0 I1.375 J-2.3816
G2 X-41.375 Y51.6184 I-2.75 J0.0
G2 X-42.7478 Y53.889 I1.375 J2.3816
G1 F300.0 Z-3.2
G2 F800.0 X-41.375 Y56.3816 I2.7478 J0.111
G2 X-37.25 Y54.0 I1.375 J-2.3816
G2 X-41.375 Y51.6184 I-2.75 J0.0
G2 X-42.7478 Y53.889 I1.375 J2.3816
G1 F300.0 Z-3.6
G2 F800.0 X-41.375 Y56.3816 I2.7478 J0.111
G2 X-37.25 Y54.0 I1.375 J-2.3816
G2 X-41.375 Y51.6184 I-2.75 J0.0
G2 X-42.7478 Y53.889 I1.375 J2.3816
G1 F300.0 Z-4.0
G2 F800.0 X-41.375 Y56.3816 I2.7478 J0.111
G2 X-37.25 Y54.0 I1.375 J-2.3816
G2 X-41.375 Y51.6184 I-2.75 J0.0
G2 X-42.7478 Y53.889 I1.375 J2.3816
G0 Z3.0
G0 X-40.3764 Y36.7241
G0 Z0.2
G1 F300.0 Z-0.4
G2 F800.0 X-37.25 Y34.0 I0.3764 J-2.7241
G2 X-41.375 Y31.6184 I-2.75 J0.0
G2 Y36.3816 I1.375 J2.3816
G2 X-40.3764 Y36.7241 I1.375 J-2.3816
G1 F300.0 Z-0.8
G2 F800.0 X-37.25 Y34.0 I0.3764 J-2.7241
G2 X-41.375 Y31.6184 I-2.75 J0.0
G2 Y36.3816 I1.375 J2.3816
G2 X-40.3764 Y36.7241 I1.375 J-2.3816
G1 F300.0 Z-1.2
G2 F800.0 X-37.25 Y34.0 I0.3764 J-2.7241
G2 X-41.375 Y31.6184 I-2.75 J0.0
G2 Y36.3816 I1.375 J2.3816
G2 X-40.3764 Y36.7241 I1.375 J-2.3816
G1 F300.0 Z-1.6
G2 F800.0 X-37.25 Y34.0 I0.3764 J-2.7241
G2 X-41.375 Y31.6184 I-2.75 J0.0
G2 Y36.3816 I1.375 J2.3816
G2 X-40.3764 Y36.7241 I1.375 J-2.3816
G1 F300.0 Z-2.0
G2 F800.0 X-37.25 Y34.0 I0.3764 J-2.7241
G2 X-41.375 Y31.6184 I-2.75 J0.0
G2 Y36.3816 I1.375 J2.3816
G2 X-40.3764 Y36.7241 I1.375 J-2.3816
G1 F300.0 Z-2.4
G2 F800.0 X-37.25 Y34.0 I0.3764 J-2.7241
G2 X-41.375 Y31.6184 I-2.75 J0.0
G2 Y36.3816 I1.375 J2.3816
G2 X-40.3764 Y36.7241 I1.375 J-2.3816
G1 F300.0 Z-2.8
G2 F800.0 X-37.25 Y34.0 I0.3764 J-2.7241
G2 X-41.375 Y31.6184 I-2.75 J0.0
G2 Y36.3816 I1.375 J2.3816
G2 X-40.3764 Y36.7241 I1.375 J-2.3816
G1 F300.0 Z-3.2
G2 F800.0 X-37.25 Y34.0 I0.3764 J-2.7241
G2 X-41.375 Y31.6184 I-2.75 J0.0
G2 Y36.3816 I1.375 J2.3816
G2 X-40.3764 Y36.7241 I1.375 J-2.3816
G1 F300.0 Z-3.6
G2 F800.0 X-37.25 Y34.0 I0.3764 J-2.7241
G2 X-41.375 Y31.6184 I-2.75 J0.0
G2 Y36.3816 I1.375 J2.3816
G2 X-40.3764 Y36.7241 I1.375 J-2.3816
G1 F300.0 Z-4.0
G2 F800.0 X-37.25 Y34.0 I0.3764 J-2.7241
G2 X-41.375 Y31.6184 I-2.75 J0.0
G2 Y36.3816 I1.375 J2.3816
G2 X-40.3764 Y36.7241 I1.375 J-2.3816
G0 Z3.0
G0 X-22.7257 Y34.3644
G0 Z0.2
G1 F300.0 Z-0.4
G2 F800.0 X-21.375 Y36.3816 I2.7257 J-0.3644
G2 X-17.25 Y34.0 I1.375 J-2.3816
G2 X-21.375 Y31.6184 I-2.75 J0.0
G2 X-22.7257 Y34.3644 I1.375 J2.3816
G1 F300.0 Z-0.8
G2 F800.0 X-21.375 Y36.3816 I2.7257 J-0.3644
G2 X-17.25 Y34.0 I1.375 J-2.3816
G2 X-21.375 Y31.6184 I-2.75 J0.0
G2 X-22.7257 Y34.3644 I1.375 J2.3816
G1 F300.0 Z-1.2
G2 F800.0 X-21.375 Y36.3816 I2.7257 J-0.3644
G2 X-17.25 Y34.0 I1.375 J-2.3816
G2 X-21.375 Y31.6184 I-2.75 J0.0
G2 X-22.7257 Y34.3644 I1.375 J2.3816
G1 F300.0 Z-1.6
G2 F800.0 X-21.375 Y36.3816 I2.7257 J-0.3644
G2 X-17.25 Y34.0 I1.375 J-2.3816
G2 X-21.375 Y31.6184 I-2.75 J0.0
G2 X-22.7257 Y34.3644 I1.375 J2.3816
G1 F300.0 Z-2.0
G2 F800.0 X-21.375 Y36.3816 I2.7257 J-0.3644
G2 X-17.25 Y34.0 I1.375 J-2.3816
G2 X-21.375 Y31.6184 I-2.75 J0.0
G2 X-22.7257 Y34.3644 I1.375 J2.3816
G1 F300.0 Z-2.4
G2 F800.0 X-21.375 Y36.3816 I2.7257 J-0.3644
G2 X-17.25 Y34.0 I1.375 J-2.3816
G2 X-21.375 Y31.6184 I-2.75 J0.0
G2 X-22.7257 Y34.3644 I1.375 J2.3816
G1 F300.0 Z-2.8
G2 F800.0 X-21.375 Y36.3816 I2.7257 J-0.3644
G2 X-17.25 Y34.0 I1.375 J-2.3816
G2 X-21.375 Y31.6184 I-2.75 J0.0
G2 X-22.7257 Y34.3644 I1.375 J2.3816
G1 F300.0 Z-3.2
G2 F800.0 X-21.375 Y36.3816 I2.7257 J-0.3644
G2 X-17.25 Y34.0 I1.375 J-2.3816
G2 X-21.375 Y31.6184 I-2.75 J0.0
G2 X-22.7257 Y34.3644 I1.375 J2.3816
G1 F300.0 Z-3.6
G2 F800.0 X-21.375 Y36.3816 I2.7257 J-0.3644
G2 X-17.25 Y34.0 I1.375 J-2.3816
G2 X-21.375 Y31.6184 I-2.75 J0.0
G2 X-22.7257 Y34.3644 I1.375 J2.3816
G1 F300.0 Z-4.0
G2 F800.0 X-21.375 Y36.3816 I2.7257 J-0.3644
G2 X-17.25 Y34.0 I1.375 J-2.3816
G2 X-21.375 Y31.6184 I-2.75 J0.0
G2 X-22.7257 Y34.3644 I1.375 J2.3816
G0 Z3.0
G0 X-20.3781 Y51.2761
G0 Z0.2
G1 F300.0 Z-0.4
G2 F800.0 X-21.375 Y51.6184 I0.3781 J2.7239
G2 Y56.3816 I1.375 J2.3816
G2 X-17.25 Y54.0 I1.375 J-2.3816
G2 X-20.3781 Y51.2761 I-2.75 J0.0
G1 F300.0 Z-0.8
G2 F800.0 X-21.375 Y51.6184 I0.3781 J2.7239
G2 Y56.3816 I1.375 J2.3816
G2 X-17.25 Y54.0 I1.375 J-2.3816
G2 X-20.3781 Y51.2761 I-2.75 J0.0
G1 F300.0 Z-1.2
G2 F800.0 X-21.375 Y51.6184 I0.3781 J2.7239
G2 Y56.3816 I1.375 J2.3816
G2 X-17.25 Y54.0 I1.375 J-2.3816
G2 X-20.3781 Y51.2761 I-2.75 J0.0
G1 F300.0 Z-1.6
G2 F800.0 X-21.375 Y51.6184 I0.3781 J2.7239
G2 Y56.3816 I1.375 J2.3816
G2 X-17.25 Y54.0 I1.375 J-2.3816
G2 X-20.3781 Y51.2761 I-2.75 J0.0
G1 F300.0 Z-2.0
G2 F800.0 X-21.375 Y51.6184 I0.3781 J2.7239
G2 Y56.3816 I1.375 J2.3816
G2 X-17.25 Y54.0 I1.375 J-2.3816
G2 X-20.3781 Y51.2761 I-2.75 J0.0
G1 F300.0 Z-2.4
G2 F800.0 X-21.375 Y51.6184 I0.3781 J2.7239
G2 Y56.3816 I1.375 J2.3816
G2 X-17.25 Y54.0 I1.375 J-2.3816
G2 X-20.3781 Y51.2761 I-2.75 J0.0
G1 F300.0 Z-2.8
G2 F800.0 X-21.375 Y51.6184 I0.3781 J2.7239
G2 Y56.3816 I1.375 J2.3816
G2 X-17.25 Y54.0 I1.375 J-2.3816
G2 X-20.3781 Y51.2761 I-2.75 J0.0
G1 F300.0 Z-3.2
G2 F800.0 X-21.375 Y51.6184 I0.3781 J2.7239
G2 Y56.3816 I1.375 J2.3816
G2 X-17.25 Y54.0 I1.375 J-2.3816
G2 X-20.3781 Y51.2761 I-2.75 J0.0
G1 F300.0 Z-3.6
G2 F800.0 X-21.375 Y51.6184 I0.3781 J2.7239
G2 Y56.3816 I1.375 J2.3816
G2 X-17.25 Y54.0 I1.375 J-2.3816
G2 X-20.3781 Y51.2761 I-2.75 J0.0
G1 F300.0 Z-4.0
G2 F800.0 X-21.375 Y51.6184 I0.3781 J2.7239
G2 Y56.3816 I1.375 J2.3816
G2 X-17.25 Y54.0 I1.375 J-2.3816
G2 X-20.3781 Y51.2761 I-2.75 J0.0
G0 Z3.0
G0 X-20.0279 Y16.7499
G0 Z0.2
G1 F300.0 Z-0.4
G2 F800.0 X-17.25 Y14.0 I0.0279 J-2.7499
G2 X-21.375 Y11.6184 I-2.75 J0.0
G2 Y16.3816 I1.375 J2.3816
G2 X-20.0279 Y16.7499 I1.375 J-2.3816
G1 F300.0 Z-0.8
G2 F800.0 X-17.25 Y14.0 I0.0279 J-2.7499
G2 X-21.375 Y11.6184 I-2.75 J0.0
G2 Y16.3816 I1.375 J2.3816
G2 X-20.0279 Y16.7499 I1.375 J-2.3816
G1 F300.0 Z-1.2
G2 F800.0 X-17.25 Y14.0 I0.0279 J-2.7499
G2 X-21.375 Y11.6184 I-2.75 J0.0
G2 Y16.3816 I1.375 J2.3816
G2 X-20.0279 Y16.7499 I1.375 J-2.3816
G1 F300.0 Z-1.6
G2 F800.0 X-17.25 Y14.0 I0.0279 J-2.7499
G2 X-21.375 Y11.6184 I-2.75 J0.0
G2 Y16.3816 I1.375 J2.3816
G2 X-20.0279 Y16.7499 I1.375 J-2.3816
G1 F300.0 Z-2.0
G2 F800.0 X-17.25 Y14.0 I0.0279 J-2.7499
G2 X-21.375 Y11.6184 I-2.75 J0.0
G2 Y16.3816 I1.375 J2.3816
G2 X-20.0279 Y16.7499 I1.375 J-2.3816
G1 F300.0 Z-2.4
G2 F800.0 X-17.25 Y14.0 I0.0279 J-2.7499
G2 X-21.375 Y11.6184 I-2.75 J0.0
G2 Y16.3816 I1.375 J2.3816
G2 X-20.0279 Y16.7499 I1.375 J-2.3816
G1 F300.0 Z-2.8
G2 F800.0 X-17.25 Y14.0 I0.0279 J-2.7499
G2 X-21.375 Y11.6184 I-2.75 J0.0
G2 Y16.3816 I1.375 J2.3816
G2 X-20.0279 Y16.7499 I1.375 J-2.3816
G1 F300.0 Z-3.2
G2 F800.0 X-17.25 Y14.0 I0.0279 J-2.7499
G2 X-21.375 Y11.6184 I-2.75 J0.0
G2 Y16.3816 I1.375 J2.3816
G2 X-20.0279 Y16.7499 I1.375 J-2.3816
G1 F300.0 Z-3.6
G2 F800.0 X-17.25 Y14.0 I0.0279 J-2.7499
G2 X-21.375 Y11.6184 I-2.75 J0.0
G2 Y16.3816 I1.375 J2.3816
G2 X-20.0279 Y16.7499 I1.375 J-2.3816
G1 F300.0 Z-4.0
G2 F800.0 X-17.25 Y14.0 I0.0279 J-2.7499
G2 X-21.375 Y11.6184 I-2.75 J0.0
G2 Y16.3816 I1.375 J2.3816
G2 X-20.0279 Y16.7499 I1.375 J-2.3816
G0 Z3.0
G0 X-7.1499 Y5.9632
G0 Z0.2
G1 F300.0 Z-0.4
G2 F800.0 X-6.75 Y6.299 I1.1499 J-0.9632
G2 X-4.5 Y5.0 I0.75 J-1.299
G2 X-6.75 Y3.701 I-1.5 J0.0
G2 X-7.1499 Y5.9632 I0.75 J1.299
G1 F300.0 Z-0.8
G2 F800.0 X-6.75 Y6.299 I1.1499 J-0.9632
G2 X-4.5 Y5.0 I0.75 J-1.299
G2 X-6.75 Y3.701 I-1.5 J0.0
G2 X-7.1499 Y5.9632 I0.75 J1.299
G1 F300.0 Z-1.2
G2 F800.0 X-6.75 Y6.299 I1.1499 J-0.9632
G2 X-4.5 Y5.0 I0.75 J-1.299
G2 X-6.75 Y3.701 I-1.5 J0.0
G2 X-7.1499 Y5.9632 I0.75 J1.299
G1 F300.0 Z-1.6
G2 F800.0 X-6.75 Y6.299 I1.1499 J-0.9632
G2 X-4.5 Y5.0 I0.75 J-1.299
G2 X-6.75 Y3.701 I-1.5 J0.0
G2 X-7.1499 Y5.9632 I0.75 J1.299
G1 F300.0 Z-2.0
G2 F800.0 X-6.75 Y6.299 I1.1499 J-0.9632
G2 X-4.5 Y5.0 I0.75 J-1.299
G2 X-6.75 Y3.701 I-1.5 J0.0
G2 X-7.1499 Y5.9632 I0.75 J1.299
G1 F300.0 Z-2.4
G2 F800.0 X-6.75 Y6.299 I1.1499 J-0.9632
G2 X-4.5 Y5.0 I0.75 J-1.299
G2 X-6.75 Y3.701 I-1.5 J0.0
G2 X-7.1499 Y5.9632 I0.75 J1.299
G1 F300.0 Z-2.8
G2 F800.0 X-6.75 Y6.299 I1.1499 J-0.9632
G2 X-4.5 Y5.0 I0.75 J-1.299
G2 X-6.75 Y3.701 I-1.5 J0.0
G2 X-7.1499 Y5.9632 I0.75 J1.299
G1 F300.0 Z-3.2
G2 F800.0 X-6.75 Y6.299 I1.1499 J-0.9632
G2 X-4.5 Y5.0 I0.75 J-1.299
G2 X-6.75 Y3.701 I-1.5 J0.0
G2 X-7.1499 Y5.9632 I0.75 J1.299
G1 F300.0 Z-3.6
G2 F800.0 X-6.75 Y6.299 I1.1499 J-0.9632
G2 X-4.5 Y5.0 I0.75 J-1.299
G2 X-6.75 Y3.701 I-1.5 J0.0
G2 X-7.1499 Y5.9632 I0.75 J1.299
G1 F300.0 Z-4.0
G2 F800.0 X-6.75 Y6.299 I1.1499 J-0.9632
G2 X-4.5 Y5.0 I0.75 J-1.299
G2 X-6.75 Y3.701 I-1.5 J0.0
G2 X-7.1499 Y5.9632 I0.75 J1.299
G0 Z3.0
G0 X-37.3288 Y13.3465
G0 Z0.2
G1 F300.0 Z-0.4
G2 F800.0 X-41.375 Y11.6184 I-2.6712 J0.6535
G2 Y16.3816 I1.375 J2.3816
G2 X-37.25 Y14.0 I1.375 J-2.3816
G2 X-37.3288 Y13.3465 I-2.75 J0.0
G1 F300.0 Z-0.8
G2 F800.0 X-41.375 Y11.6184 I-2.6712 J0.6535
G2 Y16.3816 I1.375 J2.3816
G2 X-37.25 Y14.0 I1.375 J-2.3816
G2 X-37.3288 Y13.3465 I-2.75 J0.0
G1 F300.0 Z-1.2
G2 F800.0 X-41.375 Y11.6184 I-2.6712 J0.6535
G2 Y16.3816 I1.375 J2.3816
G2 X-37.25 Y14.0 I1.375 J-2.3816
G2 X-37.3288 Y13.3465 I-2.75 J0.0
G1 F300.0 Z-1.6
G2 F800.0 X-41.375 Y11.6184 I-2.6712 J0.6535
G2 Y16.3816 I1.375 J2.3816
G2 X-37.25 Y14.0 I1.375 J-2.3816
G2 X-37.3288 Y13.3465 I-2.75 J0.0
G1 F300.0 Z-2.0
G2 F800.0 X-41.375 Y11.6184 I-2.6712 J0.6535
G2 Y16.3816 I1.375 J2.3816
G2 X-37.25 Y14.0 I1.375 J-2.3816
G2 X-37.3288 Y13.3465 I-2.75 J0.0
G1 F300.0 Z-2.4
G2 F800.0 X-41.375 Y11.6184 I-2.6712 J0.6535
G2 Y16.3816 I1.375 J2.3816
G2 X-37.25 Y14.0 I1.375 J-2.3816
G2 X-37.3288 Y13.3465 I-2.75 J0.0
G1 F300.0 Z-2.8
G2 F800.0 X-41.375 Y11.6184 I-2.6712 J0.6535
G2 Y16.3816 I1.375 J2.3816
G2 X-37.25 Y14.0 I1.375 J-2.3816
G2 X-37.3288 Y13.3465 I-2.75 J0.0
G1 F300.0 Z-3.2
G2 F800.0 X-41.375 Y11.6184 I-2.6712 J0.6535
G2 Y16.3816 I1.375 J2.3816
G2 X-37.25 Y14.0 I1.375 J-2.3816
G2 X-37.3288 Y13.3465 I-2.75 J0.0
G1 F300.0 Z-3.6
G2 F800.0 X-41.375 Y11.6184 I-2.6712 J0.6535
G2 Y16.3816 I1.375 J2.3816
G2 X-37.25 Y14.0 I1.375 J-2.3816
G2 X-37.3288 Y13.3465 I-2.75 J0.0
G1 F300.0 Z-4.0
G2 F800.0 X-41.375 Y11.6184 I-2.6712 J0.6535
G2 Y16.3816 I1.375 J2.3816
G2 X-37.25 Y14.0 I1.375 J-2.3816
G2 X-37.3288 Y13.3465 I-2.75 J0.0
G0 Z3.0
G0 X-5.4803 Y107.579
G0 Z0.2
G1 F300.0 Z-0.4
G2 F800.0 X-5.75 Y107.701 I0.4803 J1.421
G2 Y110.299 I0.75 J1.299
G2 X-3.5 Y109.0 I0.75 J-1.299
G2 X-5.4803 Y107.579 I-1.5 J0.0
G1 F300.0 Z-0.8
G2 F800.0 X-5.75 Y107.701 I0.4803 J1.421
G2 Y110.299 I0.75 J1.299
G2 X-3.5 Y109.0 I0.75 J-1.299
G2 X-5.4803 Y107.579 I-1.5 J0.0
G1 F300.0 Z-1.2
G2 F800.0 X-5.75 Y107.701 I0.4803 J1.421
G2 Y110.299 I0.75 J1.299
G2 X-3.5 Y109.0 I0.75 J-1.299
G2 X-5.4803 Y107.579 I-1.5 J0.0
G1 F300.0 Z-1.6
G2 F800.0 X-5.75 Y107.701 I0.4803 J1.421
G2 Y110.299 I0.75 J1.299
G2 X-3.5 Y109.0 I0.75 J-1.299
G2 X-5.4803 Y107.579 I-1.5 J0.0
G1 F300.0 Z-2.0
G2 F800.0 X-5.75 Y107.701 I0.4803 J1.421
G2 Y110.299 I0.75 J1.299
G2 X-3.5 Y109.0 I0.75 J-1.299
G2 X-5.4803 Y107.579 I-1.5 J0.0
G1 F300.0 Z-2.4
G2 F800.0 X-5.75 Y107.701 I0.4803 J1.421
G2 Y110.299 I0.75 J1.299
G2 X-3.5 Y109.0 I0.75 J-1.299
G2 X-5.4803 Y107.579 I-1.5 J0.0
G1 F300.0 Z-2.8
G2 F800.0 X-5.75 Y107.701 I0.4803 J1.421
G2 Y110.299 I0.75 J1.299
G2 X-3.5 Y109.0 I0.75 J-1.299
G2 X-5.4803 Y107.579 I-1.5 J0.0
G1 F300.0 Z-3.2
G2 F800.0 X-5.75 Y107.701 I0.4803 J1.421
G2 Y110.299 I0.75 J1.299
G2 X-3.5 Y109.0 I0.75 J-1.299
G2 X-5.4803 Y107.579 I-1.5 J0.0
G1 F300.0 Z-3.6
G2 F800.0 X-5.75 Y107.701 I0.4803 J1.421
G2 Y110.299 I0.75 J1.299
G2 X-3.5 Y109.0 I0.75 J-1.299
G2 X-5.4803 Y107.579 I-1.5 J0.0
G1 F300.0 Z-4.0
G2 F800.0 X-5.75 Y107.701 I0.4803 J1.421
G2 Y110.299 I0.75 J1.299
G2 X-3.5 Y109.0 I0.75 J-1.299
G2 X-5.4803 Y107.579 I-1.5 J0.0
G0 Z3.0
G0 X-153.7631 Y5.8486
G0 Z0.2
G1 F300.0 Z-0.4
G2 F800.0 X-153.5 Y5.0 I-1.2369 J-0.8486
G2 X-155.75 Y3.701 I-1.5 J0.0
G2 Y6.299 I0.75 J1.299
G2 X-153.7631 Y5.8486 I0.75 J-1.299
G1 F300.0 Z-0.8
G2 F800.0 X-153.5 Y5.0 I-1.2369 J-0.8486
G2 X-155.75 Y3.701 I-1.5 J0.0
G2 Y6.299 I0.75 J1.299
G2 X-153.7631 Y5.8486 I0.75 J-1.299
G1 F300.0 Z-1.2
G2 F800.0 X-153.5 Y5.0 I-1.2369 J-0.8486
G2 X-155.75 Y3.701 I-1.5 J0.0
G2 Y6.299 I0.75 J1.299
G2 X-153.7631 Y5.8486 I0.75 J-1.299
G1 F300.0 Z-1.6
G2 F800.0 X-153.5 Y5.0 I-1.2369 J-0.8486
G2 X-155.75 Y3.701 I-1.5 J0.0
G2 Y6.299 I0.75 J1.299
G2 X-153.7631 Y5.8486 I0.75 J-1.299
G1 F300.0 Z-2.0
G2 F800.0 X-153.5 Y5.0 I-1.2369 J-0.8486
G2 X-155.75 Y3.701 I-1.5 J0.0
G2 Y6.299 I0.75 J1.299
G2 X-153.7631 Y5.8486 I0.75 J-1.299
G1 F300.0 Z-2.4
G2 F800.0 X-153.5 Y5.0 I-1.2369 J-0.8486
G2 X-155.75 Y3.701 I-1.5 J0.0
G2 Y6.299 I0.75 J1.299
G2 X-153.7631 Y5.8486 I0.75 J-1.299
G1 F300.0 Z-2.8
G2 F800.0 X-153.5 Y5.0 I-1.2369 J-0.8486
G2 X-155.75 Y3.701 I-1.5 J0.0
G2 Y6.299 I0.75 J1.299
G2 X-153.7631 Y5.8486 I0.75 J-1.299
G1 F300.0 Z-3.2
G2 F800.0 X-153.5 Y5.0 I-1.2369 J-0.8486
G2 X-155.75 Y3.701 I-1.5 J0.0
G2 Y6.299 I0.75 J1.299
G2 X-153.7631 Y5.8486 I0.75 J-1.299
G1 F300.0 Z-3.6
G2 F800.0 X-153.5 Y5.0 I-1.2369 J-0.8486
G2 X-155.75 Y3.701 I-1.5 J0.0
G2 Y6.299 I0.75 J1.299
G2 X-153.7631 Y5.8486 I0.75 J-1.299
G1 F300.0 Z-4.0
G2 F800.0 X-153.5 Y5.0 I-1.2369 J-0.8486
G2 X-155.75 Y3.701 I-1.5 J0.0
G2 Y6.299 I0.75 J1.299
G2 X-153.7631 Y5.8486 I0.75 J-1.299
( Profil2 )
S1000
G0 Z3.0
G0 X-119.0 Y68.0
G0 Z0.2
G1 F300.0 Z-0.4
G2 F800.0 X-120.0 Y69.0 I0.0 J1.0
G1 Y90.0
G2 X-119.0 Y91.0 I1.0 J0.0
G1 X-62.0
G2 X-61.0 Y90.0 I0.0 J-1.0
G1 Y69.0
G2 X-62.0 Y68.0 I-1.0 J0.0
G1 X-119.0
G1 F300.0 Z-0.8
G2 F800.0 X-120.0 Y69.0 I0.0 J1.0
G1 Y90.0
G2 X-119.0 Y91.0 I1.0 J0.0
G1 X-62.0
G2 X-61.0 Y90.0 I0.0 J-1.0
G1 Y69.0
G2 X-62.0 Y68.0 I-1.0 J0.0
G1 X-119.0
G1 F300.0 Z-1.2
G2 F800.0 X-120.0 Y69.0 I0.0 J1.0
G1 Y90.0
G2 X-119.0 Y91.0 I1.0 J0.0
G1 X-62.0
G2 X-61.0 Y90.0 I0.0 J-1.0
G1 Y69.0
G2 X-62.0 Y68.0 I-1.0 J0.0
G1 X-119.0
G1 F300.0 Z-1.6
G2 F800.0 X-120.0 Y69.0 I0.0 J1.0
G1 Y90.0
G2 X-119.0 Y91.0 I1.0 J0.0
G1 X-62.0
G2 X-61.0 Y90.0 I0.0 J-1.0
G1 Y69.0
G2 X-62.0 Y68.0 I-1.0 J0.0
G1 X-119.0
G1 F300.0 Z-2.0
G2 F800.0 X-120.0 Y69.0 I0.0 J1.0
G1 Y90.0
G2 X-119.0 Y91.0 I1.0 J0.0
G1 X-62.0
G2 X-61.0 Y90.0 I0.0 J-1.0
G1 Y69.0
G2 X-62.0 Y68.0 I-1.0 J0.0
G1 X-119.0
G1 F300.0 Z-2.4
G2 F800.0 X-120.0 Y69.0 I0.0 J1.0
G1 Y90.0
G2 X-119.0 Y91.0 I1.0 J0.0
G1 X-62.0
G2 X-61.0 Y90.0 I0.0 J-1.0
G1 Y69.0
G2 X-62.0 Y68.0 I-1.0 J0.0
G1 X-119.0
G1 F300.0 Z-2.8
G2 F800.0 X-120.0 Y69.0 I0.0 J1.0
G1 Y90.0
G2 X-119.0 Y91.0 I1.0 J0.0
G1 X-62.0
G2 X-61.0 Y90.0 I0.0 J-1.0
G1 Y69.0
G2 X-62.0 Y68.0 I-1.0 J0.0
G1 X-119.0
G1 F300.0 Z-3.2
G2 F800.0 X-120.0 Y69.0 I0.0 J1.0
G1 Y90.0
G2 X-119.0 Y91.0 I1.0 J0.0
G1 X-62.0
G2 X-61.0 Y90.0 I0.0 J-1.0
G1 Y69.0
G2 X-62.0 Y68.0 I-1.0 J0.0
G1 X-119.0
G1 F300.0 Z-3.6
G2 F800.0 X-120.0 Y69.0 I0.0 J1.0
G1 Y90.0
G2 X-119.0 Y91.0 I1.0 J0.0
G1 X-62.0
G2 X-61.0 Y90.0 I0.0 J-1.0
G1 Y69.0
G2 X-62.0 Y68.0 I-1.0 J0.0
G1 X-119.0
G1 F300.0 Z-4.0
G2 F800.0 X-120.0 Y69.0 I0.0 J1.0
G1 Y90.0
G2 X-119.0 Y91.0 I1.0 J0.0
G1 X-62.0
G2 X-61.0 Y90.0 I0.0 J-1.0
G1 Y69.0
G2 X-62.0 Y68.0 I-1.0 J0.0
G1 X-119.0
( Textgravur )
G0 Z3.0
( T10 : 0.0 )
T10 M6
M3 S1000
G0 X-27.6465 Y90.3281
G0 Z0.2
G1 F300.0 Z-0.4
G1 F800.0 X-28.1855
G1 X-28.4004 Y91.6875
G1 X-29.6152
G1 X-29.8301 Y90.3281
G1 X-30.3535
G1 Y90.3438
G1 X-29.2637 Y96.457
G1 X-28.7285
G1 X-27.6465 Y90.3281
G0 Z3.0
G0 X-28.4707 Y92.168
G0 Z0.2
G1 F300.0 Z-0.4
G1 F800.0 X-29.0059 Y95.4805
G1 X-29.5449 Y92.168
G1 X-28.4707
G0 Z3.0
G0 Y76.3594
G0 Z0.2
G1 F300.0 Z-0.4
G1 F800.0 X-28.2109
G2 X-27.8984 Y76.2383 I0.0156 J-0.4234
G2 X-27.7773 Y75.9258 I-0.3023 J-0.2969
G1 Y74.1094
G2 X-27.9961 Y73.7031 I-0.4928 J0.0034
G1 X-28.4258 Y73.4453
G1 X-27.9648 Y73.1484
G2 X-27.7617 Y72.7578 I-0.2226 J-0.3639
G1 Y70.6797
G2 X-27.8828 Y70.3672 I-0.4234 J-0.0156
G2 X-28.1953 Y70.2461 I-0.2969 J0.3023
G1 X-30.2109
G1 Y76.3594
G1 X-28.4707
G0 Z3.0
G0 Y75.8789
G0 Z0.2
G1 F300.0 Z-0.4
G1 F800.0 X-29.668
G1 Y73.6719
G1 X-28.8672
G1 X-28.3242 Y74.0391
G1 Y75.8789
G1 X-28.4707
G0 Z3.0
G0 X-28.8594 Y73.1992
G0 Z0.2
G1 F300.0 Z-0.4
G1 F800.0 X-29.668
G1 Y70.7266
G1 X-28.3086
G1 Y72.8398
G1 X-28.8594 Y73.1992
G0 Z3.0
G0 Y56.2773
G0 Z0.2
G1 F300.0 Z-0.4
G1 F800.0 X-28.2031
G2 X-27.8867 Y56.1563 I0.0143 J-0.4366
G2 X-27.7617 Y55.8438 I-0.2912 J-0.2977
G1 Y54.4219
G1 X-28.3086
G1 Y55.7969
G1 X-29.668
G1 Y50.6445
G1 X-28.3086
G1 Y52.1484
G1 X-27.7617
G1 Y50.5977
G2 X-27.8867 Y50.2852 I-0.4162 J-0.0148
G2 X-28.2031 Y50.1641 I-0.3021 J0.3155
G1 X-29.7773
G2 X-30.0898 Y50.2852 I-0.0156 J0.4234
G2 X-30.2109 Y50.5977 I0.3023 J0.2969
G1 Y55.8438
G2 X-30.0898 Y56.1563 I0.4234 J0.0156
G2 X-29.7773 Y56.2773 I0.2969 J-0.3023
G1 X-28.8594
G0 Z3.0
G0 X-46.7654 Y55.869
G0 Z0.2
G1 F300.0 Z-0.4
G2 F800.0 X-46.7656 Y55.8438 I-0.4236 J-0.0097
G1 Y54.3555
G2 X-47.0 Y53.8984 I-0.5265 J-0.0186
G1 X-47.7266 Y53.3867
G1 X-46.9922 Y52.875
G2 X-46.7578 Y52.4102 I-0.2935 J-0.4395
G1 Y50.5977
G2 X-46.8789 Y50.2852 I-0.4234 J-0.0156
G2 X-47.1914 Y50.1641 I-0.2969 J0.3023
G1 X-48.7656
G2 X-49.0781 Y50.2852 I-0.0156 J0.4234
G2 X-49.1992 Y50.5977 I0.3023 J0.2969
G1 Y52.1484
G1 X-48.6563
G1 Y50.6445
G1 X-47.3047
G1 Y52.5156
G1 X-48.3828 Y53.3242
G1 Y53.4453
G1 X-47.3125 Y54.2422
G1 Y55.7969
G1 X-48.6484
G1 Y54.4219
G1 X-49.1914
G1 Y55.8438
G2 X-49.0703 Y56.1563 I0.4234 J0.0156
G2 X-48.7578 Y56.2773 I0.2969 J-0.3023
G1 X-47.1992
G2 X-46.8867 Y56.1563 I0.0156 J-0.4234
G2 X-46.7654 Y55.869 I-0.3023 J-0.2969
G0 Z3.0
G0 X-57.0
G0 Z0.2
G1 F300.0 Z-0.4
G1 F800.0 Y6.0
G3 X-55.0 Y4.0 I2.0 J0.0
G1 X-12.0
G3 X-10.0 Y6.0 I0.0 J2.0
G1 Y110.0
G3 X-12.0 Y112.0 I-2.0 J0.0
G1 X-55.0
G3 X-57.0 Y110.0 I0.0 J-2.0
G1 Y55.869
G0 Z3.0
G0 X-60.0
G0 Z0.2
G1 F300.0 Z-0.4
G1 F800.0 Y63.0
G3 X-62.0 Y65.0 I-2.0 J0.0
G1 X-148.0
G3 X-150.0 Y63.0 I0.0 J-2.0
G1 Y6.0
G3 X-148.0 Y4.0 I2.0 J0.0
G1 X-62.0
G3 X-60.0 Y6.0 I0.0 J2.0
G1 Y55.869
G0 Z3.0
G0 X-72.2422 Y54.9102
G0 Z0.2
G1 F300.0 Z-0.4
G1 F800.0 Y54.457
G1 X-73.3672
G1 Y53.3516
G1 X-73.8477
G1 Y54.457
G1 X-74.9727
G1 Y54.9102
G1 X-73.8477
G1 Y56.0156
G1 X-73.3672
G1 Y54.9102
G1 X-72.2422
G0 Z3.0
G0 X-76.0142 Y56.1216
G0 Z0.2
G1 F300.0 Z-0.4
G1 F800.0 X-77.1836 Y52.4805
G1 X-75.4648
G1 Y52.0
G1 X-77.8086
G1 Y52.2891
G1 X-76.0898 Y57.6328
G1 X-77.6406
G1 Y58.1133
G1 X-75.4648
G1 Y57.832
G1 X-76.0142 Y56.1216
G0 Z3.0
G0 X-83.3555 Y45.3438
G0 Z0.2
G1 F300.0 Z-0.4
G1 F800.0 X-79.0195 Y41.0078
G1 X-82.4883
G1 Y32.3359
G1 X-79.0195
G1 X-83.3555 Y28.0
G1 X-87.6914 Y32.3359
G1 X-84.2227
G1 Y41.0078
G1 X-87.6914
G1 X-83.3555 Y45.3438
G0 Z3.0
G0 X-91.9258 Y35.9102
G0 Z0.2
G1 F300.0 Z-0.4
G1 F800.0 Y35.457
G1 X-93.0508
G1 Y34.3516
G1 X-93.5313
G1 Y35.457
G1 X-94.6563
G1 Y35.9102
G1 X-93.5313
G1 Y37.0156
G1 X-93.0508
G1 Y35.9102
G1 X-91.9258
G0 Z3.0
G0 X-95.6492 Y34.6324
G0 Z0.2
G1 F300.0 Z-0.4
G2 F800.0 X-95.6318 Y34.5817 I-571.9157 J-196.2664
G2 X-95.3613 Y33.792 I-248.9682 J-85.7314
G2 X-95.0977 Y33.0 I-32.2159 J-11.1634
G1 X-95.6563
G1 X-96.4727 Y35.5117
G1 X-97.2891 Y33.0
G1 X-97.832
G1 Y33.0313
G1 X-96.7422 Y36.1289
G2 X-97.2593 Y37.6199 I963.4491 J334.9851
G2 X-97.7695 Y39.1133 I116.5334 J40.6485
G1 X-97.1992
G1 X-96.4648 Y36.793
G1 X-95.7031 Y39.1133
G1 X-95.1602
G1 Y39.0781
G1 X-96.1758 Y36.1602
G2 X-95.6492 Y34.6324 I-571.3891 J-197.7941
G0 Z3.0
G0 X-111.0 Y35.6445
G0 Z0.2
G1 F300.0 Z-0.4
G1 F800.0 X-115.3359 Y31.3086
G1 Y34.7773
G1 X-124.0078
G1 Y31.3086
G1 X-128.3438 Y35.6445
G1 X-124.0078 Y39.9805
G1 Y36.5117
G1 X-115.3359
G1 Y39.9805
G1 X-111.0 Y35.6445
G0 Z3.0
G0 X-112.0547 Y21.1133
G0 Z0.2
G1 F300.0 Z-0.4
G1 F800.0 Y21.0781
G1 X-112.7969 Y18.6055
G3 X-112.9954 Y17.9902 I8.4896 J-3.0797
G3 X-113.168 Y17.3672 I26.3588 J-7.6343
G1 Y15.0
G1 X-113.7109
G1 Y17.3672
G3 X-113.8789 Y17.9922 I-4.2561 J-0.8087
G2 X-114.082 Y18.6055 I139.2835 J46.4724
G1 X-114.8242 Y21.0781
G1 Y21.1133
G1 X-114.2734
G1 X-113.4336 Y18.0547
G1 X-112.6016 Y21.1133
G1 X-112.0547
G0 Z3.0
G0 X-111.5039 Y17.5742
G0 Z0.2
G1 F300.0 Z-0.4
G1 F800.0 X-109.8945
G1 Y17.0898
G1 X-111.5039
G1 Y17.5742
G0 Z3.0
G0 X-77.8086 Y15.2891
G0 Z0.2
G1 F300.0 Z-0.4
G1 F800.0 X-76.0898 Y20.6328
G1 X-77.6406
G1 Y21.1133
G1 X-75.4648
G1 Y20.832
G1 X-77.1836 Y15.4805
G1 X-75.4648
G1 Y15.0
G1 X-77.8086
G1 Y15.2891
G0 Z3.0
G0 X-74.8711 Y17.0898
G0 Z0.2
G1 F300.0 Z-0.4
G1 F800.0 Y17.5742
G1 X-73.2617
G1 Y17.0898
G1 X-74.8711
G0 Z3.0
G0 X-49.0859 Y16.1133
G0 Z0.2
G1 F300.0 Z-0.4
G1 F800.0 X-46.8516
G1 Y15.6328
G1 X-48.5547
G1 X-48.6211 Y13.8398
G1 X-47.2383
G2 X-46.9258 Y13.7188 I0.0156 J-0.4234
G2 X-46.8047 Y13.4063 I-0.3023 J-0.2969
G1 Y10.4336
G2 X-46.9258 Y10.1211 I-0.4234 J-0.0156
G2 X-47.2383 Y10.0 I-0.2969 J0.3023
G1 X-48.7422
G2 X-49.0547 Y10.1211 I-0.0156 J0.4234
G2 X-49.1719 Y10.4336 I0.3142 J0.296
G1 Y11.9844
G1 X-48.6289
G1 Y10.4805
G1 X-47.3477
G1 Y13.3594
G1 X-49.1563
G1 X-49.0859 Y16.1133
G0 Z3.0
G0 X-47.6367 Y30.082
G0 Z0.2
G1 F300.0 Z-0.4
G1 F800.0 Y31.6758
G1 X-49.3633
G1 Y31.9531
G1 X-47.8828 Y36.1953
G1 X-47.3711
G1 Y36.1719
G1 X-48.7773 Y32.1367
G1 X-47.6367
G1 Y34.3555
G1 X-47.125
G1 Y32.1367
G1 X-46.6602
G1 Y31.6758
G1 X-47.125
G1 Y30.082
G1 X-47.6367
G0 Z3.0
G0 X-30.248
G0 Z0.2
G1 F300.0 Z-0.4
G1 F800.0 Y36.1953
G1 X-28.8496
G2 X-28.4153 Y36.1214 I0.0143 J-1.2288
G2 X-28.0449 Y35.8828 I-0.3684 J-0.9787
G2 X-27.7285 Y35.0898 I-0.7437 J-0.7563
G1 Y31.1875
G2 X-27.8049 Y30.7554 I-1.1803 J-0.0141
G2 X-28.0488 Y30.3906 I-0.9571 J0.3761
G2 X-28.8496 Y30.082 I-0.7651 J0.7922
G1 X-30.248
G0 Z3.0
G0 X-29.7051 Y30.5625
G0 Z0.2
G1 F300.0 Z-0.4
G1 F800.0 X-28.9824
G3 X-28.7092 Y30.603 I0.0103 J0.8719
G3 X-28.4707 Y30.7422 I-0.1993 J0.6155
G3 X-28.2715 Y31.2422 I-0.4489 J0.4686
G1 Y35.043
G3 X-28.3159 Y35.3054 I-0.7409 J0.0097
G3 X-28.4629 Y35.5273 I-0.557 J-0.2094
G3 X-28.9512 Y35.7148 I-0.4622 J-0.4741
G1 X-29.7051
G1 Y30.5625
G0 Z3.0
G0 Y16.1133
G0 Z0.2
G1 F300.0 Z-0.4
G1 F800.0 X-27.9551
G1 Y15.6328
G1 X-29.3965
G1 Y13.3516
G1 X-28.084
G1 Y12.8633
G1 X-29.3965
G1 Y10.4805
G1 X-27.9316
G1 Y10.0
G1 X-29.9395
G1 Y16.1133
G1 X-29.7051
G0 Z3.0
G0 X-46.7988 Y70.2461
G0 Z0.2
G1 F300.0 Z-0.4
G1 F800.0 X-49.2246
G1 Y70.5352
G1 X-47.3535 Y74.4219
G1 Y75.8789
G1 X-48.5996
G1 Y74.5039
G1 X-49.1465
G1 Y75.9258
G2 X-49.0254 Y76.2383 I0.4234 J0.0156
G2 X-48.7129 Y76.3594 I0.2969 J-0.3023
G1 X-47.2402
G2 X-46.9277 Y76.2383 I0.0156 J-0.4234
G2 X-46.8066 Y75.9258 I-0.3023 J-0.2969
G1 Y74.6289
G2 X-46.8497 Y74.3534 I-0.9923 J0.0138
G2 X-46.9512 Y74.0938 I-1.6383 J0.4908
G1 X-48.5684 Y70.7266
G1 X-46.7988
G1 Y70.2461
G0 Z3.0
G0 X-47.7148 Y90.3281
G0 Z0.2
G1 F300.0 Z-0.4
G1 F800.0 X-48.2617
G1 Y94.5664
G1 X-48.5
G1 Y94.5859
G1 X-48.1563 Y96.4414
G1 X-47.7148
G1 Y90.3281
G0 Z3.0
G0 X-60.1412 Y95.262
G0 Z0.2
G1 F300.0 Z-0.4
G3 F800.0 X-60.0 Y96.0 I-1.8588 J0.738
G1 Y110.0
G3 X-62.0 Y112.0 I-2.0 J0.0
G1 X-119.0
G3 X-121.0 Y110.0 I0.0 J-2.0
G1 Y96.0
G3 X-119.0 Y94.0 I2.0 J0.0
G1 X-62.0
G3 X-60.1412 Y95.262 I0.0 J2.0
G0 Z3.0
G0 X-62.9531 Y96.0
G0 Z0.2
G1 F300.0 Z-0.4
G1 F800.0 X-63.6914
G2 X-63.8671 Y96.0226 I-0.0088 J0.6247
G2 X-64.0742 Y96.1844 I0.0835 J0.3203
G2 X-64.1289 Y96.4414 I0.4875 J0.2381
G1 Y99.3438
G1 X-64.5859
G1 Y99.8008
G1 X-64.1289
G1 Y100.9844
G1 X-63.6172
G1 Y99.8008
G1 X-62.9531
G1 Y99.3438
G1 X-63.6172
G1 Y96.457
G1 X-62.9531
G1 Y96.0
G0 Z3.0
G0 X-65.1868 Y96.3368
G0 Z0.2
G1 F300.0 Z-0.4
G2 F800.0 X-65.2016 Y96.2658 I-0.6358 J0.0959
G2 X-65.3604 Y96.0563 I-0.324 J0.0807
G2 X-65.6172 Y96.0 I-0.2378 J0.4708
G1 X-66.8672
G2 X-67.0429 Y96.0226 I-0.0088 J0.6247
G2 X-67.25 Y96.1844 I0.0835 J0.3203
G2 X-67.3047 Y96.4414 I0.4875 J0.2381
G1 Y99.3594
G2 X-67.2827 Y99.535 I0.643 J0.0088
G2 X-67.1239 Y99.7445 I0.324 J-0.0807
G2 X-66.8672 Y99.8008 I0.2378 J-0.4708
G1 X-65.6172
G2 X-65.4415 Y99.7781 I0.0088 J-0.6247
G2 X-65.2344 Y99.6164 I-0.0835 J-0.3203
G2 X-65.1797 Y99.3594 I-0.4875 J-0.2381
G1 Y97.9922
G1 X-65.3555 Y97.8086
G1 X-66.8008
G1 Y96.4336
G1 X-65.6836
G1 Y97.1289
G1 X-65.1797
G1 Y96.4414
G2 X-65.1868 Y96.3368 I-0.643 J-0.0088
G0 Z3.0
G0 X-65.6836 Y98.2227
G0 Z0.2
G1 F300.0 Z-0.4
G1 F800.0 Y99.3672
G1 X-66.8008
G1 Y98.2227
G1 X-65.6836
G0 Z3.0
G0 X-68.1367 Y98.6016
G0 Z0.2
G1 F300.0 Z-0.4
G1 F800.0 X-68.6406
G1 Y99.3516
G1 X-69.6914
G1 Y98.6875
G1 X-68.3203 Y97.5742
G2 X-68.1289 Y97.1602 I-0.3096 J-0.3944
G1 Y96.4414
G2 X-68.1513 Y96.265 I-0.6366 J-0.0089
G2 X-68.3123 Y96.0558 I-0.3236 J0.0825
G2 X-68.5703 Y96.0 I-0.239 J0.4812
G1 X-69.7617
G2 X-69.9382 Y96.0224 I-0.0089 J0.6366
G2 X-70.1474 Y96.1834 I0.0825 J0.3236
G2 X-70.2031 Y96.4414 I0.4812 J0.239
G1 Y97.3047
G1 X-69.6914
G1 Y96.4492
G1 X-68.6406
G1 Y97.207
G1 X-70.0 Y98.3203
G2 X-70.1953 Y98.7266 I0.3006 J0.3946
G1 Y99.3594
G2 X-70.1729 Y99.5358 I0.6366 J0.0089
G2 X-70.0119 Y99.745 I0.3236 J-0.0825
G2 X-69.7539 Y99.8008 I0.239 J-0.4812
G1 X-68.5781
G2 X-68.4017 Y99.7784 I0.0089 J-0.6366
G2 X-68.1925 Y99.6174 I-0.0825 J-0.3236
G2 X-68.1367 Y99.3594 I-0.4812 J-0.239
G1 Y98.6016
G0 Z3.0
G0 X-71.0352
G0 Z0.2
G1 F300.0 Z-0.4
G1 F800.0 Y97.9922
G1 X-71.2109 Y97.8086
G1 X-72.6563
G1 Y96.4336
G1 X-71.5391
G1 Y97.1289
G1 X-71.0352
G1 Y96.4414
G2 X-71.0571 Y96.2658 I-0.643 J-0.0088
G2 X-71.2159 Y96.0563 I-0.324 J0.0807
G2 X-71.4727 Y96.0 I-0.2378 J0.4708
G1 X-72.7227
G2 X-72.8984 Y96.0226 I-0.0088 J0.6247
G2 X-73.1054 Y96.1844 I0.0835 J0.3203
G2 X-73.1602 Y96.4414 I0.4875 J0.2381
G1 Y99.3594
G2 X-73.1382 Y99.535 I0.643 J0.0088
G2 X-72.9794 Y99.7445 I0.324 J-0.0807
G2 X-72.7227 Y99.8008 I0.2378 J-0.4708
G1 X-71.4727
G2 X-71.2969 Y99.7781 I0.0088 J-0.6247
G2 X-71.0899 Y99.6164 I-0.0835 J-0.3203
G2 X-71.0352 Y99.3594 I-0.4875 J-0.2381
G1 Y98.6016
G0 Z3.0
G0 X-71.5391
G0 Z0.2
G1 F300.0 Z-0.4
G1 F800.0 Y99.3672
G1 X-72.6563
G1 Y98.2227
G1 X-71.5391
G1 Y98.6016
G0 Z3.0
G0 X-74.0451 Y99.2356
G0 Z0.2
G1 F300.0 Z-0.4
G2 F800.0 X-74.0755 Y99.1512 I-0.4451 J0.1126
G2 X-74.3182 Y98.959 I-0.3459 J0.1873
G2 X-74.625 Y98.918 I-0.2858 J0.9697
G2 X-74.7969 Y98.9219 I0.0467 J5.8366
G3 X-74.9609 Y98.9297 I-0.2198 J-2.8892
G2 X-73.9102 Y96.0 I-796.9132 J-287.4795
G1 X-74.4805
G1 X-75.6172 Y99.2734
G1 X-75.543 Y99.3828
G1 X-74.5742
G1 Y101.6328
G1 X-75.9688
G1 Y96.0
G1 X-76.5117
G1 Y102.1133
G1 X-74.4648
G2 X-74.1523 Y101.9922 I0.0156 J-0.4234
G2 X-74.0313 Y101.6797 I-0.3023 J-0.2969
G1 Y99.3594
G2 X-74.0451 Y99.2356 I-0.459 J-0.0112
G0 Z3.0
G0 X-84.4219
G0 Z0.2
G1 F300.0 Z-0.4
G1 F800.0 Y96.0
G1 X-84.9375
G1 Y96.1055
G2 X-85.3996 Y96.0356 I-10.2836 J66.5039
G2 X-85.8633 Y95.9766 I-1.2369 J7.857
G2 X-86.1553 Y96.0291 I-0.0106 J0.7798
G2 X-86.3984 Y96.1992 I0.2458 J0.6099
G2 X-86.6016 Y96.7617 I0.6093 J0.538
G1 Y98.9844
G2 X-86.3711 Y99.5664 I0.7893 J0.0241
G2 X-85.793 Y99.8008 I0.5567 J-0.543
G1 X-84.9375
G1 Y102.1133
G1 X-84.4219
G1 Y99.2356
G0 Z3.0
G0 X-84.9375
G0 Z0.2
G1 F300.0 Z-0.4
G1 F800.0 Y99.3438
G1 X-85.6563
G3 X-85.8305 Y99.3206 I-0.0088 J-0.6012
G3 X-86.0333 Y99.1573 I0.0858 J-0.3141
G3 X-86.0859 Y98.9023 I0.5004 J-0.2363
G1 Y96.8711
G3 X-86.0646 Y96.6979 I0.6443 J-0.0086
G3 X-85.9094 Y96.49 I0.3217 J0.0783
G3 X-85.6563 Y96.4336 I0.2345 J0.4561
G3 X-84.9375 Y96.4727 I-1.073 J26.3752
G1 Y99.2356
G0 Z3.0
G0 X-87.4648
G0 Z0.2
G1 F300.0 Z-0.4
G1 F800.0 Y96.0
G1 X-87.9766
G1 Y102.1133
G1 X-87.4648
G1 Y99.2356
G0 Z3.0
G0 X-88.8555
G0 Z0.2
G1 F300.0 Z-0.4
G1 F800.0 Y96.4414
G2 X-88.8779 Y96.265 I-0.6366 J-0.0089
G2 X-89.0389 Y96.0558 I-0.3236 J0.0825
G2 X-89.2969 Y96.0 I-0.239 J0.4812
G1 X-90.6016
G2 X-90.7773 Y96.0226 I-0.0088 J0.6247
G2 X-90.9843 Y96.1844 I0.0835 J0.3203
G2 X-91.0391 Y96.4414 I0.4875 J0.2381
G1 Y99.3594
G2 X-91.0171 Y99.535 I0.643 J0.0088
G2 X-90.8583 Y99.7445 I0.324 J-0.0807
G2 X-90.6016 Y99.8008 I0.2378 J-0.4708
G1 X-89.2969
G2 X-89.1204 Y99.7784 I0.0089 J-0.6366
G2 X-88.9112 Y99.6174 I-0.0825 J-0.3236
G2 X-88.8555 Y99.3594 I-0.4812 J-0.239
G1 Y99.2356
G0 Z3.0
G0 X-89.375
G0 Z0.2
G1 F300.0 Z-0.4
G1 F800.0 Y99.3438
G1 X-90.5195
G1 Y96.457
G1 X-89.375
G1 Y99.2356
G0 Z3.0
G0 X-91.9531
G0 Z0.2
G1 F300.0 Z-0.4
G1 F800.0 Y96.0
G1 X-92.4961
G1 Y98.9375
G1 X-93.9688
G1 Y96.0
G1 X-94.5117
G1 Y102.1133
G1 X-93.9688
G1 Y99.4258
G1 X-92.4961
G1 Y102.1133
G1 X-91.9531
G1 Y99.2356
G0 Z3.0
G0 X-99.4922
G0 Z0.2
G1 F300.0 Z-0.4
G1 F800.0 Y97.9922
G1 X-99.668 Y97.8086
G1 X-101.1133
G1 Y96.4336
G1 X-99.9961
G1 Y97.1289
G1 X-99.4922
G1 Y96.4414
G2 X-99.5141 Y96.2658 I-0.643 J-0.0088
G2 X-99.6729 Y96.0563 I-0.324 J0.0807
G2 X-99.9297 Y96.0 I-0.2378 J0.4708
G1 X-101.1797
G2 X-101.3554 Y96.0226 I-0.0088 J0.6247
G2 X-101.5625 Y96.1844 I0.0835 J0.3203
G2 X-101.6172 Y96.4414 I0.4875 J0.2381
G1 Y99.3594
G2 X-101.5952 Y99.535 I0.643 J0.0088
G2 X-101.4364 Y99.7445 I0.324 J-0.0807
G2 X-101.1797 Y99.8008 I0.2378 J-0.4708
G1 X-99.9297
G2 X-99.754 Y99.7781 I0.0088 J-0.6247
G2 X-99.5469 Y99.6164 I-0.0835 J-0.3203
G2 X-99.4922 Y99.3594 I-0.4875 J-0.2381
G1 Y99.2356
G0 Z3.0
G0 X-99.9961
G0 Z0.2
G1 F300.0 Z-0.4
G1 F800.0 Y99.3672
G1 X-101.1133
G1 Y98.2227
G1 X-99.9961
G1 Y99.2356
G0 Z3.0
G0 X-102.4609
G0 Z0.2
G1 F300.0 Z-0.4
G1 F800.0 Y96.0
G1 X-102.9805
G1 Y99.3359
G1 X-104.1133 Y99.3047
G1 Y96.0
G1 X-104.6289
G1 Y99.3359
G1 X-105.7617 Y99.3047
G1 Y96.0
G1 X-106.2813
G1 Y99.8008
G1 X-105.7617
G1 Y99.6953
G3 X-105.1523 Y99.7773 I-6.4517 J50.231
G2 X-104.5391 Y99.8242 I0.7012 J-5.1383
G2 X-104.3462 Y99.7936 I0.0099 J-0.5604
G2 X-104.1875 Y99.6797 I-0.1174 J-0.3309
G3 X-103.5352 Y99.7695 I-6.596 J50.3062
G2 X-102.8906 Y99.8242 I0.8123 J-5.7482
G2 X-102.7197 Y99.8029 I0.0085 J-0.6265
G2 X-102.5158 Y99.6483 I-0.0785 J-0.3154
G2 X-102.4609 Y99.3984 I-0.458 J-0.2315
G1 Y99.2356
G0 Z3.0
G0 X-107.1289
G0 Z0.2
G1 F300.0 Z-0.4
G1 F800.0 Y96.0
G1 X-107.6406
G1 Y96.1055
G2 X-108.2617 Y96.0234 I-8.0903 J58.8631
G2 X-108.8828 Y95.9766 I-0.7089 J5.2554
G2 X-109.0515 Y95.998 I-0.0085 J0.6084
G2 X-109.2514 Y96.1518 I0.0788 J0.3093
G2 X-109.3047 Y96.3984 I0.4599 J0.2285
G1 Y99.8008
G1 X-108.793
G1 Y96.4648
G1 X-107.6406 Y96.4961
G1 Y99.8008
G1 X-107.1289
G1 Y99.2356
G0 Z3.0
G0 X-110.1367
G0 Z0.2
G1 F300.0 Z-0.4
G1 F800.0 Y98.6016
G1 X-110.6406
G1 Y99.3516
G1 X-111.6914
G1 Y98.6875
G1 X-110.3203 Y97.5742
G2 X-110.1289 Y97.1602 I-0.3096 J-0.3944
G1 Y96.4414
G2 X-110.1513 Y96.265 I-0.6366 J-0.0089
G2 X-110.3123 Y96.0558 I-0.3236 J0.0825
G2 X-110.5703 Y96.0 I-0.239 J0.4812
G1 X-111.7617
G2 X-111.9382 Y96.0224 I-0.0089 J0.6366
G2 X-112.1474 Y96.1834 I0.0825 J0.3236
G2 X-112.2031 Y96.4414 I0.4812 J0.239
G1 Y97.3047
G1 X-111.6914
G1 Y96.4492
G1 X-110.6406
G1 Y97.207
G1 X-112.0 Y98.3203
G2 X-112.1953 Y98.7266 I0.3006 J0.3946
G1 Y99.3594
G2 X-112.1729 Y99.5358 I0.6366 J0.0089
G2 X-112.0119 Y99.745 I0.3236 J-0.0825
G2 X-111.7539 Y99.8008 I0.239 J-0.4812
G1 X-110.5781
G2 X-110.4017 Y99.7784 I0.0089 J-0.6366
G2 X-110.1925 Y99.6174 I-0.0825 J-0.3236
G2 X-110.1367 Y99.3594 I-0.4812 J-0.239
G1 Y99.2356
G0 Z3.0
G0 X-113.0352
G0 Z0.2
G1 F300.0 Z-0.4
G1 F800.0 Y97.9922
G1 X-113.2109 Y97.8086
G1 X-114.6563
G1 Y96.4336
G1 X-113.5391
G1 Y97.1289
G1 X-113.0352
G1 Y96.4414
G2 X-113.0571 Y96.2658 I-0.643 J-0.0088
G2 X-113.2159 Y96.0563 I-0.324 J0.0807
G2 X-113.4727 Y96.0 I-0.2378 J0.4708
G1 X-114.7227
G2 X-114.8984 Y96.0226 I-0.0088 J0.6247
G2 X-115.1054 Y96.1844 I0.0835 J0.3203
G2 X-115.1602 Y96.4414 I0.4875 J0.2381
G1 Y99.3594
G2 X-115.1382 Y99.535 I0.643 J0.0088
G2 X-114.9794 Y99.7445 I0.324 J-0.0807
G2 X-114.7227 Y99.8008 I0.2378 J-0.4708
G1 X-113.4727
G2 X-113.2969 Y99.7781 I0.0088 J-0.6247
G2 X-113.0899 Y99.6164 I-0.0835 J-0.3203
G2 X-113.0352 Y99.3594 I-0.4875 J-0.2381
G1 Y99.2356
G0 Z3.0
G0 X-113.5391
G0 Z0.2
G1 F300.0 Z-0.4
G1 F800.0 Y99.3672
G1 X-114.6563
G1 Y98.2227
G1 X-113.5391
G1 Y99.2356
G0 Z3.0
G0 X-116.0314 Y99.3307
G0 Z0.2
G1 F300.0 Z-0.4
G2 F800.0 X-116.0755 Y99.1512 I-0.4588 J0.0175
G2 X-116.3182 Y98.959 I-0.3459 J0.1873
G2 X-116.625 Y98.918 I-0.2858 J0.9697
G2 X-116.7969 Y98.9219 I0.0467 J5.8366
G3 X-116.9609 Y98.9297 I-0.2198 J-2.8892
G2 X-115.9102 Y96.0 I-796.9132 J-287.4795
G1 X-116.4805
G1 X-117.6172 Y99.2734
G1 X-117.543 Y99.3828
G1 X-116.5742
G1 Y101.6328
G1 X-117.9688
G1 Y96.0
G1 X-118.5117
G1 Y102.1133
G1 X-116.4648
G2 X-116.1523 Y101.9922 I0.0156 J-0.4234
G2 X-116.0313 Y101.6797 I-0.3023 J-0.2969
G1 Y99.3594
G2 X-116.0314 Y99.3307 I-0.459 J-0.0112
G0 Z3.0
G0 X-123.0
G0 Z0.2
G1 F300.0 Z-0.4
G1 F800.0 Y110.0
G3 X-125.0 Y112.0 I-2.0 J0.0
G1 X-148.0
G3 X-150.0 Y110.0 I0.0 J-2.0
G1 Y69.0
G3 X-148.0 Y67.0 I2.0 J0.0
G1 X-125.0
G3 X-123.0 Y69.0 I0.0 J2.0
G1 Y99.3307
G0 Z3.0
G0 X-129.0859
G0 Z0.2
G1 F300.0 Z-0.4
G1 F800.0 Y97.0
G1 X-129.8535
G1 Y97.1582
G2 X-130.7852 Y97.0352 I-12.1355 J88.2946
G2 X-131.7168 Y96.9648 I-1.0634 J7.8831
G2 X-131.9698 Y96.9969 I-0.0127 J0.9126
G2 X-132.2697 Y97.2278 I0.1182 J0.4639
G2 X-132.3496 Y97.5977 I0.6899 J0.3427
G1 Y102.7012
G1 X-131.582
G1 Y97.6973
G1 X-129.8535 Y97.7441
G1 Y102.7012
G1 X-129.0859
G1 Y99.3307
G0 Z3.0
G0 X-129.5313 Y103.2051
G0 Z0.2
G1 F300.0 Z-0.4
G1 F800.0 X-130.3926
G1 Y104.0898
G1 X-129.5313
G1 Y103.2051
G0 Z3.0
G0 X-131.043
G0 Z0.2
G1 F300.0 Z-0.4
G1 F800.0 X-131.9043
G1 Y104.0898
G1 X-131.043
G1 Y103.2051
G0 Z3.0
G0 X-133.6461 Y102.3606
G0 Z0.2
G1 F300.0 Z-0.4
G2 F800.0 X-133.6094 Y102.0977 I-0.725 J-0.2352
G1 Y97.0
G1 X-134.3887
G1 Y102.0039
G1 X-136.1055 Y101.957
G1 Y97.0
G1 X-136.8848
G1 Y102.7012
G1 X-136.1055
G1 Y102.543
G3 X-135.1855 Y102.666 I-10.2101 J79.833
G2 X-134.2598 Y102.7363 I1.0626 J-7.861
G2 X-134.0023 Y102.7046 I0.0128 J-0.9577
G2 X-133.6933 Y102.474 I-0.1164 J-0.4782
G2 X-133.6461 Y102.3606 I-0.6778 J-0.3486
G0 Z3.0
G0 X-138.1746 Y102.112
G0 Z0.2
G1 F300.0 Z-0.4
G2 F800.0 X-138.1738 Y102.0391 I-0.8125 J-0.0446
G1 Y99.9883
G1 X-138.4375 Y99.7129
G1 X-140.6055
G1 Y97.6504
G1 X-138.9297
G1 Y98.6934
G1 X-138.1738
G1 Y97.6621
G2 X-138.2068 Y97.3987 I-0.9644 J-0.0132
G2 X-138.445 Y97.0845 I-0.486 J0.1211
G2 X-138.8301 Y97.0 I-0.3567 J0.7061
G1 X-140.7051
G2 X-140.9687 Y97.034 I-0.0133 J0.937
G2 X-141.2793 Y97.2766 I0.1253 J0.4805
G2 X-141.3613 Y97.6621 I0.7312 J0.3572
G1 Y102.0391
G2 X-141.3284 Y102.3025 I0.9644 J0.0132
G2 X-141.0902 Y102.6167 I0.486 J-0.1211
G2 X-140.7051 Y102.7012 I0.3567 J-0.7061
G1 X-138.8301
G2 X-138.5665 Y102.6672 I0.0133 J-0.937
G2 X-138.2559 Y102.4246 I-0.1253 J-0.4805
G2 X-138.1746 Y102.112 I-0.7312 J-0.3572
G0 Z3.0
G0 X-138.9297 Y102.0508
G0 Z0.2
G1 F300.0 Z-0.4
G1 F800.0 X-140.6055
G1 Y100.334
G1 X-138.9297
G1 Y102.0508
G0 Z3.0
G0 X-142.7324
G0 Z0.2
G1 F300.0 Z-0.4
G1 F800.0 Y97.0
G1 X-143.5
G1 Y102.8066
G2 X-143.418 Y103.5273 I10.377 J-0.8161
G1 X-144.918 Y97.8613
G1 X-145.082
G1 X-146.582 Y103.5273
G2 X-146.5 Y102.8066 I-10.8709 J-1.6024
G1 Y97.0
G1 X-147.2676
G1 Y106.1699
G1 X-146.5117
G1 X-145.0234 Y100.2051
G2 X-145.0 Y99.9414 I-2.5182 J-0.3567
G2 X-144.9766 Y100.2051 I2.3158 J-0.073
G1 X-143.4883 Y106.1699
G1 X-142.7324
G1 Y102.0508
G0 Z3.0
G0 X-142.4883 Y61.1699
G0 Z0.2
G1 F300.0 Z-0.4
G1 F800.0 X-141.7324
G1 Y52.0
G1 X-142.5
G1 Y57.8066
G2 X-142.418 Y58.5273 I10.377 J-0.8161
G1 X-143.918 Y52.8613
G1 X-144.082
G1 X-145.582 Y58.5273
G2 X-145.5 Y57.8066 I-10.8709 J-1.6024
G1 Y52.0
G1 X-146.2676
G1 Y61.1699
G1 X-145.5117
G1 X-144.0234 Y55.2051
G2 X-144.0 Y54.9414 I-2.5182 J-0.3567
G2 X-143.9766 Y55.2051 I2.3158 J-0.073
G1 X-142.4883 Y61.1699
G0 Z3.0
G0 X-140.1193 Y57.5988
G0 Z0.2
G1 F300.0 Z-0.4
G2 F800.0 X-140.0902 Y57.6167 I0.2769 J-0.4174
G2 X-139.7051 Y57.7012 I0.3567 J-0.7061
G1 X-137.748
G2 X-137.4834 Y57.6676 I0.0133 J-0.9549
G2 X-137.1696 Y57.4261 I-0.1237 J-0.4854
G2 X-137.0859 Y57.0391 I-0.7218 J-0.3585
G1 Y52.6621
G2 X-137.1195 Y52.3974 I-0.9549 J-0.0133
G2 X-137.361 Y52.0836 I-0.4854 J0.1237
G2 X-137.748 Y52.0 I-0.3585 J0.7218
G1 X-139.7051
G2 X-139.9687 Y52.034 I-0.0133 J0.937
G2 X-140.2793 Y52.2766 I0.1253 J0.4805
G2 X-140.3613 Y52.6621 I0.7312 J0.3572
G1 Y57.0391
G2 X-140.3284 Y57.3025 I0.9644 J0.0132
G2 X-140.1193 Y57.5988 I0.486 J-0.1211
G0 Z3.0
G0 X-139.582 Y57.0156
G0 Z0.2
G1 F300.0 Z-0.4
G1 F800.0 Y52.6855
G1 X-137.8652
G1 Y57.0156
G1 X-139.582
G0 Z3.0
G0 X-136.1426 Y57.7012
G0 Z0.2
G1 F300.0 Z-0.4
G1 F800.0 X-135.3398
G1 X-134.3672 Y53.2129
G1 X-133.3828 Y57.7012
G1 X-132.6035
G1 X-134.0156 Y51.9883
G1 X-134.7246
G1 X-136.1426 Y57.7012
G0 Z3.0
G0 X-131.6418 Y57.1661
G0 Z0.2
G1 F300.0 Z-0.4
G2 F800.0 X-131.6155 Y57.3025 I0.9578 J-0.1139
G2 X-131.3773 Y57.6167 I0.486 J-0.1211
G2 X-130.9922 Y57.7012 I0.3567 J-0.7061
G1 X-129.1172
G2 X-128.8536 Y57.6672 I0.0133 J-0.937
G2 X-128.543 Y57.4246 I-0.1253 J-0.4805
G2 X-128.4609 Y57.0391 I-0.7312 J-0.3572
G1 Y54.9883
G1 X-128.7246 Y54.7129
G1 X-130.8926
G1 Y52.6504
G1 X-129.2168
G1 Y53.6934
G1 X-128.4609
G1 Y52.6621
G2 X-128.4939 Y52.3987 I-0.9644 J-0.0132
G2 X-128.7321 Y52.0845 I-0.486 J0.1211
G2 X-129.1172 Y52.0 I-0.3567 J0.7061
G1 X-130.9922
G2 X-131.2558 Y52.034 I-0.0133 J0.937
G2 X-131.5664 Y52.2766 I0.1253 J0.4805
G2 X-131.6484 Y52.6621 I0.7312 J0.3572
G1 Y57.0391
G2 X-131.6418 Y57.1661 I0.9644 J0.0132
G0 Z3.0
G0 X-130.8926 Y57.0508
G0 Z0.2
G1 F300.0 Z-0.4
G1 F800.0 Y55.334
G1 X-129.2168
G1 Y57.0508
G1 X-130.8926
G0 Z3.0
G0 X-114.8242 Y58.0781
G0 Z0.2
G1 F300.0 Z-0.4
G1 F800.0 Y58.1133
G1 X-114.2734
G1 X-113.4336 Y55.0547
G1 X-112.6016 Y58.1133
G1 X-112.0547
G1 Y58.0781
G1 X-112.7969 Y55.6055
G3 X-112.9954 Y54.9902 I8.4896 J-3.0797
G3 X-113.168 Y54.3672 I26.3588 J-7.6343
G1 Y52.0
G1 X-113.7109
G1 Y54.3672
G3 X-113.8789 Y54.9922 I-4.2561 J-0.8087
G2 X-114.082 Y55.6055 I139.2835 J46.4724
G1 X-114.8242 Y58.0781
G0 Z3.0
G0 X-111.6055 Y54.9102
G0 Z0.2
G1 F300.0 Z-0.4
G1 F800.0 X-110.4805
G1 Y56.0156
G1 X-110.0
G1 Y54.9102
G1 X-108.875
G1 Y54.457
G1 X-110.0
G1 Y53.3516
G1 X-110.4805
G1 Y54.457
G1 X-111.6055
G1 Y54.9102
G0 Z3.0
G0 X-140.9453 Y35.5742
G0 Z0.2
G1 F300.0 Z-0.4
G1 F800.0 Y35.0898
G1 X-142.5547
G1 Y35.5742
G1 X-140.9453
G0 Z3.0
G0 X-143.6535 Y34.6448
G0 Z0.2
G1 F300.0 Z-0.4
G2 F800.0 X-143.6318 Y34.5817 I-571.9114 J-196.2788
G2 X-143.3613 Y33.792 I-248.9682 J-85.7314
G2 X-143.0977 Y33.0 I-32.2159 J-11.1634
G1 X-143.6563
G1 X-144.4727 Y35.5117
G1 X-145.2891 Y33.0
G1 X-145.832
G1 Y33.0313
G1 X-144.7422 Y36.1289
G2 X-145.2593 Y37.6199 I963.4491 J334.9851
G2 X-145.7695 Y39.1133 I116.5334 J40.6485
G1 X-145.1992
G1 X-144.4648 Y36.793
G1 X-143.7031 Y39.1133
G1 X-143.1602
G1 Y39.0781
G1 X-144.1758 Y36.1602
G2 X-143.6535 Y34.6448 I-571.3891 J-197.7941
( Ausfräsen )
G0 Z3.0
( T2 : 2.0 )
T2 M6
M3 S1000
G0 X-155.0 Y-1.0
G0 Z0.2
G1 F300.0 Z-0.4
G1 F800.0 X-5.0
G3 X1.0 Y5.0 I0.0 J6.0
G1 Y110.0
G3 X-5.0 Y116.0 I-6.0 J0.0
G1 X-155.0
G3 X-161.0 Y110.0 I0.0 J-6.0
G1 Y5.0
G3 X-155.0 Y-1.0 I6.0 J0.0
G1 F300.0 Z-0.8
G1 F800.0 X-5.0
G3 X1.0 Y5.0 I0.0 J6.0
G1 Y110.0
G3 X-5.0 Y116.0 I-6.0 J0.0
G1 X-155.0
G3 X-161.0 Y110.0 I0.0 J-6.0
G1 Y5.0
G3 X-155.0 Y-1.0 I6.0 J0.0
G1 F300.0 Z-1.2
G1 F800.0 X-5.0
G3 X1.0 Y5.0 I0.0 J6.0
G1 Y110.0
G3 X-5.0 Y116.0 I-6.0 J0.0
G1 X-155.0
G3 X-161.0 Y110.0 I0.0 J-6.0
G1 Y5.0
G3 X-155.0 Y-1.0 I6.0 J0.0
G1 F300.0 Z-1.6
G1 F800.0 X-5.0
G3 X1.0 Y5.0 I0.0 J6.0
G1 Y110.0
G3 X-5.0 Y116.0 I-6.0 J0.0
G1 X-155.0
G3 X-161.0 Y110.0 I0.0 J-6.0
G1 Y5.0
G3 X-155.0 Y-1.0 I6.0 J0.0
G1 F300.0 Z-2.0
G1 F800.0 X-5.0
G3 X1.0 Y5.0 I0.0 J6.0
G1 Y110.0
G3 X-5.0 Y116.0 I-6.0 J0.0
G1 X-155.0
G3 X-161.0 Y110.0 I0.0 J-6.0
G1 Y5.0
G3 X-155.0 Y-1.0 I6.0 J0.0
G1 F300.0 Z-2.4
G1 F800.0 X-5.0
G3 X1.0 Y5.0 I0.0 J6.0
G1 Y110.0
G3 X-5.0 Y116.0 I-6.0 J0.0
G1 X-155.0
G3 X-161.0 Y110.0 I0.0 J-6.0
G1 Y5.0
G3 X-155.0 Y-1.0 I6.0 J0.0
G1 F300.0 Z-2.8
G1 F800.0 X-5.0
G3 X1.0 Y5.0 I0.0 J6.0
G1 Y110.0
G3 X-5.0 Y116.0 I-6.0 J0.0
G1 X-155.0
G3 X-161.0 Y110.0 I0.0 J-6.0
G1 Y5.0
G3 X-155.0 Y-1.0 I6.0 J0.0
G1 F300.0 Z-3.2
G1 F800.0 X-5.0
G3 X1.0 Y5.0 I0.0 J6.0
G1 Y110.0
G3 X-5.0 Y116.0 I-6.0 J0.0
G1 X-155.0
G3 X-161.0 Y110.0 I0.0 J-6.0
G1 Y5.0
G3 X-155.0 Y-1.0 I6.0 J0.0
G1 F300.0 Z-3.6
G1 F800.0 X-5.0
G3 X1.0 Y5.0 I0.0 J6.0
G1 Y110.0
G3 X-5.0 Y116.0 I-6.0 J0.0
G1 X-155.0
G3 X-161.0 Y110.0 I0.0 J-6.0
G1 Y5.0
G3 X-155.0 Y-1.0 I6.0 J0.0
G1 F300.0 Z-4.0
G1 F800.0 X-5.0
G3 X1.0 Y5.0 I0.0 J6.0
G1 Y110.0
G3 X-5.0 Y116.0 I-6.0 J0.0
G1 X-155.0
G3 X-161.0 Y110.0 I0.0 J-6.0
G1 Y5.0
G3 X-155.0 Y-1.0 I6.0 J0.0
G0 Z3.0
M5
M30
